; G-code generated by Gerber to G-code converter
; Operation: drill
; Tool diameter: 1.2 mm
; Feed rate: 100 mm/min
; Cut depth: 0.3 mm

G21         ; Set units to millimeters
G90         ; Absolute positioning
G94         ; Feed rate per minute
M3 S10000  ; Start spindle
G4 P2       ; Dwell 2 seconds for spindle to reach speed
G0 Z2.0    ; Move to safe height
; Drilling
; Total depth: 1.54 mm
; Holes: 0.80 mm diameter (8 holes)
G0 X21.0000 Y-23.5000 Z2.0
G1 Z-0.3000 F60
G0 Z1.0
G1 Z-0.6000 F60
G0 Z1.0
G1 Z-0.9000 F60
G0 Z1.0
G1 Z-1.2000 F60
G0 Z1.0
G1 Z-1.5000 F60
G0 Z1.0
G1 Z-1.5400 F60
G0 Z1.0
G0 Z2.0
G0 X21.0000 Y-31.1200 Z2.0
G1 Z-0.3000 F60
G0 Z1.0
G1 Z-0.6000 F60
G0 Z1.0
G1 Z-0.9000 F60
G0 Z1.0
G1 Z-1.2000 F60
G0 Z1.0
G1 Z-1.5000 F60
G0 Z1.0
G1 Z-1.5400 F60
G0 Z1.0
G0 Z2.0
G0 X23.5400 Y-23.5000 Z2.0
G1 Z-0.3000 F60
G0 Z1.0
G1 Z-0.6000 F60
G0 Z1.0
G1 Z-0.9000 F60
G0 Z1.0
G1 Z-1.2000 F60
G0 Z1.0
G1 Z-1.5000 F60
G0 Z1.0
G1 Z-1.5400 F60
G0 Z1.0
G0 Z2.0
G0 X23.5400 Y-31.1200 Z2.0
G1 Z-0.3000 F60
G0 Z1.0
G1 Z-0.6000 F60
G0 Z1.0
G1 Z-0.9000 F60
G0 Z1.0
G1 Z-1.2000 F60
G0 Z1.0
G1 Z-1.5000 F60
G0 Z1.0
G1 Z-1.5400 F60
G0 Z1.0
G0 Z2.0
G0 X26.0800 Y-23.5000 Z2.0
G1 Z-0.3000 F60
G0 Z1.0
G1 Z-0.6000 F60
G0 Z1.0
G1 Z-0.9000 F60
G0 Z1.0
G1 Z-1.2000 F60
G0 Z1.0
G1 Z-1.5000 F60
G0 Z1.0
G1 Z-1.5400 F60
G0 Z1.0
G0 Z2.0
G0 X26.0800 Y-31.1200 Z2.0
G1 Z-0.3000 F60
G0 Z1.0
G1 Z-0.6000 F60
G0 Z1.0
G1 Z-0.9000 F60
G0 Z1.0
G1 Z-1.2000 F60
G0 Z1.0
G1 Z-1.5000 F60
G0 Z1.0
G1 Z-1.5400 F60
G0 Z1.0
G0 Z2.0
G0 X28.6200 Y-23.5000 Z2.0
G1 Z-0.3000 F60
G0 Z1.0
G1 Z-0.6000 F60
G0 Z1.0
G1 Z-0.9000 F60
G0 Z1.0
G1 Z-1.2000 F60
G0 Z1.0
G1 Z-1.5000 F60
G0 Z1.0
G1 Z-1.5400 F60
G0 Z1.0
G0 Z2.0
G0 X28.6200 Y-31.1200 Z2.0
G1 Z-0.3000 F60
G0 Z1.0
G1 Z-0.6000 F60
G0 Z1.0
G1 Z-0.9000 F60
G0 Z1.0
G1 Z-1.2000 F60
G0 Z1.0
G1 Z-1.5000 F60
G0 Z1.0
G1 Z-1.5400 F60
G0 Z1.0
G0 Z2.0
G0 Z2.0    ; Move to safe height
M5          ; Stop spindle
G0 X0 Y0    ; Return to origin
M2          ; Program end
