; G-code generated by Gerber to G-code converter
; Operation: edge_cuts
; Tool diameter: 3.175 mm
; Feed rate: 150 mm/min
; Cut depth: 0.3 mm

G21         ; Set units to millimeters
G90         ; Absolute positioning
G94         ; Feed rate per minute
M3 S8000  ; Start spindle
G4 P2       ; Dwell 2 seconds for spindle to reach speed
G0 Z2.0    ; Move to safe height
; Board cutout
; Total depth: 1.5 mm
; Cutout pass 1 (depth: 0.30 mm)
G0 X27.2161 Y18.7960 Z2.0
G1 Z-0.3000 F30
G1 X27.2034 Y0.0127 F150
G1 X0.0508 Y0.0127 F150
G1 X0.0127 Y0.0508 F150
G1 X0.0127 Y18.7706 F150
G1 X0.0508 Y18.8087 F150
G1 X27.2161 Y18.7960 F150
G0 Z2.0
; Cutout pass 2 (depth: 0.60 mm)
G0 X27.2161 Y18.7960 Z2.0
G1 Z-0.6000 F30
G1 X27.2034 Y0.0127 F150
G1 X0.0508 Y0.0127 F150
G1 X0.0127 Y0.0508 F150
G1 X0.0127 Y18.7706 F150
G1 X0.0508 Y18.8087 F150
G1 X27.2161 Y18.7960 F150
G0 Z2.0
; Cutout pass 3 (depth: 0.90 mm)
G0 X27.2161 Y18.7960 Z2.0
G1 Z-0.9000 F30
G1 X27.2034 Y0.0127 F150
G1 X0.0508 Y0.0127 F150
G1 X0.0127 Y0.0508 F150
G1 X0.0127 Y18.7706 F150
G1 X0.0508 Y18.8087 F150
G1 X27.2161 Y18.7960 F150
G0 Z2.0
; Cutout pass 4 (depth: 1.20 mm)
G0 X27.2161 Y18.7960 Z2.0
G1 Z-1.2000 F30
G1 X27.2034 Y0.0127 F150
G1 X0.0508 Y0.0127 F150
G1 X0.0127 Y0.0508 F150
G1 X0.0127 Y18.7706 F150
G1 X0.0508 Y18.8087 F150
G1 X27.2161 Y18.7960 F150
G0 Z2.0
; Cutout pass 5 (depth: 1.50 mm)
G0 X27.2161 Y18.7960 Z2.0
G1 Z-1.5000 F30
G1 X27.2034 Y0.0127 F150
G1 X0.0508 Y0.0127 F150
G1 X0.0127 Y0.0508 F150
G1 X0.0127 Y18.7706 F150
G1 X0.0508 Y18.8087 F150
G1 X27.2161 Y18.7960 F150
G0 Z2.0
G0 Z2.0    ; Move to safe height
M5          ; Stop spindle
G0 X0 Y0    ; Return to origin
M2          ; Program end
