; G-code generated by Gerber to G-code converter
; Input file: Test etching footprints-F_Cu.gbr
; Tool diameter: 0.1 mm
; Feed rate: 200 mm/min
; Cut depth: 0.1 mm

G21         ; Set units to millimeters
G90         ; Absolute positioning
G94         ; Feed rate per minute
M3 S10000  ; Start spindle
G4 P2       ; Dwell 2 seconds for spindle to reach speed
G0 Z2.0    ; Move to safe height

; Isolation pass 1
G0 X8.4074 Y3.9243 Z2.0
G1 Z-0.1000 F50
G1 X8.1788 Y3.9243 F200
G1 X8.1534 Y3.8989 F200
G1 X8.0010 Y3.8735 F200
G1 X7.8232 Y3.7719 F200
G1 X7.6581 Y3.6068 F200
G1 X7.6581 Y3.5814 F200
G1 X7.6073 Y3.5306 F200
G1 X7.5565 Y3.4290 F200
G1 X7.5565 Y3.3782 F200
G1 X7.5311 Y3.3528 F200
G1 X7.5311 Y3.2766 F200
G1 X7.5057 Y3.2512 F200
G1 X7.5057 Y3.0226 F200
G1 X7.5311 Y2.9972 F200
G1 X7.5565 Y2.8448 F200
G1 X7.6581 Y2.6670 F200
G1 X7.8232 Y2.5019 F200
G1 X7.8486 Y2.5019 F200
G1 X7.8994 Y2.4511 F200
G1 X8.0010 Y2.4003 F200
G1 X8.0518 Y2.4003 F200
G1 X8.0772 Y2.3749 F200
G1 X8.1534 Y2.3749 F200
G1 X8.1788 Y2.3495 F200
G1 X8.4074 Y2.3495 F200
G1 X8.4328 Y2.3749 F200
G1 X8.5090 Y2.3749 F200
G1 X8.5344 Y2.4003 F200
G1 X8.5852 Y2.4003 F200
G1 X8.6868 Y2.4511 F200
G1 X8.7884 Y2.5273 F200
G1 X11.2141 Y0.1016 F200
G1 X11.2141 Y0.0762 F200
G1 X11.3030 Y0.0127 F200
G1 X16.4084 Y0.0127 F200
G1 X16.5227 Y0.1016 F200
G1 X16.4973 Y0.3810 F200
G1 X16.5481 Y0.4318 F200
G1 X16.5354 Y1.3081 F200
G1 X16.2687 Y1.2954 F200
G1 X16.2687 Y0.4318 F200
G1 X16.3195 Y0.3810 F200
G1 X16.3195 Y0.2286 F200
G1 X16.2814 Y0.1905 F200
G1 X11.3792 Y0.1905 F200
G1 X11.3284 Y0.2159 F200
G1 X8.9027 Y2.6416 F200
G1 X9.0297 Y2.8448 F200
G1 X9.0551 Y2.9972 F200
G1 X9.0805 Y3.0226 F200
G1 X9.0805 Y3.2512 F200
G1 X9.0551 Y3.2766 F200
G1 X9.0297 Y3.4290 F200
G1 X8.9281 Y3.6068 F200
G1 X8.7630 Y3.7719 F200
G1 X8.5852 Y3.8735 F200
G1 X8.4328 Y3.8989 F200
G1 X8.4074 Y3.9243 F200
G0 Z2.0
G0 X16.0274 Y1.3081 Z2.0
G1 Z-0.1000 F50
G1 X15.7607 Y1.2954 F200
G1 X15.7734 Y0.4191 F200
G1 X16.0401 Y0.4318 F200
G1 X16.0274 Y1.3081 F200
G0 Z2.0
G0 X17.0180 Y1.3081 Z2.0
G1 Z-0.1000 F50
G1 X16.7513 Y1.2954 F200
G1 X16.7640 Y0.4191 F200
G1 X17.0307 Y0.4318 F200
G1 X17.0180 Y1.3081 F200
G0 Z2.0
G0 X17.5260 Y1.3081 Z2.0
G1 Z-0.1000 F50
G1 X17.2593 Y1.2954 F200
G1 X17.2720 Y0.4191 F200
G1 X17.5387 Y0.4318 F200
G1 X17.5260 Y1.3081 F200
G0 Z2.0
G0 X15.5448 Y1.3081 Z2.0
G1 Z-0.1000 F50
G1 X15.2781 Y1.2954 F200
G1 X15.2908 Y1.0287 F200
G1 X15.5575 Y1.0414 F200
G1 X15.5448 Y1.3081 F200
G0 Z2.0
G0 X18.0086 Y1.3081 Z2.0
G1 Z-0.1000 F50
G1 X17.7419 Y1.2954 F200
G1 X17.7546 Y1.0287 F200
G1 X18.0213 Y1.0414 F200
G1 X18.0086 Y1.3081 F200
G0 Z2.0
G0 X15.5448 Y1.7907 Z2.0
G1 Z-0.1000 F50
G1 X14.6812 Y1.7907 F200
G1 X14.6685 Y1.5240 F200
G1 X15.5448 Y1.5113 F200
G1 X15.5448 Y1.7907 F200
G0 Z2.0
G0 X17.5260 Y3.2893 Z2.0
G1 Z-0.1000 F50
G1 X15.7607 Y3.2766 F200
G1 X15.7734 Y1.5113 F200
G1 X17.5387 Y1.5240 F200
G1 X17.5260 Y3.2893 F200
G0 Z2.0
G0 X18.6182 Y1.7907 Z2.0
G1 Z-0.1000 F50
G1 X17.7546 Y1.7907 F200
G1 X17.7419 Y1.5240 F200
G1 X18.6182 Y1.5113 F200
G1 X18.6182 Y1.7907 F200
G0 Z2.0
G0 X15.5448 Y2.2987 Z2.0
G1 Z-0.1000 F50
G1 X14.6812 Y2.2987 F200
G1 X14.6685 Y2.0320 F200
G1 X15.5448 Y2.0193 F200
G1 X15.5448 Y2.2987 F200
G0 Z2.0
G0 X18.6182 Y2.2987 Z2.0
G1 Z-0.1000 F50
G1 X17.7546 Y2.2987 F200
G1 X17.7419 Y2.0320 F200
G1 X18.6182 Y2.0193 F200
G1 X18.6182 Y2.2987 F200
G0 Z2.0
G0 X0.8890 Y3.9243 Z2.0
G1 Z-0.1000 F50
G1 X0.6604 Y3.9243 F200
G1 X0.6350 Y3.8989 F200
G1 X0.5588 Y3.8989 F200
G1 X0.3048 Y3.7719 F200
G1 X0.1397 Y3.6068 F200
G1 X0.1397 Y3.5814 F200
G1 X0.0889 Y3.5306 F200
G1 X0.0381 Y3.4290 F200
G1 X0.0381 Y3.3782 F200
G1 X0.0127 Y3.3528 F200
G1 X0.0127 Y3.2766 F200
G1 X-0.0127 Y3.2512 F200
G1 X-0.0127 Y3.0226 F200
G1 X0.0127 Y2.9972 F200
G1 X0.0127 Y2.9210 F200
G1 X0.1397 Y2.6670 F200
G1 X0.3048 Y2.5019 F200
G1 X0.3302 Y2.5019 F200
G1 X0.3810 Y2.4511 F200
G1 X0.4826 Y2.4003 F200
G1 X0.5334 Y2.4003 F200
G1 X0.5588 Y2.3749 F200
G1 X0.6350 Y2.3749 F200
G1 X0.6604 Y2.3495 F200
G1 X0.8890 Y2.3495 F200
G1 X0.9144 Y2.3749 F200
G1 X0.9906 Y2.3749 F200
G1 X1.2446 Y2.5019 F200
G1 X1.4097 Y2.6670 F200
G1 X1.4097 Y2.6924 F200
G1 X1.4605 Y2.7432 F200
G1 X1.5113 Y2.8448 F200
G1 X1.5113 Y2.8956 F200
G1 X1.5367 Y2.9210 F200
G1 X1.5367 Y2.9972 F200
G1 X1.5621 Y3.0226 F200
G1 X1.5621 Y3.2512 F200
G1 X1.5367 Y3.2766 F200
G1 X1.5367 Y3.3528 F200
G1 X1.4097 Y3.6068 F200
G1 X1.2446 Y3.7719 F200
G1 X1.2192 Y3.7719 F200
G1 X1.1684 Y3.8227 F200
G1 X1.0668 Y3.8735 F200
G1 X1.0160 Y3.8735 F200
G1 X0.9906 Y3.8989 F200
G1 X0.9144 Y3.8989 F200
G1 X0.8890 Y3.9243 F200
G0 Z2.0
G0 X3.3782 Y3.9243 Z2.0
G1 Z-0.1000 F50
G1 X3.1496 Y3.9243 F200
G1 X3.1242 Y3.8989 F200
G1 X3.0480 Y3.8989 F200
G1 X2.7940 Y3.7719 F200
G1 X2.6289 Y3.6068 F200
G1 X2.6289 Y3.5814 F200
G1 X2.5781 Y3.5306 F200
G1 X2.5273 Y3.4290 F200
G1 X2.5273 Y3.3782 F200
G1 X2.5019 Y3.3528 F200
G1 X2.5019 Y3.2766 F200
G1 X2.4765 Y3.2512 F200
G1 X2.4765 Y3.0226 F200
G1 X2.5019 Y2.9972 F200
G1 X2.5019 Y2.9210 F200
G1 X2.6289 Y2.6670 F200
G1 X2.7940 Y2.5019 F200
G1 X2.8194 Y2.5019 F200
G1 X2.8702 Y2.4511 F200
G1 X2.9718 Y2.4003 F200
G1 X3.0226 Y2.4003 F200
G1 X3.0480 Y2.3749 F200
G1 X3.1242 Y2.3749 F200
G1 X3.1496 Y2.3495 F200
G1 X3.3782 Y2.3495 F200
G1 X3.4036 Y2.3749 F200
G1 X3.4798 Y2.3749 F200
G1 X3.7338 Y2.5019 F200
G1 X3.8989 Y2.6670 F200
G1 X3.8989 Y2.6924 F200
G1 X3.9497 Y2.7432 F200
G1 X4.0005 Y2.8448 F200
G1 X4.0005 Y2.8956 F200
G1 X4.0259 Y2.9210 F200
G1 X4.0259 Y2.9972 F200
G1 X4.0513 Y3.0226 F200
G1 X4.0513 Y3.2512 F200
G1 X4.0259 Y3.2766 F200
G1 X4.0259 Y3.3528 F200
G1 X3.8989 Y3.6068 F200
G1 X3.7338 Y3.7719 F200
G1 X3.7084 Y3.7719 F200
G1 X3.6576 Y3.8227 F200
G1 X3.5560 Y3.8735 F200
G1 X3.5052 Y3.8735 F200
G1 X3.4798 Y3.8989 F200
G1 X3.4036 Y3.8989 F200
G1 X3.3782 Y3.9243 F200
G0 Z2.0
G0 X5.8928 Y3.9243 Z2.0
G1 Z-0.1000 F50
G1 X5.6642 Y3.9243 F200
G1 X5.6388 Y3.8989 F200
G1 X5.5626 Y3.8989 F200
G1 X5.3086 Y3.7719 F200
G1 X5.1435 Y3.6068 F200
G1 X5.1435 Y3.5814 F200
G1 X5.0927 Y3.5306 F200
G1 X5.0419 Y3.4290 F200
G1 X5.0419 Y3.3782 F200
G1 X5.0165 Y3.3528 F200
G1 X5.0165 Y3.2766 F200
G1 X4.9911 Y3.2512 F200
G1 X4.9911 Y3.0226 F200
G1 X5.0165 Y2.9972 F200
G1 X5.0165 Y2.9210 F200
G1 X5.1435 Y2.6670 F200
G1 X5.3086 Y2.5019 F200
G1 X5.3340 Y2.5019 F200
G1 X5.3848 Y2.4511 F200
G1 X5.4864 Y2.4003 F200
G1 X5.5372 Y2.4003 F200
G1 X5.5626 Y2.3749 F200
G1 X5.6388 Y2.3749 F200
G1 X5.6642 Y2.3495 F200
G1 X5.8928 Y2.3495 F200
G1 X5.9182 Y2.3749 F200
G1 X5.9944 Y2.3749 F200
G1 X6.2484 Y2.5019 F200
G1 X6.4135 Y2.6670 F200
G1 X6.4135 Y2.6924 F200
G1 X6.4643 Y2.7432 F200
G1 X6.5151 Y2.8448 F200
G1 X6.5151 Y2.8956 F200
G1 X6.5405 Y2.9210 F200
G1 X6.5405 Y2.9972 F200
G1 X6.5659 Y3.0226 F200
G1 X6.5659 Y3.2512 F200
G1 X6.5405 Y3.2766 F200
G1 X6.5405 Y3.3528 F200
G1 X6.4135 Y3.6068 F200
G1 X6.2484 Y3.7719 F200
G1 X6.2230 Y3.7719 F200
G1 X6.1722 Y3.8227 F200
G1 X6.0706 Y3.8735 F200
G1 X6.0198 Y3.8735 F200
G1 X5.9944 Y3.8989 F200
G1 X5.9182 Y3.8989 F200
G1 X5.8928 Y3.9243 F200
G0 Z2.0
G0 X15.5448 Y2.7813 Z2.0
G1 Z-0.1000 F50
G1 X14.6812 Y2.7813 F200
G1 X14.6685 Y2.5146 F200
G1 X15.5448 Y2.5019 F200
G1 X15.5448 Y2.7813 F200
G0 Z2.0
G0 X18.6182 Y2.7813 Z2.0
G1 Z-0.1000 F50
G1 X17.7546 Y2.7813 F200
G1 X17.7419 Y2.5146 F200
G1 X18.6182 Y2.5019 F200
G1 X18.6182 Y2.7813 F200
G0 Z2.0
G0 X15.5448 Y3.2893 Z2.0
G1 Z-0.1000 F50
G1 X14.6812 Y3.2893 F200
G1 X14.6685 Y3.0226 F200
G1 X15.5448 Y3.0099 F200
G1 X15.5448 Y3.2893 F200
G0 Z2.0
G0 X18.6182 Y3.2893 Z2.0
G1 Z-0.1000 F50
G1 X17.7546 Y3.2893 F200
G1 X17.7419 Y3.0226 F200
G1 X18.6182 Y3.0099 F200
G1 X18.6182 Y3.2893 F200
G0 Z2.0
G0 X8.9154 Y11.4681 Z2.0
G1 Z-0.1000 F50
G1 X7.6962 Y11.4681 F200
G1 X7.6454 Y11.4427 F200
G1 X7.5311 Y11.3284 F200
G1 X7.5057 Y11.2776 F200
G1 X7.5057 Y10.0838 F200
G1 X7.5311 Y10.0330 F200
G1 X7.6454 Y9.9187 F200
G1 X7.6962 Y9.8933 F200
G1 X8.9154 Y9.8933 F200
G1 X8.9662 Y9.9187 F200
G1 X9.0805 Y10.0330 F200
G1 X9.0805 Y10.5410 F200
G1 X9.1186 Y10.5791 F200
G1 X10.0330 Y10.5791 F200
G1 X13.0429 Y7.5692 F200
G1 X13.0683 Y7.5184 F200
G1 X13.0683 Y5.6642 F200
G1 X13.0429 Y5.6388 F200
G1 X13.0429 Y5.5626 F200
G1 X13.0810 Y5.5245 F200
G1 X13.1318 Y5.4991 F200
G1 X15.5956 Y5.4991 F200
G1 X15.8115 Y5.3086 F200
G1 X15.8115 Y5.2578 F200
G1 X15.8369 Y5.2324 F200
G1 X15.8369 Y4.3942 F200
G1 X15.7607 Y4.3434 F200
G1 X15.7607 Y3.4798 F200
G1 X16.0274 Y3.4671 F200
G1 X16.0401 Y4.3434 F200
G1 X16.0147 Y4.3688 F200
G1 X16.0147 Y5.3594 F200
G1 X15.9766 Y5.3721 F200
G1 X15.8496 Y5.4991 F200
G1 X15.8242 Y5.4991 F200
G1 X15.7099 Y5.6134 F200
G1 X15.7099 Y5.6642 F200
G1 X15.6464 Y5.7023 F200
G1 X15.5956 Y5.7023 F200
G1 X15.5702 Y5.6769 F200
G1 X13.2842 Y5.6769 F200
G1 X13.2461 Y5.7150 F200
G1 X13.2461 Y7.6454 F200
G1 X13.1572 Y7.6835 F200
G1 X10.1473 Y10.6934 F200
G1 X10.1346 Y10.7569 F200
G1 X10.0838 Y10.7823 F200
G1 X10.0330 Y10.7823 F200
G1 X10.0076 Y10.7569 F200
G1 X9.1186 Y10.7569 F200
G1 X9.0805 Y10.7950 F200
G1 X9.0805 Y11.3284 F200
G1 X8.9662 Y11.4427 F200
G1 X8.9154 Y11.4681 F200
G0 Z2.0
G0 X16.5354 Y4.3561 Z2.0
G1 Z-0.1000 F50
G1 X16.2687 Y4.3434 F200
G1 X16.2814 Y3.4671 F200
G1 X16.5481 Y3.4798 F200
G1 X16.5354 Y4.3561 F200
G0 Z2.0
G0 X17.0180 Y4.3561 Z2.0
G1 Z-0.1000 F50
G1 X16.7513 Y4.3434 F200
G1 X16.7640 Y3.4671 F200
G1 X17.0307 Y3.4798 F200
G1 X17.0180 Y4.3561 F200
G0 Z2.0
G0 X17.5260 Y4.3561 Z2.0
G1 Z-0.1000 F50
G1 X17.2593 Y4.3434 F200
G1 X17.2720 Y3.4671 F200
G1 X17.5387 Y3.4798 F200
G1 X17.5260 Y4.3561 F200
G0 Z2.0
G0 X15.5448 Y3.7719 Z2.0
G1 Z-0.1000 F50
G1 X15.2781 Y3.7592 F200
G1 X15.2908 Y3.4925 F200
G1 X15.5575 Y3.5052 F200
G1 X15.5448 Y3.7719 F200
G0 Z2.0
G0 X18.0086 Y3.7719 Z2.0
G1 Z-0.1000 F50
G1 X17.7419 Y3.7592 F200
G1 X17.7546 Y3.4925 F200
G1 X18.0213 Y3.5052 F200
G1 X18.0086 Y3.7719 F200
G0 Z2.0
G0 X14.7574 Y10.3505 Z2.0
G1 Z-0.1000 F50
G1 X13.2334 Y10.3505 F200
G1 X13.1826 Y10.3251 F200
G1 X13.1191 Y10.2362 F200
G1 X13.1191 Y9.8806 F200
G1 X13.1445 Y9.8298 F200
G1 X13.2334 Y9.7663 F200
G1 X14.7574 Y9.7663 F200
G1 X14.8463 Y9.8298 F200
G1 X14.8463 Y10.0076 F200
G1 X14.8209 Y10.0330 F200
G1 X14.8209 Y10.0838 F200
G1 X14.8463 Y10.1092 F200
G1 X14.8463 Y10.2870 F200
G1 X14.7574 Y10.3505 F200
G0 Z2.0
G0 X19.8628 Y10.3505 Z2.0
G1 Z-0.1000 F50
G1 X18.3388 Y10.3505 F200
G1 X18.2880 Y10.3251 F200
G1 X18.2245 Y10.2362 F200
G1 X18.2245 Y9.8806 F200
G1 X18.2499 Y9.8298 F200
G1 X18.3388 Y9.7663 F200
G1 X19.8628 Y9.7663 F200
G1 X19.9517 Y9.8298 F200
G1 X19.9517 Y10.0076 F200
G1 X19.9263 Y10.0330 F200
G1 X19.9263 Y10.0838 F200
G1 X19.9517 Y10.1092 F200
G1 X19.9517 Y10.2870 F200
G1 X19.8628 Y10.3505 F200
G0 Z2.0
G0 X0.8890 Y11.4681 Z2.0
G1 Z-0.1000 F50
G1 X0.6604 Y11.4681 F200
G1 X0.6350 Y11.4427 F200
G1 X0.5588 Y11.4427 F200
G1 X0.3048 Y11.3157 F200
G1 X0.1397 Y11.1506 F200
G1 X0.1397 Y11.1252 F200
G1 X0.0889 Y11.0744 F200
G1 X0.0381 Y10.9728 F200
G1 X0.0381 Y10.9220 F200
G1 X0.0127 Y10.8966 F200
G1 X0.0127 Y10.8204 F200
G1 X-0.0127 Y10.7950 F200
G1 X-0.0127 Y10.5664 F200
G1 X0.0127 Y10.5410 F200
G1 X0.0127 Y10.4648 F200
G1 X0.1397 Y10.2108 F200
G1 X0.3048 Y10.0457 F200
G1 X0.3302 Y10.0457 F200
G1 X0.3810 Y9.9949 F200
G1 X0.4826 Y9.9441 F200
G1 X0.5334 Y9.9441 F200
G1 X0.5588 Y9.9187 F200
G1 X0.6350 Y9.9187 F200
G1 X0.6604 Y9.8933 F200
G1 X0.8890 Y9.8933 F200
G1 X0.9144 Y9.9187 F200
G1 X0.9906 Y9.9187 F200
G1 X1.2446 Y10.0457 F200
G1 X1.4097 Y10.2108 F200
G1 X1.4097 Y10.2362 F200
G1 X1.4605 Y10.2870 F200
G1 X1.5113 Y10.3886 F200
G1 X1.5113 Y10.4394 F200
G1 X1.5367 Y10.4648 F200
G1 X1.5367 Y10.5410 F200
G1 X1.5621 Y10.5664 F200
G1 X1.5621 Y10.7950 F200
G1 X1.5367 Y10.8204 F200
G1 X1.5367 Y10.8966 F200
G1 X1.4097 Y11.1506 F200
G1 X1.2446 Y11.3157 F200
G1 X1.2192 Y11.3157 F200
G1 X1.1684 Y11.3665 F200
G1 X1.0668 Y11.4173 F200
G1 X1.0160 Y11.4173 F200
G1 X0.9906 Y11.4427 F200
G1 X0.9144 Y11.4427 F200
G1 X0.8890 Y11.4681 F200
G0 Z2.0
G0 X3.3782 Y11.4681 Z2.0
G1 Z-0.1000 F50
G1 X3.1496 Y11.4681 F200
G1 X3.1242 Y11.4427 F200
G1 X3.0480 Y11.4427 F200
G1 X2.7940 Y11.3157 F200
G1 X2.6289 Y11.1506 F200
G1 X2.6289 Y11.1252 F200
G1 X2.5781 Y11.0744 F200
G1 X2.5273 Y10.9728 F200
G1 X2.5273 Y10.9220 F200
G1 X2.5019 Y10.8966 F200
G1 X2.5019 Y10.8204 F200
G1 X2.4765 Y10.7950 F200
G1 X2.4765 Y10.5664 F200
G1 X2.5019 Y10.5410 F200
G1 X2.5019 Y10.4648 F200
G1 X2.6289 Y10.2108 F200
G1 X2.7940 Y10.0457 F200
G1 X2.8194 Y10.0457 F200
G1 X2.8702 Y9.9949 F200
G1 X2.9718 Y9.9441 F200
G1 X3.0226 Y9.9441 F200
G1 X3.0480 Y9.9187 F200
G1 X3.1242 Y9.9187 F200
G1 X3.1496 Y9.8933 F200
G1 X3.3782 Y9.8933 F200
G1 X3.4036 Y9.9187 F200
G1 X3.4798 Y9.9187 F200
G1 X3.7338 Y10.0457 F200
G1 X3.8989 Y10.2108 F200
G1 X3.8989 Y10.2362 F200
G1 X3.9497 Y10.2870 F200
G1 X4.0005 Y10.3886 F200
G1 X4.0005 Y10.4394 F200
G1 X4.0259 Y10.4648 F200
G1 X4.0259 Y10.5410 F200
G1 X4.0513 Y10.5664 F200
G1 X4.0513 Y10.7950 F200
G1 X4.0259 Y10.8204 F200
G1 X4.0259 Y10.8966 F200
G1 X3.8989 Y11.1506 F200
G1 X3.7338 Y11.3157 F200
G1 X3.7084 Y11.3157 F200
G1 X3.6576 Y11.3665 F200
G1 X3.5560 Y11.4173 F200
G1 X3.5052 Y11.4173 F200
G1 X3.4798 Y11.4427 F200
G1 X3.4036 Y11.4427 F200
G1 X3.3782 Y11.4681 F200
G0 Z2.0
G0 X5.8928 Y11.4681 Z2.0
G1 Z-0.1000 F50
G1 X5.6642 Y11.4681 F200
G1 X5.6388 Y11.4427 F200
G1 X5.5626 Y11.4427 F200
G1 X5.3086 Y11.3157 F200
G1 X5.1435 Y11.1506 F200
G1 X5.1435 Y11.1252 F200
G1 X5.0927 Y11.0744 F200
G1 X5.0419 Y10.9728 F200
G1 X5.0419 Y10.9220 F200
G1 X5.0165 Y10.8966 F200
G1 X5.0165 Y10.8204 F200
G1 X4.9911 Y10.7950 F200
G1 X4.9911 Y10.5664 F200
G1 X5.0165 Y10.5410 F200
G1 X5.0165 Y10.4648 F200
G1 X5.1435 Y10.2108 F200
G1 X5.3086 Y10.0457 F200
G1 X5.3340 Y10.0457 F200
G1 X5.3848 Y9.9949 F200
G1 X5.4864 Y9.9441 F200
G1 X5.5372 Y9.9441 F200
G1 X5.5626 Y9.9187 F200
G1 X5.6388 Y9.9187 F200
G1 X5.6642 Y9.8933 F200
G1 X5.8928 Y9.8933 F200
G1 X5.9182 Y9.9187 F200
G1 X5.9944 Y9.9187 F200
G1 X6.2484 Y10.0457 F200
G1 X6.4135 Y10.2108 F200
G1 X6.4135 Y10.2362 F200
G1 X6.4643 Y10.2870 F200
G1 X6.5151 Y10.3886 F200
G1 X6.5151 Y10.4394 F200
G1 X6.5405 Y10.4648 F200
G1 X6.5405 Y10.5410 F200
G1 X6.5659 Y10.5664 F200
G1 X6.5659 Y10.7950 F200
G1 X6.5405 Y10.8204 F200
G1 X6.5405 Y10.8966 F200
G1 X6.4135 Y11.1506 F200
G1 X6.2484 Y11.3157 F200
G1 X6.2230 Y11.3157 F200
G1 X6.1722 Y11.3665 F200
G1 X6.0706 Y11.4173 F200
G1 X6.0198 Y11.4173 F200
G1 X5.9944 Y11.4427 F200
G1 X5.9182 Y11.4427 F200
G1 X5.8928 Y11.4681 F200
G0 Z2.0
G0 X14.7574 Y11.6205 Z2.0
G1 Z-0.1000 F50
G1 X13.2334 Y11.6205 F200
G1 X13.1826 Y11.5951 F200
G1 X13.1191 Y11.5062 F200
G1 X13.1191 Y11.1506 F200
G1 X13.1445 Y11.0998 F200
G1 X13.2334 Y11.0363 F200
G1 X14.7574 Y11.0363 F200
G1 X14.8463 Y11.0998 F200
G1 X14.8463 Y11.2776 F200
G1 X14.8209 Y11.3030 F200
G1 X14.8209 Y11.3538 F200
G1 X14.8463 Y11.3792 F200
G1 X14.8463 Y11.5570 F200
G1 X14.7574 Y11.6205 F200
G0 Z2.0
G0 X19.8628 Y11.6205 Z2.0
G1 Z-0.1000 F50
G1 X18.3388 Y11.6205 F200
G1 X18.2880 Y11.5951 F200
G1 X18.2245 Y11.5062 F200
G1 X18.2245 Y11.1506 F200
G1 X18.2499 Y11.0998 F200
G1 X18.3388 Y11.0363 F200
G1 X19.8628 Y11.0363 F200
G1 X19.9517 Y11.0998 F200
G1 X19.9517 Y11.2776 F200
G1 X19.9263 Y11.3030 F200
G1 X19.9263 Y11.3538 F200
G1 X19.9517 Y11.3792 F200
G1 X19.9517 Y11.5570 F200
G1 X19.8628 Y11.6205 F200
G0 Z2.0
G0 X14.7574 Y12.8651 Z2.0
G1 Z-0.1000 F50
G1 X13.2334 Y12.8651 F200
G1 X13.1826 Y12.8397 F200
G1 X13.1191 Y12.7508 F200
G1 X13.1191 Y12.3952 F200
G1 X13.1445 Y12.3444 F200
G1 X13.2334 Y12.2809 F200
G1 X14.7574 Y12.2809 F200
G1 X14.8463 Y12.3444 F200
G1 X14.8463 Y12.5222 F200
G1 X14.8209 Y12.5476 F200
G1 X14.8209 Y12.5984 F200
G1 X14.8463 Y12.6238 F200
G1 X14.8463 Y12.8016 F200
G1 X14.7574 Y12.8651 F200
G0 Z2.0
G0 X19.8628 Y12.8651 Z2.0
G1 Z-0.1000 F50
G1 X18.3388 Y12.8651 F200
G1 X18.2880 Y12.8397 F200
G1 X18.2245 Y12.7508 F200
G1 X18.2245 Y12.3952 F200
G1 X18.2499 Y12.3444 F200
G1 X18.3388 Y12.2809 F200
G1 X19.8628 Y12.2809 F200
G1 X19.9517 Y12.3444 F200
G1 X19.9517 Y12.5222 F200
G1 X19.9263 Y12.5476 F200
G1 X19.9263 Y12.5984 F200
G1 X19.9517 Y12.6238 F200
G1 X19.9517 Y12.8016 F200
G1 X19.8628 Y12.8651 F200
G0 Z2.0
G0 X14.7574 Y14.1097 Z2.0
G1 Z-0.1000 F50
G1 X13.2334 Y14.1097 F200
G1 X13.1826 Y14.0843 F200
G1 X13.1191 Y13.9954 F200
G1 X13.1191 Y13.6398 F200
G1 X13.1445 Y13.5890 F200
G1 X13.2334 Y13.5255 F200
G1 X14.7574 Y13.5255 F200
G1 X14.8463 Y13.5890 F200
G1 X14.8463 Y13.7668 F200
G1 X14.8209 Y13.7922 F200
G1 X14.8209 Y13.8430 F200
G1 X14.8463 Y13.8684 F200
G1 X14.8463 Y14.0462 F200
G1 X14.7574 Y14.1097 F200
G0 Z2.0
G0 X19.8628 Y14.1097 Z2.0
G1 Z-0.1000 F50
G1 X18.3388 Y14.1097 F200
G1 X18.2880 Y14.0843 F200
G1 X18.2245 Y13.9954 F200
G1 X18.2245 Y13.6398 F200
G1 X18.2499 Y13.5890 F200
G1 X18.3388 Y13.5255 F200
G1 X19.8628 Y13.5255 F200
G1 X19.9517 Y13.5890 F200
G1 X19.9517 Y13.7668 F200
G1 X19.9263 Y13.7922 F200
G1 X19.9263 Y13.8430 F200
G1 X19.9517 Y13.8684 F200
G1 X19.9517 Y14.0462 F200
G1 X19.8628 Y14.1097 F200
G0 Z2.0


G0 Z2.0    ; Move to safe height
M5          ; Stop spindle
G0 X0 Y0    ; Return to origin
M2          ; Program end
