; G-code generated by Gerber to G-code converter
; Input file: Test etching footprints-F_Cu.gbr
; Tool diameter: 0.1 mm
; Feed rate: 200 mm/min
; Cut depth: 0.1 mm

G21         ; Set units to millimeters
G90         ; Absolute positioning
G94         ; Feed rate per minute
M3 S10000  ; Start spindle
G4 P2       ; Dwell 2 seconds for spindle to reach speed
G0 Z2.0    ; Move to safe height

; Isolation pass 1
G0 X11.2776 Y0.0000 Z2.0
G1 Z-0.1000 F50
G1 X11.3030 Y0.0000 F200
G1 X11.2268 Y0.0254 F200
G1 X11.2522 Y0.0254 F200
G1 X11.2776 Y0.0254 F200
G1 X11.3030 Y0.0254 F200
G1 X11.2014 Y0.0508 F200
G1 X11.2268 Y0.0508 F200
G1 X11.2522 Y0.0508 F200
G1 X11.2776 Y0.0508 F200
G1 X11.3030 Y0.0508 F200
G1 X11.2014 Y0.0762 F200
G1 X11.2268 Y0.0762 F200
G1 X11.2522 Y0.0762 F200
G1 X11.1760 Y0.1016 F200
G1 X11.2014 Y0.1016 F200
G1 X11.2268 Y0.1016 F200
G1 X11.1506 Y0.1270 F200
G1 X11.1760 Y0.1270 F200
G1 X11.2014 Y0.1270 F200
G1 X11.2268 Y0.1270 F200
G1 X11.1252 Y0.1524 F200
G1 X11.1506 Y0.1524 F200
G1 X11.1760 Y0.1524 F200
G1 X11.2014 Y0.1524 F200
G1 X11.0998 Y0.1778 F200
G1 X11.1252 Y0.1778 F200
G1 X11.1506 Y0.1778 F200
G1 X11.1760 Y0.1778 F200
G1 X16.3068 Y0.1778 F200
G1 X16.3322 Y0.1778 F200
G1 X11.0744 Y0.2032 F200
G1 X11.0998 Y0.2032 F200
G1 X11.1252 Y0.2032 F200
G1 X11.1506 Y0.2032 F200
G1 X16.3068 Y0.2032 F200
G1 X16.3322 Y0.2032 F200
G1 X11.0490 Y0.2286 F200
G1 X11.0744 Y0.2286 F200
G1 X11.0998 Y0.2286 F200
G1 X11.1252 Y0.2286 F200
G1 X16.3068 Y0.2286 F200
G1 X16.3322 Y0.2286 F200
G1 X11.0236 Y0.2540 F200
G1 X11.0490 Y0.2540 F200
G1 X11.0744 Y0.2540 F200
G1 X11.0998 Y0.2540 F200
G1 X16.3068 Y0.2540 F200
G1 X16.3322 Y0.2540 F200
G1 X10.9982 Y0.2794 F200
G1 X11.0236 Y0.2794 F200
G1 X11.0490 Y0.2794 F200
G1 X11.0744 Y0.2794 F200
G1 X16.3068 Y0.2794 F200
G1 X16.3322 Y0.2794 F200
G1 X10.9728 Y0.3048 F200
G1 X10.9982 Y0.3048 F200
G1 X11.0236 Y0.3048 F200
G1 X11.0490 Y0.3048 F200
G1 X16.3068 Y0.3048 F200
G1 X16.3322 Y0.3048 F200
G1 X10.9474 Y0.3302 F200
G1 X10.9728 Y0.3302 F200
G1 X10.9982 Y0.3302 F200
G1 X11.0236 Y0.3302 F200
G1 X16.3068 Y0.3302 F200
G1 X16.3322 Y0.3302 F200
G1 X10.9220 Y0.3556 F200
G1 X10.9474 Y0.3556 F200
G1 X10.9728 Y0.3556 F200
G1 X10.9982 Y0.3556 F200
G1 X16.3068 Y0.3556 F200
G1 X16.3322 Y0.3556 F200
G1 X10.8966 Y0.3810 F200
G1 X10.9220 Y0.3810 F200
G1 X10.9474 Y0.3810 F200
G1 X10.9728 Y0.3810 F200
G1 X16.3068 Y0.3810 F200
G1 X16.3322 Y0.3810 F200
G1 X10.8712 Y0.4064 F200
G1 X10.8966 Y0.4064 F200
G1 X10.9220 Y0.4064 F200
G1 X10.9474 Y0.4064 F200
G1 X15.7480 Y0.4064 F200
G1 X15.7734 Y0.4064 F200
G1 X16.2560 Y0.4064 F200
G1 X16.2814 Y0.4064 F200
G1 X16.3068 Y0.4064 F200
G1 X16.3322 Y0.4064 F200
G1 X16.7386 Y0.4064 F200
G1 X16.7640 Y0.4064 F200
G1 X17.2466 Y0.4064 F200
G1 X17.2720 Y0.4064 F200
G1 X10.8458 Y0.4318 F200
G1 X10.8712 Y0.4318 F200
G1 X10.8966 Y0.4318 F200
G1 X10.9220 Y0.4318 F200
G1 X15.7480 Y0.4318 F200
G1 X15.7734 Y0.4318 F200
G1 X16.2560 Y0.4318 F200
G1 X16.2814 Y0.4318 F200
G1 X16.3068 Y0.4318 F200
G1 X16.3322 Y0.4318 F200
G1 X16.7386 Y0.4318 F200
G1 X16.7640 Y0.4318 F200
G1 X17.2466 Y0.4318 F200
G1 X17.2720 Y0.4318 F200
G1 X10.8204 Y0.4572 F200
G1 X10.8458 Y0.4572 F200
G1 X10.8712 Y0.4572 F200
G1 X10.8966 Y0.4572 F200
G1 X15.7480 Y0.4572 F200
G1 X15.7734 Y0.4572 F200
G1 X16.2560 Y0.4572 F200
G1 X16.2814 Y0.4572 F200
G1 X16.7386 Y0.4572 F200
G1 X16.7640 Y0.4572 F200
G1 X17.2466 Y0.4572 F200
G1 X17.2720 Y0.4572 F200
G1 X10.7950 Y0.4826 F200
G1 X10.8204 Y0.4826 F200
G1 X10.8458 Y0.4826 F200
G1 X10.8712 Y0.4826 F200
G1 X15.7480 Y0.4826 F200
G1 X15.7734 Y0.4826 F200
G1 X16.2560 Y0.4826 F200
G1 X16.2814 Y0.4826 F200
G1 X16.7386 Y0.4826 F200
G1 X16.7640 Y0.4826 F200
G1 X17.2466 Y0.4826 F200
G1 X17.2720 Y0.4826 F200
G1 X10.7696 Y0.5080 F200
G1 X10.7950 Y0.5080 F200
G1 X10.8204 Y0.5080 F200
G1 X10.8458 Y0.5080 F200
G1 X15.7480 Y0.5080 F200
G1 X15.7734 Y0.5080 F200
G1 X16.2560 Y0.5080 F200
G1 X16.2814 Y0.5080 F200
G1 X16.7386 Y0.5080 F200
G1 X16.7640 Y0.5080 F200
G1 X17.2466 Y0.5080 F200
G1 X17.2720 Y0.5080 F200
G1 X10.7442 Y0.5334 F200
G1 X10.7696 Y0.5334 F200
G1 X10.7950 Y0.5334 F200
G1 X10.8204 Y0.5334 F200
G1 X15.7480 Y0.5334 F200
G1 X15.7734 Y0.5334 F200
G1 X16.2560 Y0.5334 F200
G1 X16.2814 Y0.5334 F200
G1 X16.7386 Y0.5334 F200
G1 X16.7640 Y0.5334 F200
G1 X17.2466 Y0.5334 F200
G1 X17.2720 Y0.5334 F200
G1 X10.7188 Y0.5588 F200
G1 X10.7442 Y0.5588 F200
G1 X10.7696 Y0.5588 F200
G1 X10.7950 Y0.5588 F200
G1 X15.7480 Y0.5588 F200
G1 X15.7734 Y0.5588 F200
G1 X16.2560 Y0.5588 F200
G1 X16.2814 Y0.5588 F200
G1 X16.7386 Y0.5588 F200
G1 X16.7640 Y0.5588 F200
G1 X17.2466 Y0.5588 F200
G1 X17.2720 Y0.5588 F200
G1 X10.6934 Y0.5842 F200
G1 X10.7188 Y0.5842 F200
G1 X10.7442 Y0.5842 F200
G1 X10.7696 Y0.5842 F200
G1 X15.7480 Y0.5842 F200
G1 X15.7734 Y0.5842 F200
G1 X16.2560 Y0.5842 F200
G1 X16.2814 Y0.5842 F200
G1 X16.7386 Y0.5842 F200
G1 X16.7640 Y0.5842 F200
G1 X17.2466 Y0.5842 F200
G1 X17.2720 Y0.5842 F200
G1 X10.6680 Y0.6096 F200
G1 X10.6934 Y0.6096 F200
G1 X10.7188 Y0.6096 F200
G1 X10.7442 Y0.6096 F200
G1 X15.7480 Y0.6096 F200
G1 X15.7734 Y0.6096 F200
G1 X16.2560 Y0.6096 F200
G1 X16.2814 Y0.6096 F200
G1 X16.7386 Y0.6096 F200
G1 X16.7640 Y0.6096 F200
G1 X17.2466 Y0.6096 F200
G1 X17.2720 Y0.6096 F200
G1 X10.6426 Y0.6350 F200
G1 X10.6680 Y0.6350 F200
G1 X10.6934 Y0.6350 F200
G1 X10.7188 Y0.6350 F200
G1 X15.7480 Y0.6350 F200
G1 X15.7734 Y0.6350 F200
G1 X16.2560 Y0.6350 F200
G1 X16.2814 Y0.6350 F200
G1 X16.7386 Y0.6350 F200
G1 X16.7640 Y0.6350 F200
G1 X17.2466 Y0.6350 F200
G1 X17.2720 Y0.6350 F200
G1 X10.6172 Y0.6604 F200
G1 X10.6426 Y0.6604 F200
G1 X10.6680 Y0.6604 F200
G1 X10.6934 Y0.6604 F200
G1 X15.7480 Y0.6604 F200
G1 X15.7734 Y0.6604 F200
G1 X16.2560 Y0.6604 F200
G1 X16.2814 Y0.6604 F200
G1 X16.7386 Y0.6604 F200
G1 X16.7640 Y0.6604 F200
G1 X17.2466 Y0.6604 F200
G1 X17.2720 Y0.6604 F200
G1 X10.5918 Y0.6858 F200
G1 X10.6172 Y0.6858 F200
G1 X10.6426 Y0.6858 F200
G1 X10.6680 Y0.6858 F200
G1 X15.7480 Y0.6858 F200
G1 X15.7734 Y0.6858 F200
G1 X16.2560 Y0.6858 F200
G1 X16.2814 Y0.6858 F200
G1 X16.7386 Y0.6858 F200
G1 X16.7640 Y0.6858 F200
G1 X17.2466 Y0.6858 F200
G1 X17.2720 Y0.6858 F200
G1 X10.5664 Y0.7112 F200
G1 X10.5918 Y0.7112 F200
G1 X10.6172 Y0.7112 F200
G1 X10.6426 Y0.7112 F200
G1 X15.7480 Y0.7112 F200
G1 X15.7734 Y0.7112 F200
G1 X16.2560 Y0.7112 F200
G1 X16.2814 Y0.7112 F200
G1 X16.7386 Y0.7112 F200
G1 X16.7640 Y0.7112 F200
G1 X17.2466 Y0.7112 F200
G1 X17.2720 Y0.7112 F200
G1 X10.5410 Y0.7366 F200
G1 X10.5664 Y0.7366 F200
G1 X10.5918 Y0.7366 F200
G1 X10.6172 Y0.7366 F200
G1 X15.7480 Y0.7366 F200
G1 X15.7734 Y0.7366 F200
G1 X16.2560 Y0.7366 F200
G1 X16.2814 Y0.7366 F200
G1 X16.7386 Y0.7366 F200
G1 X16.7640 Y0.7366 F200
G1 X17.2466 Y0.7366 F200
G1 X17.2720 Y0.7366 F200
G1 X10.5156 Y0.7620 F200
G1 X10.5410 Y0.7620 F200
G1 X10.5664 Y0.7620 F200
G1 X10.5918 Y0.7620 F200
G1 X15.7480 Y0.7620 F200
G1 X15.7734 Y0.7620 F200
G1 X16.2560 Y0.7620 F200
G1 X16.2814 Y0.7620 F200
G1 X16.7386 Y0.7620 F200
G1 X16.7640 Y0.7620 F200
G1 X17.2466 Y0.7620 F200
G1 X17.2720 Y0.7620 F200
G1 X10.4902 Y0.7874 F200
G1 X10.5156 Y0.7874 F200
G1 X10.5410 Y0.7874 F200
G1 X10.5664 Y0.7874 F200
G1 X15.7480 Y0.7874 F200
G1 X15.7734 Y0.7874 F200
G1 X16.2560 Y0.7874 F200
G1 X16.2814 Y0.7874 F200
G1 X16.7386 Y0.7874 F200
G1 X16.7640 Y0.7874 F200
G1 X17.2466 Y0.7874 F200
G1 X17.2720 Y0.7874 F200
G1 X10.4648 Y0.8128 F200
G1 X10.4902 Y0.8128 F200
G1 X10.5156 Y0.8128 F200
G1 X10.5410 Y0.8128 F200
G1 X15.7480 Y0.8128 F200
G1 X15.7734 Y0.8128 F200
G1 X16.2560 Y0.8128 F200
G1 X16.2814 Y0.8128 F200
G1 X16.7386 Y0.8128 F200
G1 X16.7640 Y0.8128 F200
G1 X17.2466 Y0.8128 F200
G1 X17.2720 Y0.8128 F200
G1 X10.4394 Y0.8382 F200
G1 X10.4648 Y0.8382 F200
G1 X10.4902 Y0.8382 F200
G1 X10.5156 Y0.8382 F200
G1 X15.7480 Y0.8382 F200
G1 X15.7734 Y0.8382 F200
G1 X16.2560 Y0.8382 F200
G1 X16.2814 Y0.8382 F200
G1 X16.7386 Y0.8382 F200
G1 X16.7640 Y0.8382 F200
G1 X17.2466 Y0.8382 F200
G1 X17.2720 Y0.8382 F200
G1 X10.4140 Y0.8636 F200
G1 X10.4394 Y0.8636 F200
G1 X10.4648 Y0.8636 F200
G1 X10.4902 Y0.8636 F200
G1 X15.7480 Y0.8636 F200
G1 X15.7734 Y0.8636 F200
G1 X16.2560 Y0.8636 F200
G1 X16.2814 Y0.8636 F200
G1 X16.7386 Y0.8636 F200
G1 X16.7640 Y0.8636 F200
G1 X17.2466 Y0.8636 F200
G1 X17.2720 Y0.8636 F200
G1 X10.3886 Y0.8890 F200
G1 X10.4140 Y0.8890 F200
G1 X10.4394 Y0.8890 F200
G1 X10.4648 Y0.8890 F200
G1 X15.7480 Y0.8890 F200
G1 X15.7734 Y0.8890 F200
G1 X16.2560 Y0.8890 F200
G1 X16.2814 Y0.8890 F200
G1 X16.7386 Y0.8890 F200
G1 X16.7640 Y0.8890 F200
G1 X17.2466 Y0.8890 F200
G1 X17.2720 Y0.8890 F200
G1 X10.3632 Y0.9144 F200
G1 X10.3886 Y0.9144 F200
G1 X10.4140 Y0.9144 F200
G1 X10.4394 Y0.9144 F200
G1 X15.7480 Y0.9144 F200
G1 X15.7734 Y0.9144 F200
G1 X16.2560 Y0.9144 F200
G1 X16.2814 Y0.9144 F200
G1 X16.7386 Y0.9144 F200
G1 X16.7640 Y0.9144 F200
G1 X17.2466 Y0.9144 F200
G1 X17.2720 Y0.9144 F200
G1 X10.3378 Y0.9398 F200
G1 X10.3632 Y0.9398 F200
G1 X10.3886 Y0.9398 F200
G1 X10.4140 Y0.9398 F200
G1 X15.7480 Y0.9398 F200
G1 X15.7734 Y0.9398 F200
G1 X16.2560 Y0.9398 F200
G1 X16.2814 Y0.9398 F200
G1 X16.7386 Y0.9398 F200
G1 X16.7640 Y0.9398 F200
G1 X17.2466 Y0.9398 F200
G1 X17.2720 Y0.9398 F200
G1 X10.3124 Y0.9652 F200
G1 X10.3378 Y0.9652 F200
G1 X10.3632 Y0.9652 F200
G1 X10.3886 Y0.9652 F200
G1 X15.7480 Y0.9652 F200
G1 X15.7734 Y0.9652 F200
G1 X16.2560 Y0.9652 F200
G1 X16.2814 Y0.9652 F200
G1 X16.7386 Y0.9652 F200
G1 X16.7640 Y0.9652 F200
G1 X17.2466 Y0.9652 F200
G1 X17.2720 Y0.9652 F200
G1 X10.2870 Y0.9906 F200
G1 X10.3124 Y0.9906 F200
G1 X10.3378 Y0.9906 F200
G1 X10.3632 Y0.9906 F200
G1 X15.7480 Y0.9906 F200
G1 X15.7734 Y0.9906 F200
G1 X16.2560 Y0.9906 F200
G1 X16.2814 Y0.9906 F200
G1 X16.7386 Y0.9906 F200
G1 X16.7640 Y0.9906 F200
G1 X17.2466 Y0.9906 F200
G1 X17.2720 Y0.9906 F200
G1 X10.2616 Y1.0160 F200
G1 X10.2870 Y1.0160 F200
G1 X10.3124 Y1.0160 F200
G1 X10.3378 Y1.0160 F200
G1 X15.2654 Y1.0160 F200
G1 X15.2908 Y1.0160 F200
G1 X15.7480 Y1.0160 F200
G1 X15.7734 Y1.0160 F200
G1 X16.2560 Y1.0160 F200
G1 X16.2814 Y1.0160 F200
G1 X16.7386 Y1.0160 F200
G1 X16.7640 Y1.0160 F200
G1 X17.2466 Y1.0160 F200
G1 X17.2720 Y1.0160 F200
G1 X17.7292 Y1.0160 F200
G1 X17.7546 Y1.0160 F200
G1 X10.2362 Y1.0414 F200
G1 X10.2616 Y1.0414 F200
G1 X10.2870 Y1.0414 F200
G1 X10.3124 Y1.0414 F200
G1 X15.2654 Y1.0414 F200
G1 X15.2908 Y1.0414 F200
G1 X15.7480 Y1.0414 F200
G1 X15.7734 Y1.0414 F200
G1 X16.2560 Y1.0414 F200
G1 X16.2814 Y1.0414 F200
G1 X16.7386 Y1.0414 F200
G1 X16.7640 Y1.0414 F200
G1 X17.2466 Y1.0414 F200
G1 X17.2720 Y1.0414 F200
G1 X17.7292 Y1.0414 F200
G1 X17.7546 Y1.0414 F200
G1 X10.2108 Y1.0668 F200
G1 X10.2362 Y1.0668 F200
G1 X10.2616 Y1.0668 F200
G1 X10.2870 Y1.0668 F200
G1 X15.2654 Y1.0668 F200
G1 X15.2908 Y1.0668 F200
G1 X15.7480 Y1.0668 F200
G1 X15.7734 Y1.0668 F200
G1 X16.2560 Y1.0668 F200
G1 X16.2814 Y1.0668 F200
G1 X16.7386 Y1.0668 F200
G1 X16.7640 Y1.0668 F200
G1 X17.2466 Y1.0668 F200
G1 X17.2720 Y1.0668 F200
G1 X17.7292 Y1.0668 F200
G1 X17.7546 Y1.0668 F200
G1 X10.1854 Y1.0922 F200
G1 X10.2108 Y1.0922 F200
G1 X10.2362 Y1.0922 F200
G1 X10.2616 Y1.0922 F200
G1 X15.2654 Y1.0922 F200
G1 X15.2908 Y1.0922 F200
G1 X15.7480 Y1.0922 F200
G1 X15.7734 Y1.0922 F200
G1 X16.2560 Y1.0922 F200
G1 X16.2814 Y1.0922 F200
G1 X16.7386 Y1.0922 F200
G1 X16.7640 Y1.0922 F200
G1 X17.2466 Y1.0922 F200
G1 X17.2720 Y1.0922 F200
G1 X17.7292 Y1.0922 F200
G1 X17.7546 Y1.0922 F200
G1 X10.1600 Y1.1176 F200
G1 X10.1854 Y1.1176 F200
G1 X10.2108 Y1.1176 F200
G1 X10.2362 Y1.1176 F200
G1 X15.2654 Y1.1176 F200
G1 X15.2908 Y1.1176 F200
G1 X15.7480 Y1.1176 F200
G1 X15.7734 Y1.1176 F200
G1 X16.2560 Y1.1176 F200
G1 X16.2814 Y1.1176 F200
G1 X16.7386 Y1.1176 F200
G1 X16.7640 Y1.1176 F200
G1 X17.2466 Y1.1176 F200
G1 X17.2720 Y1.1176 F200
G1 X17.7292 Y1.1176 F200
G1 X17.7546 Y1.1176 F200
G1 X10.1346 Y1.1430 F200
G1 X10.1600 Y1.1430 F200
G1 X10.1854 Y1.1430 F200
G1 X10.2108 Y1.1430 F200
G1 X15.2654 Y1.1430 F200
G1 X15.2908 Y1.1430 F200
G1 X15.7480 Y1.1430 F200
G1 X15.7734 Y1.1430 F200
G1 X16.2560 Y1.1430 F200
G1 X16.2814 Y1.1430 F200
G1 X16.7386 Y1.1430 F200
G1 X16.7640 Y1.1430 F200
G1 X17.2466 Y1.1430 F200
G1 X17.2720 Y1.1430 F200
G1 X17.7292 Y1.1430 F200
G1 X17.7546 Y1.1430 F200
G1 X10.1092 Y1.1684 F200
G1 X10.1346 Y1.1684 F200
G1 X10.1600 Y1.1684 F200
G1 X10.1854 Y1.1684 F200
G1 X15.2654 Y1.1684 F200
G1 X15.2908 Y1.1684 F200
G1 X15.7480 Y1.1684 F200
G1 X15.7734 Y1.1684 F200
G1 X16.2560 Y1.1684 F200
G1 X16.2814 Y1.1684 F200
G1 X16.7386 Y1.1684 F200
G1 X16.7640 Y1.1684 F200
G1 X17.2466 Y1.1684 F200
G1 X17.2720 Y1.1684 F200
G1 X17.7292 Y1.1684 F200
G1 X17.7546 Y1.1684 F200
G1 X10.0838 Y1.1938 F200
G1 X10.1092 Y1.1938 F200
G1 X10.1346 Y1.1938 F200
G1 X10.1600 Y1.1938 F200
G1 X15.2654 Y1.1938 F200
G1 X15.2908 Y1.1938 F200
G1 X15.7480 Y1.1938 F200
G1 X15.7734 Y1.1938 F200
G1 X16.2560 Y1.1938 F200
G1 X16.2814 Y1.1938 F200
G1 X16.7386 Y1.1938 F200
G1 X16.7640 Y1.1938 F200
G1 X17.2466 Y1.1938 F200
G1 X17.2720 Y1.1938 F200
G1 X17.7292 Y1.1938 F200
G1 X17.7546 Y1.1938 F200
G1 X10.0584 Y1.2192 F200
G1 X10.0838 Y1.2192 F200
G1 X10.1092 Y1.2192 F200
G1 X10.1346 Y1.2192 F200
G1 X15.2654 Y1.2192 F200
G1 X15.2908 Y1.2192 F200
G1 X15.7480 Y1.2192 F200
G1 X15.7734 Y1.2192 F200
G1 X16.2560 Y1.2192 F200
G1 X16.2814 Y1.2192 F200
G1 X16.7386 Y1.2192 F200
G1 X16.7640 Y1.2192 F200
G1 X17.2466 Y1.2192 F200
G1 X17.2720 Y1.2192 F200
G1 X17.7292 Y1.2192 F200
G1 X17.7546 Y1.2192 F200
G1 X10.0330 Y1.2446 F200
G1 X10.0584 Y1.2446 F200
G1 X10.0838 Y1.2446 F200
G1 X10.1092 Y1.2446 F200
G1 X15.2654 Y1.2446 F200
G1 X15.2908 Y1.2446 F200
G1 X15.7480 Y1.2446 F200
G1 X15.7734 Y1.2446 F200
G1 X16.2560 Y1.2446 F200
G1 X16.2814 Y1.2446 F200
G1 X16.7386 Y1.2446 F200
G1 X16.7640 Y1.2446 F200
G1 X17.2466 Y1.2446 F200
G1 X17.2720 Y1.2446 F200
G1 X17.7292 Y1.2446 F200
G1 X17.7546 Y1.2446 F200
G1 X10.0076 Y1.2700 F200
G1 X10.0330 Y1.2700 F200
G1 X10.0584 Y1.2700 F200
G1 X10.0838 Y1.2700 F200
G1 X15.2654 Y1.2700 F200
G1 X15.2908 Y1.2700 F200
G1 X15.7480 Y1.2700 F200
G1 X15.7734 Y1.2700 F200
G1 X16.2560 Y1.2700 F200
G1 X16.2814 Y1.2700 F200
G1 X16.7386 Y1.2700 F200
G1 X16.7640 Y1.2700 F200
G1 X17.2466 Y1.2700 F200
G1 X17.2720 Y1.2700 F200
G1 X17.7292 Y1.2700 F200
G1 X17.7546 Y1.2700 F200
G1 X9.9822 Y1.2954 F200
G1 X10.0076 Y1.2954 F200
G1 X10.0330 Y1.2954 F200
G1 X10.0584 Y1.2954 F200
G1 X15.2654 Y1.2954 F200
G1 X15.2908 Y1.2954 F200
G1 X15.7480 Y1.2954 F200
G1 X15.7734 Y1.2954 F200
G1 X16.2560 Y1.2954 F200
G1 X16.2814 Y1.2954 F200
G1 X16.7386 Y1.2954 F200
G1 X16.7640 Y1.2954 F200
G1 X17.2466 Y1.2954 F200
G1 X17.2720 Y1.2954 F200
G1 X17.7292 Y1.2954 F200
G1 X17.7546 Y1.2954 F200
G1 X9.9568 Y1.3208 F200
G1 X9.9822 Y1.3208 F200
G1 X10.0076 Y1.3208 F200
G1 X10.0330 Y1.3208 F200
G1 X15.2654 Y1.3208 F200
G1 X15.2908 Y1.3208 F200
G1 X15.7480 Y1.3208 F200
G1 X15.7734 Y1.3208 F200
G1 X16.2560 Y1.3208 F200
G1 X16.2814 Y1.3208 F200
G1 X16.7386 Y1.3208 F200
G1 X16.7640 Y1.3208 F200
G1 X17.2466 Y1.3208 F200
G1 X17.2720 Y1.3208 F200
G1 X17.7292 Y1.3208 F200
G1 X17.7546 Y1.3208 F200
G1 X9.9314 Y1.3462 F200
G1 X9.9568 Y1.3462 F200
G1 X9.9822 Y1.3462 F200
G1 X10.0076 Y1.3462 F200
G1 X9.9060 Y1.3716 F200
G1 X9.9314 Y1.3716 F200
G1 X9.9568 Y1.3716 F200
G1 X9.9822 Y1.3716 F200
G1 X9.8806 Y1.3970 F200
G1 X9.9060 Y1.3970 F200
G1 X9.9314 Y1.3970 F200
G1 X9.9568 Y1.3970 F200
G1 X9.8552 Y1.4224 F200
G1 X9.8806 Y1.4224 F200
G1 X9.9060 Y1.4224 F200
G1 X9.9314 Y1.4224 F200
G1 X9.8298 Y1.4478 F200
G1 X9.8552 Y1.4478 F200
G1 X9.8806 Y1.4478 F200
G1 X9.9060 Y1.4478 F200
G1 X9.8044 Y1.4732 F200
G1 X9.8298 Y1.4732 F200
G1 X9.8552 Y1.4732 F200
G1 X9.8806 Y1.4732 F200
G1 X9.7790 Y1.4986 F200
G1 X9.8044 Y1.4986 F200
G1 X9.8298 Y1.4986 F200
G1 X9.8552 Y1.4986 F200
G1 X14.6558 Y1.4986 F200
G1 X14.6812 Y1.4986 F200
G1 X15.7480 Y1.4986 F200
G1 X15.7734 Y1.4986 F200
G1 X17.7292 Y1.4986 F200
G1 X17.7546 Y1.4986 F200
G1 X9.7536 Y1.5240 F200
G1 X9.7790 Y1.5240 F200
G1 X9.8044 Y1.5240 F200
G1 X9.8298 Y1.5240 F200
G1 X14.6558 Y1.5240 F200
G1 X14.6812 Y1.5240 F200
G1 X15.7480 Y1.5240 F200
G1 X15.7734 Y1.5240 F200
G1 X17.7292 Y1.5240 F200
G1 X17.7546 Y1.5240 F200
G1 X9.7282 Y1.5494 F200
G1 X9.7536 Y1.5494 F200
G1 X9.7790 Y1.5494 F200
G1 X9.8044 Y1.5494 F200
G1 X14.6558 Y1.5494 F200
G1 X14.6812 Y1.5494 F200
G1 X15.7480 Y1.5494 F200
G1 X15.7734 Y1.5494 F200
G1 X17.7292 Y1.5494 F200
G1 X17.7546 Y1.5494 F200
G1 X9.7028 Y1.5748 F200
G1 X9.7282 Y1.5748 F200
G1 X9.7536 Y1.5748 F200
G1 X9.7790 Y1.5748 F200
G1 X14.6558 Y1.5748 F200
G1 X14.6812 Y1.5748 F200
G1 X15.7480 Y1.5748 F200
G1 X15.7734 Y1.5748 F200
G1 X17.7292 Y1.5748 F200
G1 X17.7546 Y1.5748 F200
G1 X9.6774 Y1.6002 F200
G1 X9.7028 Y1.6002 F200
G1 X9.7282 Y1.6002 F200
G1 X9.7536 Y1.6002 F200
G1 X14.6558 Y1.6002 F200
G1 X14.6812 Y1.6002 F200
G1 X15.7480 Y1.6002 F200
G1 X15.7734 Y1.6002 F200
G1 X17.7292 Y1.6002 F200
G1 X17.7546 Y1.6002 F200
G1 X9.6520 Y1.6256 F200
G1 X9.6774 Y1.6256 F200
G1 X9.7028 Y1.6256 F200
G1 X9.7282 Y1.6256 F200
G1 X14.6558 Y1.6256 F200
G1 X14.6812 Y1.6256 F200
G1 X15.7480 Y1.6256 F200
G1 X15.7734 Y1.6256 F200
G1 X17.7292 Y1.6256 F200
G1 X17.7546 Y1.6256 F200
G1 X9.6266 Y1.6510 F200
G1 X9.6520 Y1.6510 F200
G1 X9.6774 Y1.6510 F200
G1 X9.7028 Y1.6510 F200
G1 X14.6558 Y1.6510 F200
G1 X14.6812 Y1.6510 F200
G1 X15.7480 Y1.6510 F200
G1 X15.7734 Y1.6510 F200
G1 X17.7292 Y1.6510 F200
G1 X17.7546 Y1.6510 F200
G1 X9.6012 Y1.6764 F200
G1 X9.6266 Y1.6764 F200
G1 X9.6520 Y1.6764 F200
G1 X9.6774 Y1.6764 F200
G1 X14.6558 Y1.6764 F200
G1 X14.6812 Y1.6764 F200
G1 X15.7480 Y1.6764 F200
G1 X15.7734 Y1.6764 F200
G1 X17.7292 Y1.6764 F200
G1 X17.7546 Y1.6764 F200
G1 X9.5758 Y1.7018 F200
G1 X9.6012 Y1.7018 F200
G1 X9.6266 Y1.7018 F200
G1 X9.6520 Y1.7018 F200
G1 X14.6558 Y1.7018 F200
G1 X14.6812 Y1.7018 F200
G1 X15.7480 Y1.7018 F200
G1 X15.7734 Y1.7018 F200
G1 X17.7292 Y1.7018 F200
G1 X17.7546 Y1.7018 F200
G1 X9.5504 Y1.7272 F200
G1 X9.5758 Y1.7272 F200
G1 X9.6012 Y1.7272 F200
G1 X9.6266 Y1.7272 F200
G1 X14.6558 Y1.7272 F200
G1 X14.6812 Y1.7272 F200
G1 X15.7480 Y1.7272 F200
G1 X15.7734 Y1.7272 F200
G1 X17.7292 Y1.7272 F200
G1 X17.7546 Y1.7272 F200
G1 X9.5250 Y1.7526 F200
G1 X9.5504 Y1.7526 F200
G1 X9.5758 Y1.7526 F200
G1 X9.6012 Y1.7526 F200
G1 X14.6558 Y1.7526 F200
G1 X14.6812 Y1.7526 F200
G1 X15.7480 Y1.7526 F200
G1 X15.7734 Y1.7526 F200
G1 X17.7292 Y1.7526 F200
G1 X17.7546 Y1.7526 F200
G1 X9.4996 Y1.7780 F200
G1 X9.5250 Y1.7780 F200
G1 X9.5504 Y1.7780 F200
G1 X9.5758 Y1.7780 F200
G1 X14.6558 Y1.7780 F200
G1 X14.6812 Y1.7780 F200
G1 X15.7480 Y1.7780 F200
G1 X15.7734 Y1.7780 F200
G1 X17.7292 Y1.7780 F200
G1 X17.7546 Y1.7780 F200
G1 X9.4742 Y1.8034 F200
G1 X9.4996 Y1.8034 F200
G1 X9.5250 Y1.8034 F200
G1 X9.5504 Y1.8034 F200
G1 X14.6558 Y1.8034 F200
G1 X14.6812 Y1.8034 F200
G1 X15.7480 Y1.8034 F200
G1 X15.7734 Y1.8034 F200
G1 X17.7292 Y1.8034 F200
G1 X17.7546 Y1.8034 F200
G1 X9.4488 Y1.8288 F200
G1 X9.4742 Y1.8288 F200
G1 X9.4996 Y1.8288 F200
G1 X9.5250 Y1.8288 F200
G1 X15.7480 Y1.8288 F200
G1 X15.7734 Y1.8288 F200
G1 X9.4234 Y1.8542 F200
G1 X9.4488 Y1.8542 F200
G1 X9.4742 Y1.8542 F200
G1 X9.4996 Y1.8542 F200
G1 X15.7480 Y1.8542 F200
G1 X15.7734 Y1.8542 F200
G1 X9.3980 Y1.8796 F200
G1 X9.4234 Y1.8796 F200
G1 X9.4488 Y1.8796 F200
G1 X9.4742 Y1.8796 F200
G1 X15.7480 Y1.8796 F200
G1 X15.7734 Y1.8796 F200
G1 X9.3726 Y1.9050 F200
G1 X9.3980 Y1.9050 F200
G1 X9.4234 Y1.9050 F200
G1 X9.4488 Y1.9050 F200
G1 X15.7480 Y1.9050 F200
G1 X15.7734 Y1.9050 F200
G1 X9.3472 Y1.9304 F200
G1 X9.3726 Y1.9304 F200
G1 X9.3980 Y1.9304 F200
G1 X9.4234 Y1.9304 F200
G1 X15.7480 Y1.9304 F200
G1 X15.7734 Y1.9304 F200
G1 X9.3218 Y1.9558 F200
G1 X9.3472 Y1.9558 F200
G1 X9.3726 Y1.9558 F200
G1 X9.3980 Y1.9558 F200
G1 X15.7480 Y1.9558 F200
G1 X15.7734 Y1.9558 F200
G1 X9.2964 Y1.9812 F200
G1 X9.3218 Y1.9812 F200
G1 X9.3472 Y1.9812 F200
G1 X9.3726 Y1.9812 F200
G1 X15.7480 Y1.9812 F200
G1 X15.7734 Y1.9812 F200
G1 X9.2710 Y2.0066 F200
G1 X9.2964 Y2.0066 F200
G1 X9.3218 Y2.0066 F200
G1 X9.3472 Y2.0066 F200
G1 X14.6558 Y2.0066 F200
G1 X14.6812 Y2.0066 F200
G1 X15.7480 Y2.0066 F200
G1 X15.7734 Y2.0066 F200
G1 X17.7292 Y2.0066 F200
G1 X17.7546 Y2.0066 F200
G1 X9.2456 Y2.0320 F200
G1 X9.2710 Y2.0320 F200
G1 X9.2964 Y2.0320 F200
G1 X9.3218 Y2.0320 F200
G1 X14.6558 Y2.0320 F200
G1 X14.6812 Y2.0320 F200
G1 X15.7480 Y2.0320 F200
G1 X15.7734 Y2.0320 F200
G1 X17.7292 Y2.0320 F200
G1 X17.7546 Y2.0320 F200
G1 X9.2202 Y2.0574 F200
G1 X9.2456 Y2.0574 F200
G1 X9.2710 Y2.0574 F200
G1 X9.2964 Y2.0574 F200
G1 X14.6558 Y2.0574 F200
G1 X14.6812 Y2.0574 F200
G1 X15.7480 Y2.0574 F200
G1 X15.7734 Y2.0574 F200
G1 X17.7292 Y2.0574 F200
G1 X17.7546 Y2.0574 F200
G1 X9.1948 Y2.0828 F200
G1 X9.2202 Y2.0828 F200
G1 X9.2456 Y2.0828 F200
G1 X9.2710 Y2.0828 F200
G1 X14.6558 Y2.0828 F200
G1 X14.6812 Y2.0828 F200
G1 X15.7480 Y2.0828 F200
G1 X15.7734 Y2.0828 F200
G1 X17.7292 Y2.0828 F200
G1 X17.7546 Y2.0828 F200
G1 X9.1694 Y2.1082 F200
G1 X9.1948 Y2.1082 F200
G1 X9.2202 Y2.1082 F200
G1 X9.2456 Y2.1082 F200
G1 X14.6558 Y2.1082 F200
G1 X14.6812 Y2.1082 F200
G1 X15.7480 Y2.1082 F200
G1 X15.7734 Y2.1082 F200
G1 X17.7292 Y2.1082 F200
G1 X17.7546 Y2.1082 F200
G1 X9.1440 Y2.1336 F200
G1 X9.1694 Y2.1336 F200
G1 X9.1948 Y2.1336 F200
G1 X9.2202 Y2.1336 F200
G1 X14.6558 Y2.1336 F200
G1 X14.6812 Y2.1336 F200
G1 X15.7480 Y2.1336 F200
G1 X15.7734 Y2.1336 F200
G1 X17.7292 Y2.1336 F200
G1 X17.7546 Y2.1336 F200
G1 X9.1186 Y2.1590 F200
G1 X9.1440 Y2.1590 F200
G1 X9.1694 Y2.1590 F200
G1 X9.1948 Y2.1590 F200
G1 X14.6558 Y2.1590 F200
G1 X14.6812 Y2.1590 F200
G1 X15.7480 Y2.1590 F200
G1 X15.7734 Y2.1590 F200
G1 X17.7292 Y2.1590 F200
G1 X17.7546 Y2.1590 F200
G1 X9.0932 Y2.1844 F200
G1 X9.1186 Y2.1844 F200
G1 X9.1440 Y2.1844 F200
G1 X9.1694 Y2.1844 F200
G1 X14.6558 Y2.1844 F200
G1 X14.6812 Y2.1844 F200
G1 X15.7480 Y2.1844 F200
G1 X15.7734 Y2.1844 F200
G1 X17.7292 Y2.1844 F200
G1 X17.7546 Y2.1844 F200
G1 X9.0678 Y2.2098 F200
G1 X9.0932 Y2.2098 F200
G1 X9.1186 Y2.2098 F200
G1 X9.1440 Y2.2098 F200
G1 X14.6558 Y2.2098 F200
G1 X14.6812 Y2.2098 F200
G1 X15.7480 Y2.2098 F200
G1 X15.7734 Y2.2098 F200
G1 X17.7292 Y2.2098 F200
G1 X17.7546 Y2.2098 F200
G1 X9.0424 Y2.2352 F200
G1 X9.0678 Y2.2352 F200
G1 X9.0932 Y2.2352 F200
G1 X9.1186 Y2.2352 F200
G1 X14.6558 Y2.2352 F200
G1 X14.6812 Y2.2352 F200
G1 X15.7480 Y2.2352 F200
G1 X15.7734 Y2.2352 F200
G1 X17.7292 Y2.2352 F200
G1 X17.7546 Y2.2352 F200
G1 X9.0170 Y2.2606 F200
G1 X9.0424 Y2.2606 F200
G1 X9.0678 Y2.2606 F200
G1 X9.0932 Y2.2606 F200
G1 X14.6558 Y2.2606 F200
G1 X14.6812 Y2.2606 F200
G1 X15.7480 Y2.2606 F200
G1 X15.7734 Y2.2606 F200
G1 X17.7292 Y2.2606 F200
G1 X17.7546 Y2.2606 F200
G1 X8.9916 Y2.2860 F200
G1 X9.0170 Y2.2860 F200
G1 X9.0424 Y2.2860 F200
G1 X9.0678 Y2.2860 F200
G1 X14.6558 Y2.2860 F200
G1 X14.6812 Y2.2860 F200
G1 X15.7480 Y2.2860 F200
G1 X15.7734 Y2.2860 F200
G1 X17.7292 Y2.2860 F200
G1 X17.7546 Y2.2860 F200
G1 X8.9662 Y2.3114 F200
G1 X8.9916 Y2.3114 F200
G1 X9.0170 Y2.3114 F200
G1 X9.0424 Y2.3114 F200
G1 X14.6558 Y2.3114 F200
G1 X14.6812 Y2.3114 F200
G1 X15.7480 Y2.3114 F200
G1 X15.7734 Y2.3114 F200
G1 X17.7292 Y2.3114 F200
G1 X17.7546 Y2.3114 F200
G1 X0.6350 Y2.3368 F200
G1 X0.6604 Y2.3368 F200
G1 X3.1242 Y2.3368 F200
G1 X3.1496 Y2.3368 F200
G1 X5.6388 Y2.3368 F200
G1 X5.6642 Y2.3368 F200
G1 X8.1534 Y2.3368 F200
G1 X8.1788 Y2.3368 F200
G1 X8.9408 Y2.3368 F200
G1 X8.9662 Y2.3368 F200
G1 X8.9916 Y2.3368 F200
G1 X9.0170 Y2.3368 F200
G1 X15.7480 Y2.3368 F200
G1 X15.7734 Y2.3368 F200
G1 X0.5334 Y2.3622 F200
G1 X0.5588 Y2.3622 F200
G1 X0.6350 Y2.3622 F200
G1 X0.6604 Y2.3622 F200
G1 X3.0226 Y2.3622 F200
G1 X3.0480 Y2.3622 F200
G1 X3.1242 Y2.3622 F200
G1 X3.1496 Y2.3622 F200
G1 X5.5372 Y2.3622 F200
G1 X5.5626 Y2.3622 F200
G1 X5.6388 Y2.3622 F200
G1 X5.6642 Y2.3622 F200
G1 X8.0518 Y2.3622 F200
G1 X8.0772 Y2.3622 F200
G1 X8.1534 Y2.3622 F200
G1 X8.1788 Y2.3622 F200
G1 X8.9154 Y2.3622 F200
G1 X8.9408 Y2.3622 F200
G1 X8.9662 Y2.3622 F200
G1 X8.9916 Y2.3622 F200
G1 X15.7480 Y2.3622 F200
G1 X15.7734 Y2.3622 F200
G1 X0.4572 Y2.3876 F200
G1 X0.4826 Y2.3876 F200
G1 X0.5334 Y2.3876 F200
G1 X0.5588 Y2.3876 F200
G1 X0.6350 Y2.3876 F200
G1 X0.6604 Y2.3876 F200
G1 X2.9464 Y2.3876 F200
G1 X2.9718 Y2.3876 F200
G1 X3.0226 Y2.3876 F200
G1 X3.0480 Y2.3876 F200
G1 X3.1242 Y2.3876 F200
G1 X3.1496 Y2.3876 F200
G1 X5.4610 Y2.3876 F200
G1 X5.4864 Y2.3876 F200
G1 X5.5372 Y2.3876 F200
G1 X5.5626 Y2.3876 F200
G1 X5.6388 Y2.3876 F200
G1 X5.6642 Y2.3876 F200
G1 X7.9756 Y2.3876 F200
G1 X8.0010 Y2.3876 F200
G1 X8.0518 Y2.3876 F200
G1 X8.0772 Y2.3876 F200
G1 X8.1534 Y2.3876 F200
G1 X8.1788 Y2.3876 F200
G1 X8.8900 Y2.3876 F200
G1 X8.9154 Y2.3876 F200
G1 X8.9408 Y2.3876 F200
G1 X8.9662 Y2.3876 F200
G1 X15.7480 Y2.3876 F200
G1 X15.7734 Y2.3876 F200
G1 X0.4064 Y2.4130 F200
G1 X0.4318 Y2.4130 F200
G1 X0.4572 Y2.4130 F200
G1 X0.4826 Y2.4130 F200
G1 X0.5334 Y2.4130 F200
G1 X0.5588 Y2.4130 F200
G1 X2.8956 Y2.4130 F200
G1 X2.9210 Y2.4130 F200
G1 X2.9464 Y2.4130 F200
G1 X2.9718 Y2.4130 F200
G1 X3.0226 Y2.4130 F200
G1 X3.0480 Y2.4130 F200
G1 X5.4102 Y2.4130 F200
G1 X5.4356 Y2.4130 F200
G1 X5.4610 Y2.4130 F200
G1 X5.4864 Y2.4130 F200
G1 X5.5372 Y2.4130 F200
G1 X5.5626 Y2.4130 F200
G1 X7.9248 Y2.4130 F200
G1 X7.9502 Y2.4130 F200
G1 X7.9756 Y2.4130 F200
G1 X8.0010 Y2.4130 F200
G1 X8.0518 Y2.4130 F200
G1 X8.0772 Y2.4130 F200
G1 X8.8646 Y2.4130 F200
G1 X8.8900 Y2.4130 F200
G1 X8.9154 Y2.4130 F200
G1 X8.9408 Y2.4130 F200
G1 X15.7480 Y2.4130 F200
G1 X15.7734 Y2.4130 F200
G1 X0.3556 Y2.4384 F200
G1 X0.3810 Y2.4384 F200
G1 X0.4064 Y2.4384 F200
G1 X0.4318 Y2.4384 F200
G1 X0.4572 Y2.4384 F200
G1 X0.4826 Y2.4384 F200
G1 X2.8448 Y2.4384 F200
G1 X2.8702 Y2.4384 F200
G1 X2.8956 Y2.4384 F200
G1 X2.9210 Y2.4384 F200
G1 X2.9464 Y2.4384 F200
G1 X2.9718 Y2.4384 F200
G1 X5.3594 Y2.4384 F200
G1 X5.3848 Y2.4384 F200
G1 X5.4102 Y2.4384 F200
G1 X5.4356 Y2.4384 F200
G1 X5.4610 Y2.4384 F200
G1 X5.4864 Y2.4384 F200
G1 X7.8740 Y2.4384 F200
G1 X7.8994 Y2.4384 F200
G1 X7.9248 Y2.4384 F200
G1 X7.9502 Y2.4384 F200
G1 X7.9756 Y2.4384 F200
G1 X8.0010 Y2.4384 F200
G1 X8.8392 Y2.4384 F200
G1 X8.8646 Y2.4384 F200
G1 X8.8900 Y2.4384 F200
G1 X8.9154 Y2.4384 F200
G1 X15.7480 Y2.4384 F200
G1 X15.7734 Y2.4384 F200
G1 X0.3302 Y2.4638 F200
G1 X0.3556 Y2.4638 F200
G1 X0.3810 Y2.4638 F200
G1 X0.4064 Y2.4638 F200
G1 X0.4318 Y2.4638 F200
G1 X2.8194 Y2.4638 F200
G1 X2.8448 Y2.4638 F200
G1 X2.8702 Y2.4638 F200
G1 X2.8956 Y2.4638 F200
G1 X2.9210 Y2.4638 F200
G1 X5.3340 Y2.4638 F200
G1 X5.3594 Y2.4638 F200
G1 X5.3848 Y2.4638 F200
G1 X5.4102 Y2.4638 F200
G1 X5.4356 Y2.4638 F200
G1 X7.8486 Y2.4638 F200
G1 X7.8740 Y2.4638 F200
G1 X7.8994 Y2.4638 F200
G1 X7.9248 Y2.4638 F200
G1 X7.9502 Y2.4638 F200
G1 X8.8138 Y2.4638 F200
G1 X8.8392 Y2.4638 F200
G1 X8.8646 Y2.4638 F200
G1 X8.8900 Y2.4638 F200
G1 X15.7480 Y2.4638 F200
G1 X15.7734 Y2.4638 F200
G1 X0.2794 Y2.4892 F200
G1 X0.3048 Y2.4892 F200
G1 X0.3302 Y2.4892 F200
G1 X0.3556 Y2.4892 F200
G1 X0.3810 Y2.4892 F200
G1 X2.7686 Y2.4892 F200
G1 X2.7940 Y2.4892 F200
G1 X2.8194 Y2.4892 F200
G1 X2.8448 Y2.4892 F200
G1 X2.8702 Y2.4892 F200
G1 X5.2832 Y2.4892 F200
G1 X5.3086 Y2.4892 F200
G1 X5.3340 Y2.4892 F200
G1 X5.3594 Y2.4892 F200
G1 X5.3848 Y2.4892 F200
G1 X7.7978 Y2.4892 F200
G1 X7.8232 Y2.4892 F200
G1 X7.8486 Y2.4892 F200
G1 X7.8740 Y2.4892 F200
G1 X7.8994 Y2.4892 F200
G1 X8.8138 Y2.4892 F200
G1 X8.8392 Y2.4892 F200
G1 X8.8646 Y2.4892 F200
G1 X14.6558 Y2.4892 F200
G1 X14.6812 Y2.4892 F200
G1 X15.7480 Y2.4892 F200
G1 X15.7734 Y2.4892 F200
G1 X17.7292 Y2.4892 F200
G1 X17.7546 Y2.4892 F200
G1 X0.2540 Y2.5146 F200
G1 X0.2794 Y2.5146 F200
G1 X0.3048 Y2.5146 F200
G1 X0.3302 Y2.5146 F200
G1 X0.3556 Y2.5146 F200
G1 X2.7432 Y2.5146 F200
G1 X2.7686 Y2.5146 F200
G1 X2.7940 Y2.5146 F200
G1 X2.8194 Y2.5146 F200
G1 X2.8448 Y2.5146 F200
G1 X5.2578 Y2.5146 F200
G1 X5.2832 Y2.5146 F200
G1 X5.3086 Y2.5146 F200
G1 X5.3340 Y2.5146 F200
G1 X5.3594 Y2.5146 F200
G1 X7.7724 Y2.5146 F200
G1 X7.7978 Y2.5146 F200
G1 X7.8232 Y2.5146 F200
G1 X7.8486 Y2.5146 F200
G1 X7.8740 Y2.5146 F200
G1 X8.8138 Y2.5146 F200
G1 X8.8392 Y2.5146 F200
G1 X14.6558 Y2.5146 F200
G1 X14.6812 Y2.5146 F200
G1 X15.7480 Y2.5146 F200
G1 X15.7734 Y2.5146 F200
G1 X17.7292 Y2.5146 F200
G1 X17.7546 Y2.5146 F200
G1 X0.2286 Y2.5400 F200
G1 X0.2540 Y2.5400 F200
G1 X0.2794 Y2.5400 F200
G1 X0.3048 Y2.5400 F200
G1 X2.7178 Y2.5400 F200
G1 X2.7432 Y2.5400 F200
G1 X2.7686 Y2.5400 F200
G1 X2.7940 Y2.5400 F200
G1 X5.2324 Y2.5400 F200
G1 X5.2578 Y2.5400 F200
G1 X5.2832 Y2.5400 F200
G1 X5.3086 Y2.5400 F200
G1 X7.7470 Y2.5400 F200
G1 X7.7724 Y2.5400 F200
G1 X7.7978 Y2.5400 F200
G1 X7.8232 Y2.5400 F200
G1 X8.8138 Y2.5400 F200
G1 X14.6558 Y2.5400 F200
G1 X14.6812 Y2.5400 F200
G1 X15.7480 Y2.5400 F200
G1 X15.7734 Y2.5400 F200
G1 X17.7292 Y2.5400 F200
G1 X17.7546 Y2.5400 F200
G1 X0.2032 Y2.5654 F200
G1 X0.2286 Y2.5654 F200
G1 X0.2540 Y2.5654 F200
G1 X0.2794 Y2.5654 F200
G1 X2.6924 Y2.5654 F200
G1 X2.7178 Y2.5654 F200
G1 X2.7432 Y2.5654 F200
G1 X2.7686 Y2.5654 F200
G1 X5.2070 Y2.5654 F200
G1 X5.2324 Y2.5654 F200
G1 X5.2578 Y2.5654 F200
G1 X5.2832 Y2.5654 F200
G1 X7.7216 Y2.5654 F200
G1 X7.7470 Y2.5654 F200
G1 X7.7724 Y2.5654 F200
G1 X7.7978 Y2.5654 F200
G1 X14.6558 Y2.5654 F200
G1 X14.6812 Y2.5654 F200
G1 X15.7480 Y2.5654 F200
G1 X15.7734 Y2.5654 F200
G1 X17.7292 Y2.5654 F200
G1 X17.7546 Y2.5654 F200
G1 X0.1778 Y2.5908 F200
G1 X0.2032 Y2.5908 F200
G1 X0.2286 Y2.5908 F200
G1 X0.2540 Y2.5908 F200
G1 X2.6670 Y2.5908 F200
G1 X2.6924 Y2.5908 F200
G1 X2.7178 Y2.5908 F200
G1 X2.7432 Y2.5908 F200
G1 X5.1816 Y2.5908 F200
G1 X5.2070 Y2.5908 F200
G1 X5.2324 Y2.5908 F200
G1 X5.2578 Y2.5908 F200
G1 X7.6962 Y2.5908 F200
G1 X7.7216 Y2.5908 F200
G1 X7.7470 Y2.5908 F200
G1 X7.7724 Y2.5908 F200
G1 X14.6558 Y2.5908 F200
G1 X14.6812 Y2.5908 F200
G1 X15.7480 Y2.5908 F200
G1 X15.7734 Y2.5908 F200
G1 X17.7292 Y2.5908 F200
G1 X17.7546 Y2.5908 F200
G1 X0.1524 Y2.6162 F200
G1 X0.1778 Y2.6162 F200
G1 X0.2032 Y2.6162 F200
G1 X0.2286 Y2.6162 F200
G1 X2.6416 Y2.6162 F200
G1 X2.6670 Y2.6162 F200
G1 X2.6924 Y2.6162 F200
G1 X2.7178 Y2.6162 F200
G1 X5.1562 Y2.6162 F200
G1 X5.1816 Y2.6162 F200
G1 X5.2070 Y2.6162 F200
G1 X5.2324 Y2.6162 F200
G1 X7.6708 Y2.6162 F200
G1 X7.6962 Y2.6162 F200
G1 X7.7216 Y2.6162 F200
G1 X7.7470 Y2.6162 F200
G1 X14.6558 Y2.6162 F200
G1 X14.6812 Y2.6162 F200
G1 X15.7480 Y2.6162 F200
G1 X15.7734 Y2.6162 F200
G1 X17.7292 Y2.6162 F200
G1 X17.7546 Y2.6162 F200
G1 X0.1270 Y2.6416 F200
G1 X0.1524 Y2.6416 F200
G1 X0.1778 Y2.6416 F200
G1 X0.2032 Y2.6416 F200
G1 X2.6162 Y2.6416 F200
G1 X2.6416 Y2.6416 F200
G1 X2.6670 Y2.6416 F200
G1 X2.6924 Y2.6416 F200
G1 X5.1308 Y2.6416 F200
G1 X5.1562 Y2.6416 F200
G1 X5.1816 Y2.6416 F200
G1 X5.2070 Y2.6416 F200
G1 X7.6454 Y2.6416 F200
G1 X7.6708 Y2.6416 F200
G1 X7.6962 Y2.6416 F200
G1 X7.7216 Y2.6416 F200
G1 X14.6558 Y2.6416 F200
G1 X14.6812 Y2.6416 F200
G1 X15.7480 Y2.6416 F200
G1 X15.7734 Y2.6416 F200
G1 X17.7292 Y2.6416 F200
G1 X17.7546 Y2.6416 F200
G1 X0.1270 Y2.6670 F200
G1 X0.1524 Y2.6670 F200
G1 X0.1778 Y2.6670 F200
G1 X2.6162 Y2.6670 F200
G1 X2.6416 Y2.6670 F200
G1 X2.6670 Y2.6670 F200
G1 X5.1308 Y2.6670 F200
G1 X5.1562 Y2.6670 F200
G1 X5.1816 Y2.6670 F200
G1 X7.6454 Y2.6670 F200
G1 X7.6708 Y2.6670 F200
G1 X7.6962 Y2.6670 F200
G1 X14.6558 Y2.6670 F200
G1 X14.6812 Y2.6670 F200
G1 X15.7480 Y2.6670 F200
G1 X15.7734 Y2.6670 F200
G1 X17.7292 Y2.6670 F200
G1 X17.7546 Y2.6670 F200
G1 X0.1016 Y2.6924 F200
G1 X0.1270 Y2.6924 F200
G1 X0.1524 Y2.6924 F200
G1 X2.5908 Y2.6924 F200
G1 X2.6162 Y2.6924 F200
G1 X2.6416 Y2.6924 F200
G1 X5.1054 Y2.6924 F200
G1 X5.1308 Y2.6924 F200
G1 X5.1562 Y2.6924 F200
G1 X7.6200 Y2.6924 F200
G1 X7.6454 Y2.6924 F200
G1 X7.6708 Y2.6924 F200
G1 X14.6558 Y2.6924 F200
G1 X14.6812 Y2.6924 F200
G1 X15.7480 Y2.6924 F200
G1 X15.7734 Y2.6924 F200
G1 X17.7292 Y2.6924 F200
G1 X17.7546 Y2.6924 F200
G1 X0.0762 Y2.7178 F200
G1 X0.1016 Y2.7178 F200
G1 X0.1270 Y2.7178 F200
G1 X0.1524 Y2.7178 F200
G1 X2.5654 Y2.7178 F200
G1 X2.5908 Y2.7178 F200
G1 X2.6162 Y2.7178 F200
G1 X2.6416 Y2.7178 F200
G1 X5.0800 Y2.7178 F200
G1 X5.1054 Y2.7178 F200
G1 X5.1308 Y2.7178 F200
G1 X5.1562 Y2.7178 F200
G1 X7.5946 Y2.7178 F200
G1 X7.6200 Y2.7178 F200
G1 X7.6454 Y2.7178 F200
G1 X7.6708 Y2.7178 F200
G1 X14.6558 Y2.7178 F200
G1 X14.6812 Y2.7178 F200
G1 X15.7480 Y2.7178 F200
G1 X15.7734 Y2.7178 F200
G1 X17.7292 Y2.7178 F200
G1 X17.7546 Y2.7178 F200
G1 X0.0762 Y2.7432 F200
G1 X0.1016 Y2.7432 F200
G1 X0.1270 Y2.7432 F200
G1 X2.5654 Y2.7432 F200
G1 X2.5908 Y2.7432 F200
G1 X2.6162 Y2.7432 F200
G1 X5.0800 Y2.7432 F200
G1 X5.1054 Y2.7432 F200
G1 X5.1308 Y2.7432 F200
G1 X7.5946 Y2.7432 F200
G1 X7.6200 Y2.7432 F200
G1 X7.6454 Y2.7432 F200
G1 X14.6558 Y2.7432 F200
G1 X14.6812 Y2.7432 F200
G1 X15.7480 Y2.7432 F200
G1 X15.7734 Y2.7432 F200
G1 X17.7292 Y2.7432 F200
G1 X17.7546 Y2.7432 F200
G1 X0.0508 Y2.7686 F200
G1 X0.0762 Y2.7686 F200
G1 X0.1016 Y2.7686 F200
G1 X2.5400 Y2.7686 F200
G1 X2.5654 Y2.7686 F200
G1 X2.5908 Y2.7686 F200
G1 X5.0546 Y2.7686 F200
G1 X5.0800 Y2.7686 F200
G1 X5.1054 Y2.7686 F200
G1 X7.5692 Y2.7686 F200
G1 X7.5946 Y2.7686 F200
G1 X7.6200 Y2.7686 F200
G1 X14.6558 Y2.7686 F200
G1 X14.6812 Y2.7686 F200
G1 X15.7480 Y2.7686 F200
G1 X15.7734 Y2.7686 F200
G1 X17.7292 Y2.7686 F200
G1 X17.7546 Y2.7686 F200
G1 X0.0508 Y2.7940 F200
G1 X0.0762 Y2.7940 F200
G1 X0.1016 Y2.7940 F200
G1 X2.5400 Y2.7940 F200
G1 X2.5654 Y2.7940 F200
G1 X2.5908 Y2.7940 F200
G1 X5.0546 Y2.7940 F200
G1 X5.0800 Y2.7940 F200
G1 X5.1054 Y2.7940 F200
G1 X7.5692 Y2.7940 F200
G1 X7.5946 Y2.7940 F200
G1 X7.6200 Y2.7940 F200
G1 X14.6558 Y2.7940 F200
G1 X14.6812 Y2.7940 F200
G1 X15.7480 Y2.7940 F200
G1 X15.7734 Y2.7940 F200
G1 X17.7292 Y2.7940 F200
G1 X17.7546 Y2.7940 F200
G1 X0.0254 Y2.8194 F200
G1 X0.0508 Y2.8194 F200
G1 X0.0762 Y2.8194 F200
G1 X2.5146 Y2.8194 F200
G1 X2.5400 Y2.8194 F200
G1 X2.5654 Y2.8194 F200
G1 X5.0292 Y2.8194 F200
G1 X5.0546 Y2.8194 F200
G1 X5.0800 Y2.8194 F200
G1 X7.5438 Y2.8194 F200
G1 X7.5692 Y2.8194 F200
G1 X7.5946 Y2.8194 F200
G1 X15.7480 Y2.8194 F200
G1 X15.7734 Y2.8194 F200
G1 X0.0254 Y2.8448 F200
G1 X0.0508 Y2.8448 F200
G1 X0.0762 Y2.8448 F200
G1 X2.5146 Y2.8448 F200
G1 X2.5400 Y2.8448 F200
G1 X2.5654 Y2.8448 F200
G1 X5.0292 Y2.8448 F200
G1 X5.0546 Y2.8448 F200
G1 X5.0800 Y2.8448 F200
G1 X7.5438 Y2.8448 F200
G1 X7.5692 Y2.8448 F200
G1 X7.5946 Y2.8448 F200
G1 X15.7480 Y2.8448 F200
G1 X15.7734 Y2.8448 F200
G1 X0.0254 Y2.8702 F200
G1 X0.0508 Y2.8702 F200
G1 X2.5146 Y2.8702 F200
G1 X2.5400 Y2.8702 F200
G1 X5.0292 Y2.8702 F200
G1 X5.0546 Y2.8702 F200
G1 X7.5438 Y2.8702 F200
G1 X7.5692 Y2.8702 F200
G1 X15.7480 Y2.8702 F200
G1 X15.7734 Y2.8702 F200
G1 X0.0000 Y2.8956 F200
G1 X0.0254 Y2.8956 F200
G1 X0.0508 Y2.8956 F200
G1 X2.4892 Y2.8956 F200
G1 X2.5146 Y2.8956 F200
G1 X2.5400 Y2.8956 F200
G1 X5.0038 Y2.8956 F200
G1 X5.0292 Y2.8956 F200
G1 X5.0546 Y2.8956 F200
G1 X7.5184 Y2.8956 F200
G1 X7.5438 Y2.8956 F200
G1 X7.5692 Y2.8956 F200
G1 X15.7480 Y2.8956 F200
G1 X15.7734 Y2.8956 F200
G1 X0.0000 Y2.9210 F200
G1 X0.0254 Y2.9210 F200
G1 X0.0508 Y2.9210 F200
G1 X2.4892 Y2.9210 F200
G1 X2.5146 Y2.9210 F200
G1 X2.5400 Y2.9210 F200
G1 X5.0038 Y2.9210 F200
G1 X5.0292 Y2.9210 F200
G1 X5.0546 Y2.9210 F200
G1 X7.5184 Y2.9210 F200
G1 X7.5438 Y2.9210 F200
G1 X7.5692 Y2.9210 F200
G1 X15.7480 Y2.9210 F200
G1 X15.7734 Y2.9210 F200
G1 X0.0000 Y2.9464 F200
G1 X0.0254 Y2.9464 F200
G1 X2.4892 Y2.9464 F200
G1 X2.5146 Y2.9464 F200
G1 X5.0038 Y2.9464 F200
G1 X5.0292 Y2.9464 F200
G1 X7.5184 Y2.9464 F200
G1 X7.5438 Y2.9464 F200
G1 X15.7480 Y2.9464 F200
G1 X15.7734 Y2.9464 F200
G1 X0.0000 Y2.9718 F200
G1 X0.0254 Y2.9718 F200
G1 X2.4892 Y2.9718 F200
G1 X2.5146 Y2.9718 F200
G1 X5.0038 Y2.9718 F200
G1 X5.0292 Y2.9718 F200
G1 X7.5184 Y2.9718 F200
G1 X7.5438 Y2.9718 F200
G1 X15.7480 Y2.9718 F200
G1 X15.7734 Y2.9718 F200
G1 X0.0000 Y2.9972 F200
G1 X0.0254 Y2.9972 F200
G1 X2.4638 Y2.9972 F200
G1 X2.4892 Y2.9972 F200
G1 X2.5146 Y2.9972 F200
G1 X4.9784 Y2.9972 F200
G1 X5.0038 Y2.9972 F200
G1 X5.0292 Y2.9972 F200
G1 X7.4930 Y2.9972 F200
G1 X7.5184 Y2.9972 F200
G1 X7.5438 Y2.9972 F200
G1 X14.6558 Y2.9972 F200
G1 X14.6812 Y2.9972 F200
G1 X15.7480 Y2.9972 F200
G1 X15.7734 Y2.9972 F200
G1 X17.7292 Y2.9972 F200
G1 X17.7546 Y2.9972 F200
G1 X0.0000 Y3.0226 F200
G1 X0.0254 Y3.0226 F200
G1 X2.4638 Y3.0226 F200
G1 X2.4892 Y3.0226 F200
G1 X2.5146 Y3.0226 F200
G1 X4.9784 Y3.0226 F200
G1 X5.0038 Y3.0226 F200
G1 X5.0292 Y3.0226 F200
G1 X7.4930 Y3.0226 F200
G1 X7.5184 Y3.0226 F200
G1 X7.5438 Y3.0226 F200
G1 X14.6558 Y3.0226 F200
G1 X14.6812 Y3.0226 F200
G1 X15.7480 Y3.0226 F200
G1 X15.7734 Y3.0226 F200
G1 X17.7292 Y3.0226 F200
G1 X17.7546 Y3.0226 F200
G1 X2.4638 Y3.0480 F200
G1 X2.4892 Y3.0480 F200
G1 X4.9784 Y3.0480 F200
G1 X5.0038 Y3.0480 F200
G1 X7.4930 Y3.0480 F200
G1 X7.5184 Y3.0480 F200
G1 X14.6558 Y3.0480 F200
G1 X14.6812 Y3.0480 F200
G1 X15.7480 Y3.0480 F200
G1 X15.7734 Y3.0480 F200
G1 X17.7292 Y3.0480 F200
G1 X17.7546 Y3.0480 F200
G1 X2.4638 Y3.0734 F200
G1 X2.4892 Y3.0734 F200
G1 X4.9784 Y3.0734 F200
G1 X5.0038 Y3.0734 F200
G1 X7.4930 Y3.0734 F200
G1 X7.5184 Y3.0734 F200
G1 X14.6558 Y3.0734 F200
G1 X14.6812 Y3.0734 F200
G1 X15.7480 Y3.0734 F200
G1 X15.7734 Y3.0734 F200
G1 X17.7292 Y3.0734 F200
G1 X17.7546 Y3.0734 F200
G1 X2.4638 Y3.0988 F200
G1 X2.4892 Y3.0988 F200
G1 X4.9784 Y3.0988 F200
G1 X5.0038 Y3.0988 F200
G1 X7.4930 Y3.0988 F200
G1 X7.5184 Y3.0988 F200
G1 X14.6558 Y3.0988 F200
G1 X14.6812 Y3.0988 F200
G1 X15.7480 Y3.0988 F200
G1 X15.7734 Y3.0988 F200
G1 X17.7292 Y3.0988 F200
G1 X17.7546 Y3.0988 F200
G1 X2.4638 Y3.1242 F200
G1 X2.4892 Y3.1242 F200
G1 X4.9784 Y3.1242 F200
G1 X5.0038 Y3.1242 F200
G1 X7.4930 Y3.1242 F200
G1 X7.5184 Y3.1242 F200
G1 X14.6558 Y3.1242 F200
G1 X14.6812 Y3.1242 F200
G1 X15.7480 Y3.1242 F200
G1 X15.7734 Y3.1242 F200
G1 X17.7292 Y3.1242 F200
G1 X17.7546 Y3.1242 F200
G1 X2.4638 Y3.1496 F200
G1 X2.4892 Y3.1496 F200
G1 X4.9784 Y3.1496 F200
G1 X5.0038 Y3.1496 F200
G1 X7.4930 Y3.1496 F200
G1 X7.5184 Y3.1496 F200
G1 X14.6558 Y3.1496 F200
G1 X14.6812 Y3.1496 F200
G1 X15.7480 Y3.1496 F200
G1 X15.7734 Y3.1496 F200
G1 X17.7292 Y3.1496 F200
G1 X17.7546 Y3.1496 F200
G1 X2.4638 Y3.1750 F200
G1 X2.4892 Y3.1750 F200
G1 X4.9784 Y3.1750 F200
G1 X5.0038 Y3.1750 F200
G1 X7.4930 Y3.1750 F200
G1 X7.5184 Y3.1750 F200
G1 X14.6558 Y3.1750 F200
G1 X14.6812 Y3.1750 F200
G1 X15.7480 Y3.1750 F200
G1 X15.7734 Y3.1750 F200
G1 X17.7292 Y3.1750 F200
G1 X17.7546 Y3.1750 F200
G1 X2.4638 Y3.2004 F200
G1 X2.4892 Y3.2004 F200
G1 X4.9784 Y3.2004 F200
G1 X5.0038 Y3.2004 F200
G1 X7.4930 Y3.2004 F200
G1 X7.5184 Y3.2004 F200
G1 X14.6558 Y3.2004 F200
G1 X14.6812 Y3.2004 F200
G1 X15.7480 Y3.2004 F200
G1 X15.7734 Y3.2004 F200
G1 X17.7292 Y3.2004 F200
G1 X17.7546 Y3.2004 F200
G1 X2.4638 Y3.2258 F200
G1 X2.4892 Y3.2258 F200
G1 X4.9784 Y3.2258 F200
G1 X5.0038 Y3.2258 F200
G1 X7.4930 Y3.2258 F200
G1 X7.5184 Y3.2258 F200
G1 X14.6558 Y3.2258 F200
G1 X14.6812 Y3.2258 F200
G1 X15.7480 Y3.2258 F200
G1 X15.7734 Y3.2258 F200
G1 X17.7292 Y3.2258 F200
G1 X17.7546 Y3.2258 F200
G1 X0.0000 Y3.2512 F200
G1 X0.0254 Y3.2512 F200
G1 X2.4638 Y3.2512 F200
G1 X2.4892 Y3.2512 F200
G1 X2.5146 Y3.2512 F200
G1 X4.9784 Y3.2512 F200
G1 X5.0038 Y3.2512 F200
G1 X5.0292 Y3.2512 F200
G1 X7.4930 Y3.2512 F200
G1 X7.5184 Y3.2512 F200
G1 X7.5438 Y3.2512 F200
G1 X14.6558 Y3.2512 F200
G1 X14.6812 Y3.2512 F200
G1 X15.7480 Y3.2512 F200
G1 X15.7734 Y3.2512 F200
G1 X17.7292 Y3.2512 F200
G1 X17.7546 Y3.2512 F200
G1 X0.0000 Y3.2766 F200
G1 X0.0254 Y3.2766 F200
G1 X2.4638 Y3.2766 F200
G1 X2.4892 Y3.2766 F200
G1 X2.5146 Y3.2766 F200
G1 X4.9784 Y3.2766 F200
G1 X5.0038 Y3.2766 F200
G1 X5.0292 Y3.2766 F200
G1 X7.4930 Y3.2766 F200
G1 X7.5184 Y3.2766 F200
G1 X7.5438 Y3.2766 F200
G1 X14.6558 Y3.2766 F200
G1 X14.6812 Y3.2766 F200
G1 X15.7480 Y3.2766 F200
G1 X15.7734 Y3.2766 F200
G1 X17.7292 Y3.2766 F200
G1 X17.7546 Y3.2766 F200
G1 X0.0000 Y3.3020 F200
G1 X0.0254 Y3.3020 F200
G1 X2.4892 Y3.3020 F200
G1 X2.5146 Y3.3020 F200
G1 X5.0038 Y3.3020 F200
G1 X5.0292 Y3.3020 F200
G1 X7.5184 Y3.3020 F200
G1 X7.5438 Y3.3020 F200
G1 X14.6558 Y3.3020 F200
G1 X14.6812 Y3.3020 F200
G1 X15.7480 Y3.3020 F200
G1 X15.7734 Y3.3020 F200
G1 X17.7292 Y3.3020 F200
G1 X17.7546 Y3.3020 F200
G1 X0.0000 Y3.3274 F200
G1 X0.0254 Y3.3274 F200
G1 X2.4892 Y3.3274 F200
G1 X2.5146 Y3.3274 F200
G1 X5.0038 Y3.3274 F200
G1 X5.0292 Y3.3274 F200
G1 X7.5184 Y3.3274 F200
G1 X7.5438 Y3.3274 F200
G1 X0.0000 Y3.3528 F200
G1 X0.0254 Y3.3528 F200
G1 X0.0508 Y3.3528 F200
G1 X2.4892 Y3.3528 F200
G1 X2.5146 Y3.3528 F200
G1 X2.5400 Y3.3528 F200
G1 X5.0038 Y3.3528 F200
G1 X5.0292 Y3.3528 F200
G1 X5.0546 Y3.3528 F200
G1 X7.5184 Y3.3528 F200
G1 X7.5438 Y3.3528 F200
G1 X7.5692 Y3.3528 F200
G1 X0.0000 Y3.3782 F200
G1 X0.0254 Y3.3782 F200
G1 X0.0508 Y3.3782 F200
G1 X2.4892 Y3.3782 F200
G1 X2.5146 Y3.3782 F200
G1 X2.5400 Y3.3782 F200
G1 X5.0038 Y3.3782 F200
G1 X5.0292 Y3.3782 F200
G1 X5.0546 Y3.3782 F200
G1 X7.5184 Y3.3782 F200
G1 X7.5438 Y3.3782 F200
G1 X7.5692 Y3.3782 F200
G1 X0.0254 Y3.4036 F200
G1 X0.0508 Y3.4036 F200
G1 X2.5146 Y3.4036 F200
G1 X2.5400 Y3.4036 F200
G1 X5.0292 Y3.4036 F200
G1 X5.0546 Y3.4036 F200
G1 X7.5438 Y3.4036 F200
G1 X7.5692 Y3.4036 F200
G1 X0.0254 Y3.4290 F200
G1 X0.0508 Y3.4290 F200
G1 X0.0762 Y3.4290 F200
G1 X2.5146 Y3.4290 F200
G1 X2.5400 Y3.4290 F200
G1 X2.5654 Y3.4290 F200
G1 X5.0292 Y3.4290 F200
G1 X5.0546 Y3.4290 F200
G1 X5.0800 Y3.4290 F200
G1 X7.5438 Y3.4290 F200
G1 X7.5692 Y3.4290 F200
G1 X7.5946 Y3.4290 F200
G1 X0.0254 Y3.4544 F200
G1 X0.0508 Y3.4544 F200
G1 X0.0762 Y3.4544 F200
G1 X2.5146 Y3.4544 F200
G1 X2.5400 Y3.4544 F200
G1 X2.5654 Y3.4544 F200
G1 X5.0292 Y3.4544 F200
G1 X5.0546 Y3.4544 F200
G1 X5.0800 Y3.4544 F200
G1 X7.5438 Y3.4544 F200
G1 X7.5692 Y3.4544 F200
G1 X7.5946 Y3.4544 F200
G1 X15.7480 Y3.4544 F200
G1 X15.7734 Y3.4544 F200
G1 X16.2560 Y3.4544 F200
G1 X16.2814 Y3.4544 F200
G1 X16.7386 Y3.4544 F200
G1 X16.7640 Y3.4544 F200
G1 X17.2466 Y3.4544 F200
G1 X17.2720 Y3.4544 F200
G1 X0.0508 Y3.4798 F200
G1 X0.0762 Y3.4798 F200
G1 X0.1016 Y3.4798 F200
G1 X2.5400 Y3.4798 F200
G1 X2.5654 Y3.4798 F200
G1 X2.5908 Y3.4798 F200
G1 X5.0546 Y3.4798 F200
G1 X5.0800 Y3.4798 F200
G1 X5.1054 Y3.4798 F200
G1 X7.5692 Y3.4798 F200
G1 X7.5946 Y3.4798 F200
G1 X7.6200 Y3.4798 F200
G1 X15.2654 Y3.4798 F200
G1 X15.2908 Y3.4798 F200
G1 X15.7480 Y3.4798 F200
G1 X15.7734 Y3.4798 F200
G1 X16.2560 Y3.4798 F200
G1 X16.2814 Y3.4798 F200
G1 X16.7386 Y3.4798 F200
G1 X16.7640 Y3.4798 F200
G1 X17.2466 Y3.4798 F200
G1 X17.2720 Y3.4798 F200
G1 X17.7292 Y3.4798 F200
G1 X17.7546 Y3.4798 F200
G1 X0.0508 Y3.5052 F200
G1 X0.0762 Y3.5052 F200
G1 X0.1016 Y3.5052 F200
G1 X2.5400 Y3.5052 F200
G1 X2.5654 Y3.5052 F200
G1 X2.5908 Y3.5052 F200
G1 X5.0546 Y3.5052 F200
G1 X5.0800 Y3.5052 F200
G1 X5.1054 Y3.5052 F200
G1 X7.5692 Y3.5052 F200
G1 X7.5946 Y3.5052 F200
G1 X7.6200 Y3.5052 F200
G1 X15.2654 Y3.5052 F200
G1 X15.2908 Y3.5052 F200
G1 X15.7480 Y3.5052 F200
G1 X15.7734 Y3.5052 F200
G1 X16.2560 Y3.5052 F200
G1 X16.2814 Y3.5052 F200
G1 X16.7386 Y3.5052 F200
G1 X16.7640 Y3.5052 F200
G1 X17.2466 Y3.5052 F200
G1 X17.2720 Y3.5052 F200
G1 X17.7292 Y3.5052 F200
G1 X17.7546 Y3.5052 F200
G1 X0.0762 Y3.5306 F200
G1 X0.1016 Y3.5306 F200
G1 X0.1270 Y3.5306 F200
G1 X2.5654 Y3.5306 F200
G1 X2.5908 Y3.5306 F200
G1 X2.6162 Y3.5306 F200
G1 X5.0800 Y3.5306 F200
G1 X5.1054 Y3.5306 F200
G1 X5.1308 Y3.5306 F200
G1 X7.5946 Y3.5306 F200
G1 X7.6200 Y3.5306 F200
G1 X7.6454 Y3.5306 F200
G1 X15.2654 Y3.5306 F200
G1 X15.2908 Y3.5306 F200
G1 X15.7480 Y3.5306 F200
G1 X15.7734 Y3.5306 F200
G1 X16.2560 Y3.5306 F200
G1 X16.2814 Y3.5306 F200
G1 X16.7386 Y3.5306 F200
G1 X16.7640 Y3.5306 F200
G1 X17.2466 Y3.5306 F200
G1 X17.2720 Y3.5306 F200
G1 X17.7292 Y3.5306 F200
G1 X17.7546 Y3.5306 F200
G1 X0.0762 Y3.5560 F200
G1 X0.1016 Y3.5560 F200
G1 X0.1270 Y3.5560 F200
G1 X0.1524 Y3.5560 F200
G1 X2.5654 Y3.5560 F200
G1 X2.5908 Y3.5560 F200
G1 X2.6162 Y3.5560 F200
G1 X2.6416 Y3.5560 F200
G1 X5.0800 Y3.5560 F200
G1 X5.1054 Y3.5560 F200
G1 X5.1308 Y3.5560 F200
G1 X5.1562 Y3.5560 F200
G1 X7.5946 Y3.5560 F200
G1 X7.6200 Y3.5560 F200
G1 X7.6454 Y3.5560 F200
G1 X7.6708 Y3.5560 F200
G1 X15.2654 Y3.5560 F200
G1 X15.2908 Y3.5560 F200
G1 X15.7480 Y3.5560 F200
G1 X15.7734 Y3.5560 F200
G1 X16.2560 Y3.5560 F200
G1 X16.2814 Y3.5560 F200
G1 X16.7386 Y3.5560 F200
G1 X16.7640 Y3.5560 F200
G1 X17.2466 Y3.5560 F200
G1 X17.2720 Y3.5560 F200
G1 X17.7292 Y3.5560 F200
G1 X17.7546 Y3.5560 F200
G1 X0.1016 Y3.5814 F200
G1 X0.1270 Y3.5814 F200
G1 X0.1524 Y3.5814 F200
G1 X2.5908 Y3.5814 F200
G1 X2.6162 Y3.5814 F200
G1 X2.6416 Y3.5814 F200
G1 X5.1054 Y3.5814 F200
G1 X5.1308 Y3.5814 F200
G1 X5.1562 Y3.5814 F200
G1 X7.6200 Y3.5814 F200
G1 X7.6454 Y3.5814 F200
G1 X7.6708 Y3.5814 F200
G1 X15.2654 Y3.5814 F200
G1 X15.2908 Y3.5814 F200
G1 X15.7480 Y3.5814 F200
G1 X15.7734 Y3.5814 F200
G1 X16.2560 Y3.5814 F200
G1 X16.2814 Y3.5814 F200
G1 X16.7386 Y3.5814 F200
G1 X16.7640 Y3.5814 F200
G1 X17.2466 Y3.5814 F200
G1 X17.2720 Y3.5814 F200
G1 X17.7292 Y3.5814 F200
G1 X17.7546 Y3.5814 F200
G1 X0.1270 Y3.6068 F200
G1 X0.1524 Y3.6068 F200
G1 X0.1778 Y3.6068 F200
G1 X2.6162 Y3.6068 F200
G1 X2.6416 Y3.6068 F200
G1 X2.6670 Y3.6068 F200
G1 X5.1308 Y3.6068 F200
G1 X5.1562 Y3.6068 F200
G1 X5.1816 Y3.6068 F200
G1 X7.6454 Y3.6068 F200
G1 X7.6708 Y3.6068 F200
G1 X7.6962 Y3.6068 F200
G1 X15.2654 Y3.6068 F200
G1 X15.2908 Y3.6068 F200
G1 X15.7480 Y3.6068 F200
G1 X15.7734 Y3.6068 F200
G1 X16.2560 Y3.6068 F200
G1 X16.2814 Y3.6068 F200
G1 X16.7386 Y3.6068 F200
G1 X16.7640 Y3.6068 F200
G1 X17.2466 Y3.6068 F200
G1 X17.2720 Y3.6068 F200
G1 X17.7292 Y3.6068 F200
G1 X17.7546 Y3.6068 F200
G1 X0.1270 Y3.6322 F200
G1 X0.1524 Y3.6322 F200
G1 X0.1778 Y3.6322 F200
G1 X0.2032 Y3.6322 F200
G1 X2.6162 Y3.6322 F200
G1 X2.6416 Y3.6322 F200
G1 X2.6670 Y3.6322 F200
G1 X2.6924 Y3.6322 F200
G1 X5.1308 Y3.6322 F200
G1 X5.1562 Y3.6322 F200
G1 X5.1816 Y3.6322 F200
G1 X5.2070 Y3.6322 F200
G1 X7.6454 Y3.6322 F200
G1 X7.6708 Y3.6322 F200
G1 X7.6962 Y3.6322 F200
G1 X7.7216 Y3.6322 F200
G1 X15.2654 Y3.6322 F200
G1 X15.2908 Y3.6322 F200
G1 X15.7480 Y3.6322 F200
G1 X15.7734 Y3.6322 F200
G1 X16.2560 Y3.6322 F200
G1 X16.2814 Y3.6322 F200
G1 X16.7386 Y3.6322 F200
G1 X16.7640 Y3.6322 F200
G1 X17.2466 Y3.6322 F200
G1 X17.2720 Y3.6322 F200
G1 X17.7292 Y3.6322 F200
G1 X17.7546 Y3.6322 F200
G1 X0.1524 Y3.6576 F200
G1 X0.1778 Y3.6576 F200
G1 X0.2032 Y3.6576 F200
G1 X0.2286 Y3.6576 F200
G1 X2.6416 Y3.6576 F200
G1 X2.6670 Y3.6576 F200
G1 X2.6924 Y3.6576 F200
G1 X2.7178 Y3.6576 F200
G1 X5.1562 Y3.6576 F200
G1 X5.1816 Y3.6576 F200
G1 X5.2070 Y3.6576 F200
G1 X5.2324 Y3.6576 F200
G1 X7.6708 Y3.6576 F200
G1 X7.6962 Y3.6576 F200
G1 X7.7216 Y3.6576 F200
G1 X7.7470 Y3.6576 F200
G1 X15.2654 Y3.6576 F200
G1 X15.2908 Y3.6576 F200
G1 X15.7480 Y3.6576 F200
G1 X15.7734 Y3.6576 F200
G1 X16.2560 Y3.6576 F200
G1 X16.2814 Y3.6576 F200
G1 X16.7386 Y3.6576 F200
G1 X16.7640 Y3.6576 F200
G1 X17.2466 Y3.6576 F200
G1 X17.2720 Y3.6576 F200
G1 X17.7292 Y3.6576 F200
G1 X17.7546 Y3.6576 F200
G1 X0.1778 Y3.6830 F200
G1 X0.2032 Y3.6830 F200
G1 X0.2286 Y3.6830 F200
G1 X0.2540 Y3.6830 F200
G1 X2.6670 Y3.6830 F200
G1 X2.6924 Y3.6830 F200
G1 X2.7178 Y3.6830 F200
G1 X2.7432 Y3.6830 F200
G1 X5.1816 Y3.6830 F200
G1 X5.2070 Y3.6830 F200
G1 X5.2324 Y3.6830 F200
G1 X5.2578 Y3.6830 F200
G1 X7.6962 Y3.6830 F200
G1 X7.7216 Y3.6830 F200
G1 X7.7470 Y3.6830 F200
G1 X7.7724 Y3.6830 F200
G1 X15.2654 Y3.6830 F200
G1 X15.2908 Y3.6830 F200
G1 X15.7480 Y3.6830 F200
G1 X15.7734 Y3.6830 F200
G1 X16.2560 Y3.6830 F200
G1 X16.2814 Y3.6830 F200
G1 X16.7386 Y3.6830 F200
G1 X16.7640 Y3.6830 F200
G1 X17.2466 Y3.6830 F200
G1 X17.2720 Y3.6830 F200
G1 X17.7292 Y3.6830 F200
G1 X17.7546 Y3.6830 F200
G1 X0.2032 Y3.7084 F200
G1 X0.2286 Y3.7084 F200
G1 X0.2540 Y3.7084 F200
G1 X0.2794 Y3.7084 F200
G1 X2.6924 Y3.7084 F200
G1 X2.7178 Y3.7084 F200
G1 X2.7432 Y3.7084 F200
G1 X2.7686 Y3.7084 F200
G1 X5.2070 Y3.7084 F200
G1 X5.2324 Y3.7084 F200
G1 X5.2578 Y3.7084 F200
G1 X5.2832 Y3.7084 F200
G1 X7.7216 Y3.7084 F200
G1 X7.7470 Y3.7084 F200
G1 X7.7724 Y3.7084 F200
G1 X7.7978 Y3.7084 F200
G1 X15.2654 Y3.7084 F200
G1 X15.2908 Y3.7084 F200
G1 X15.7480 Y3.7084 F200
G1 X15.7734 Y3.7084 F200
G1 X16.2560 Y3.7084 F200
G1 X16.2814 Y3.7084 F200
G1 X16.7386 Y3.7084 F200
G1 X16.7640 Y3.7084 F200
G1 X17.2466 Y3.7084 F200
G1 X17.2720 Y3.7084 F200
G1 X17.7292 Y3.7084 F200
G1 X17.7546 Y3.7084 F200
G1 X0.2286 Y3.7338 F200
G1 X0.2540 Y3.7338 F200
G1 X0.2794 Y3.7338 F200
G1 X0.3048 Y3.7338 F200
G1 X2.7178 Y3.7338 F200
G1 X2.7432 Y3.7338 F200
G1 X2.7686 Y3.7338 F200
G1 X2.7940 Y3.7338 F200
G1 X5.2324 Y3.7338 F200
G1 X5.2578 Y3.7338 F200
G1 X5.2832 Y3.7338 F200
G1 X5.3086 Y3.7338 F200
G1 X7.7470 Y3.7338 F200
G1 X7.7724 Y3.7338 F200
G1 X7.7978 Y3.7338 F200
G1 X7.8232 Y3.7338 F200
G1 X15.2654 Y3.7338 F200
G1 X15.2908 Y3.7338 F200
G1 X15.7480 Y3.7338 F200
G1 X15.7734 Y3.7338 F200
G1 X16.2560 Y3.7338 F200
G1 X16.2814 Y3.7338 F200
G1 X16.7386 Y3.7338 F200
G1 X16.7640 Y3.7338 F200
G1 X17.2466 Y3.7338 F200
G1 X17.2720 Y3.7338 F200
G1 X17.7292 Y3.7338 F200
G1 X17.7546 Y3.7338 F200
G1 X0.2540 Y3.7592 F200
G1 X0.2794 Y3.7592 F200
G1 X0.3048 Y3.7592 F200
G1 X0.3302 Y3.7592 F200
G1 X0.3556 Y3.7592 F200
G1 X2.7432 Y3.7592 F200
G1 X2.7686 Y3.7592 F200
G1 X2.7940 Y3.7592 F200
G1 X2.8194 Y3.7592 F200
G1 X2.8448 Y3.7592 F200
G1 X5.2578 Y3.7592 F200
G1 X5.2832 Y3.7592 F200
G1 X5.3086 Y3.7592 F200
G1 X5.3340 Y3.7592 F200
G1 X5.3594 Y3.7592 F200
G1 X7.7724 Y3.7592 F200
G1 X7.7978 Y3.7592 F200
G1 X7.8232 Y3.7592 F200
G1 X7.8486 Y3.7592 F200
G1 X7.8740 Y3.7592 F200
G1 X15.2654 Y3.7592 F200
G1 X15.2908 Y3.7592 F200
G1 X15.7480 Y3.7592 F200
G1 X15.7734 Y3.7592 F200
G1 X16.2560 Y3.7592 F200
G1 X16.2814 Y3.7592 F200
G1 X16.7386 Y3.7592 F200
G1 X16.7640 Y3.7592 F200
G1 X17.2466 Y3.7592 F200
G1 X17.2720 Y3.7592 F200
G1 X17.7292 Y3.7592 F200
G1 X17.7546 Y3.7592 F200
G1 X0.2794 Y3.7846 F200
G1 X0.3048 Y3.7846 F200
G1 X0.3302 Y3.7846 F200
G1 X0.3556 Y3.7846 F200
G1 X0.3810 Y3.7846 F200
G1 X2.7686 Y3.7846 F200
G1 X2.7940 Y3.7846 F200
G1 X2.8194 Y3.7846 F200
G1 X2.8448 Y3.7846 F200
G1 X2.8702 Y3.7846 F200
G1 X5.2832 Y3.7846 F200
G1 X5.3086 Y3.7846 F200
G1 X5.3340 Y3.7846 F200
G1 X5.3594 Y3.7846 F200
G1 X5.3848 Y3.7846 F200
G1 X7.7978 Y3.7846 F200
G1 X7.8232 Y3.7846 F200
G1 X7.8486 Y3.7846 F200
G1 X7.8740 Y3.7846 F200
G1 X7.8994 Y3.7846 F200
G1 X15.2654 Y3.7846 F200
G1 X15.2908 Y3.7846 F200
G1 X15.7480 Y3.7846 F200
G1 X15.7734 Y3.7846 F200
G1 X16.2560 Y3.7846 F200
G1 X16.2814 Y3.7846 F200
G1 X16.7386 Y3.7846 F200
G1 X16.7640 Y3.7846 F200
G1 X17.2466 Y3.7846 F200
G1 X17.2720 Y3.7846 F200
G1 X17.7292 Y3.7846 F200
G1 X17.7546 Y3.7846 F200
G1 X0.3302 Y3.8100 F200
G1 X0.3556 Y3.8100 F200
G1 X0.3810 Y3.8100 F200
G1 X0.4064 Y3.8100 F200
G1 X0.4318 Y3.8100 F200
G1 X2.8194 Y3.8100 F200
G1 X2.8448 Y3.8100 F200
G1 X2.8702 Y3.8100 F200
G1 X2.8956 Y3.8100 F200
G1 X2.9210 Y3.8100 F200
G1 X5.3340 Y3.8100 F200
G1 X5.3594 Y3.8100 F200
G1 X5.3848 Y3.8100 F200
G1 X5.4102 Y3.8100 F200
G1 X5.4356 Y3.8100 F200
G1 X7.8486 Y3.8100 F200
G1 X7.8740 Y3.8100 F200
G1 X7.8994 Y3.8100 F200
G1 X7.9248 Y3.8100 F200
G1 X7.9502 Y3.8100 F200
G1 X15.7480 Y3.8100 F200
G1 X15.7734 Y3.8100 F200
G1 X16.2560 Y3.8100 F200
G1 X16.2814 Y3.8100 F200
G1 X16.7386 Y3.8100 F200
G1 X16.7640 Y3.8100 F200
G1 X17.2466 Y3.8100 F200
G1 X17.2720 Y3.8100 F200
G1 X0.3556 Y3.8354 F200
G1 X0.3810 Y3.8354 F200
G1 X0.4064 Y3.8354 F200
G1 X0.4318 Y3.8354 F200
G1 X0.4572 Y3.8354 F200
G1 X0.4826 Y3.8354 F200
G1 X2.8448 Y3.8354 F200
G1 X2.8702 Y3.8354 F200
G1 X2.8956 Y3.8354 F200
G1 X2.9210 Y3.8354 F200
G1 X2.9464 Y3.8354 F200
G1 X2.9718 Y3.8354 F200
G1 X5.3594 Y3.8354 F200
G1 X5.3848 Y3.8354 F200
G1 X5.4102 Y3.8354 F200
G1 X5.4356 Y3.8354 F200
G1 X5.4610 Y3.8354 F200
G1 X5.4864 Y3.8354 F200
G1 X7.8740 Y3.8354 F200
G1 X7.8994 Y3.8354 F200
G1 X7.9248 Y3.8354 F200
G1 X7.9502 Y3.8354 F200
G1 X7.9756 Y3.8354 F200
G1 X8.0010 Y3.8354 F200
G1 X15.7480 Y3.8354 F200
G1 X15.7734 Y3.8354 F200
G1 X16.2560 Y3.8354 F200
G1 X16.2814 Y3.8354 F200
G1 X16.7386 Y3.8354 F200
G1 X16.7640 Y3.8354 F200
G1 X17.2466 Y3.8354 F200
G1 X17.2720 Y3.8354 F200
G1 X0.4064 Y3.8608 F200
G1 X0.4318 Y3.8608 F200
G1 X0.4572 Y3.8608 F200
G1 X0.4826 Y3.8608 F200
G1 X0.5334 Y3.8608 F200
G1 X0.5588 Y3.8608 F200
G1 X2.8956 Y3.8608 F200
G1 X2.9210 Y3.8608 F200
G1 X2.9464 Y3.8608 F200
G1 X2.9718 Y3.8608 F200
G1 X3.0226 Y3.8608 F200
G1 X3.0480 Y3.8608 F200
G1 X5.4102 Y3.8608 F200
G1 X5.4356 Y3.8608 F200
G1 X5.4610 Y3.8608 F200
G1 X5.4864 Y3.8608 F200
G1 X5.5372 Y3.8608 F200
G1 X5.5626 Y3.8608 F200
G1 X7.9248 Y3.8608 F200
G1 X7.9502 Y3.8608 F200
G1 X7.9756 Y3.8608 F200
G1 X8.0010 Y3.8608 F200
G1 X8.0518 Y3.8608 F200
G1 X8.0772 Y3.8608 F200
G1 X15.7480 Y3.8608 F200
G1 X15.7734 Y3.8608 F200
G1 X16.2560 Y3.8608 F200
G1 X16.2814 Y3.8608 F200
G1 X16.7386 Y3.8608 F200
G1 X16.7640 Y3.8608 F200
G1 X17.2466 Y3.8608 F200
G1 X17.2720 Y3.8608 F200
G1 X0.4572 Y3.8862 F200
G1 X0.4826 Y3.8862 F200
G1 X0.5334 Y3.8862 F200
G1 X0.5588 Y3.8862 F200
G1 X0.6350 Y3.8862 F200
G1 X0.6604 Y3.8862 F200
G1 X2.9464 Y3.8862 F200
G1 X2.9718 Y3.8862 F200
G1 X3.0226 Y3.8862 F200
G1 X3.0480 Y3.8862 F200
G1 X3.1242 Y3.8862 F200
G1 X3.1496 Y3.8862 F200
G1 X5.4610 Y3.8862 F200
G1 X5.4864 Y3.8862 F200
G1 X5.5372 Y3.8862 F200
G1 X5.5626 Y3.8862 F200
G1 X5.6388 Y3.8862 F200
G1 X5.6642 Y3.8862 F200
G1 X7.9756 Y3.8862 F200
G1 X8.0010 Y3.8862 F200
G1 X8.0518 Y3.8862 F200
G1 X8.0772 Y3.8862 F200
G1 X8.1534 Y3.8862 F200
G1 X8.1788 Y3.8862 F200
G1 X15.7480 Y3.8862 F200
G1 X15.7734 Y3.8862 F200
G1 X16.2560 Y3.8862 F200
G1 X16.2814 Y3.8862 F200
G1 X16.7386 Y3.8862 F200
G1 X16.7640 Y3.8862 F200
G1 X17.2466 Y3.8862 F200
G1 X17.2720 Y3.8862 F200
G1 X0.5334 Y3.9116 F200
G1 X0.5588 Y3.9116 F200
G1 X0.6350 Y3.9116 F200
G1 X0.6604 Y3.9116 F200
G1 X3.0226 Y3.9116 F200
G1 X3.0480 Y3.9116 F200
G1 X3.1242 Y3.9116 F200
G1 X3.1496 Y3.9116 F200
G1 X5.5372 Y3.9116 F200
G1 X5.5626 Y3.9116 F200
G1 X5.6388 Y3.9116 F200
G1 X5.6642 Y3.9116 F200
G1 X8.0518 Y3.9116 F200
G1 X8.0772 Y3.9116 F200
G1 X8.1534 Y3.9116 F200
G1 X8.1788 Y3.9116 F200
G1 X15.7480 Y3.9116 F200
G1 X15.7734 Y3.9116 F200
G1 X16.2560 Y3.9116 F200
G1 X16.2814 Y3.9116 F200
G1 X16.7386 Y3.9116 F200
G1 X16.7640 Y3.9116 F200
G1 X17.2466 Y3.9116 F200
G1 X17.2720 Y3.9116 F200
G1 X0.6350 Y3.9370 F200
G1 X0.6604 Y3.9370 F200
G1 X3.1242 Y3.9370 F200
G1 X3.1496 Y3.9370 F200
G1 X5.6388 Y3.9370 F200
G1 X5.6642 Y3.9370 F200
G1 X8.1534 Y3.9370 F200
G1 X8.1788 Y3.9370 F200
G1 X15.7480 Y3.9370 F200
G1 X15.7734 Y3.9370 F200
G1 X16.2560 Y3.9370 F200
G1 X16.2814 Y3.9370 F200
G1 X16.7386 Y3.9370 F200
G1 X16.7640 Y3.9370 F200
G1 X17.2466 Y3.9370 F200
G1 X17.2720 Y3.9370 F200
G1 X15.7480 Y3.9624 F200
G1 X15.7734 Y3.9624 F200
G1 X16.2560 Y3.9624 F200
G1 X16.2814 Y3.9624 F200
G1 X16.7386 Y3.9624 F200
G1 X16.7640 Y3.9624 F200
G1 X17.2466 Y3.9624 F200
G1 X17.2720 Y3.9624 F200
G1 X15.7480 Y3.9878 F200
G1 X15.7734 Y3.9878 F200
G1 X16.2560 Y3.9878 F200
G1 X16.2814 Y3.9878 F200
G1 X16.7386 Y3.9878 F200
G1 X16.7640 Y3.9878 F200
G1 X17.2466 Y3.9878 F200
G1 X17.2720 Y3.9878 F200
G1 X15.7480 Y4.0132 F200
G1 X15.7734 Y4.0132 F200
G1 X16.2560 Y4.0132 F200
G1 X16.2814 Y4.0132 F200
G1 X16.7386 Y4.0132 F200
G1 X16.7640 Y4.0132 F200
G1 X17.2466 Y4.0132 F200
G1 X17.2720 Y4.0132 F200
G1 X15.7480 Y4.0386 F200
G1 X15.7734 Y4.0386 F200
G1 X16.2560 Y4.0386 F200
G1 X16.2814 Y4.0386 F200
G1 X16.7386 Y4.0386 F200
G1 X16.7640 Y4.0386 F200
G1 X17.2466 Y4.0386 F200
G1 X17.2720 Y4.0386 F200
G1 X15.7480 Y4.0640 F200
G1 X15.7734 Y4.0640 F200
G1 X16.2560 Y4.0640 F200
G1 X16.2814 Y4.0640 F200
G1 X16.7386 Y4.0640 F200
G1 X16.7640 Y4.0640 F200
G1 X17.2466 Y4.0640 F200
G1 X17.2720 Y4.0640 F200
G1 X15.7480 Y4.0894 F200
G1 X15.7734 Y4.0894 F200
G1 X16.2560 Y4.0894 F200
G1 X16.2814 Y4.0894 F200
G1 X16.7386 Y4.0894 F200
G1 X16.7640 Y4.0894 F200
G1 X17.2466 Y4.0894 F200
G1 X17.2720 Y4.0894 F200
G1 X15.7480 Y4.1148 F200
G1 X15.7734 Y4.1148 F200
G1 X16.2560 Y4.1148 F200
G1 X16.2814 Y4.1148 F200
G1 X16.7386 Y4.1148 F200
G1 X16.7640 Y4.1148 F200
G1 X17.2466 Y4.1148 F200
G1 X17.2720 Y4.1148 F200
G1 X15.7480 Y4.1402 F200
G1 X15.7734 Y4.1402 F200
G1 X16.2560 Y4.1402 F200
G1 X16.2814 Y4.1402 F200
G1 X16.7386 Y4.1402 F200
G1 X16.7640 Y4.1402 F200
G1 X17.2466 Y4.1402 F200
G1 X17.2720 Y4.1402 F200
G1 X15.7480 Y4.1656 F200
G1 X15.7734 Y4.1656 F200
G1 X16.2560 Y4.1656 F200
G1 X16.2814 Y4.1656 F200
G1 X16.7386 Y4.1656 F200
G1 X16.7640 Y4.1656 F200
G1 X17.2466 Y4.1656 F200
G1 X17.2720 Y4.1656 F200
G1 X15.7480 Y4.1910 F200
G1 X15.7734 Y4.1910 F200
G1 X16.2560 Y4.1910 F200
G1 X16.2814 Y4.1910 F200
G1 X16.7386 Y4.1910 F200
G1 X16.7640 Y4.1910 F200
G1 X17.2466 Y4.1910 F200
G1 X17.2720 Y4.1910 F200
G1 X15.7480 Y4.2164 F200
G1 X15.7734 Y4.2164 F200
G1 X16.2560 Y4.2164 F200
G1 X16.2814 Y4.2164 F200
G1 X16.7386 Y4.2164 F200
G1 X16.7640 Y4.2164 F200
G1 X17.2466 Y4.2164 F200
G1 X17.2720 Y4.2164 F200
G1 X15.7480 Y4.2418 F200
G1 X15.7734 Y4.2418 F200
G1 X16.2560 Y4.2418 F200
G1 X16.2814 Y4.2418 F200
G1 X16.7386 Y4.2418 F200
G1 X16.7640 Y4.2418 F200
G1 X17.2466 Y4.2418 F200
G1 X17.2720 Y4.2418 F200
G1 X15.7480 Y4.2672 F200
G1 X15.7734 Y4.2672 F200
G1 X16.2560 Y4.2672 F200
G1 X16.2814 Y4.2672 F200
G1 X16.7386 Y4.2672 F200
G1 X16.7640 Y4.2672 F200
G1 X17.2466 Y4.2672 F200
G1 X17.2720 Y4.2672 F200
G1 X15.7480 Y4.2926 F200
G1 X15.7734 Y4.2926 F200
G1 X16.2560 Y4.2926 F200
G1 X16.2814 Y4.2926 F200
G1 X16.7386 Y4.2926 F200
G1 X16.7640 Y4.2926 F200
G1 X17.2466 Y4.2926 F200
G1 X17.2720 Y4.2926 F200
G1 X15.7480 Y4.3180 F200
G1 X15.7734 Y4.3180 F200
G1 X16.2560 Y4.3180 F200
G1 X16.2814 Y4.3180 F200
G1 X16.7386 Y4.3180 F200
G1 X16.7640 Y4.3180 F200
G1 X17.2466 Y4.3180 F200
G1 X17.2720 Y4.3180 F200
G1 X15.7480 Y4.3434 F200
G1 X15.7734 Y4.3434 F200
G1 X15.8242 Y4.3434 F200
G1 X15.8496 Y4.3434 F200
G1 X16.2560 Y4.3434 F200
G1 X16.2814 Y4.3434 F200
G1 X16.7386 Y4.3434 F200
G1 X16.7640 Y4.3434 F200
G1 X17.2466 Y4.3434 F200
G1 X17.2720 Y4.3434 F200
G1 X15.7480 Y4.3688 F200
G1 X15.7734 Y4.3688 F200
G1 X15.8242 Y4.3688 F200
G1 X15.8496 Y4.3688 F200
G1 X16.2560 Y4.3688 F200
G1 X16.2814 Y4.3688 F200
G1 X16.7386 Y4.3688 F200
G1 X16.7640 Y4.3688 F200
G1 X17.2466 Y4.3688 F200
G1 X17.2720 Y4.3688 F200
G1 X15.8242 Y4.3942 F200
G1 X15.8496 Y4.3942 F200
G1 X15.8242 Y4.4196 F200
G1 X15.8496 Y4.4196 F200
G1 X15.8242 Y4.4450 F200
G1 X15.8496 Y4.4450 F200
G1 X15.8242 Y4.4704 F200
G1 X15.8496 Y4.4704 F200
G1 X15.8242 Y4.4958 F200
G1 X15.8496 Y4.4958 F200
G1 X15.8242 Y4.5212 F200
G1 X15.8496 Y4.5212 F200
G1 X15.8242 Y4.5466 F200
G1 X15.8496 Y4.5466 F200
G1 X15.8242 Y4.5720 F200
G1 X15.8496 Y4.5720 F200
G1 X15.8242 Y4.5974 F200
G1 X15.8496 Y4.5974 F200
G1 X15.8242 Y4.6228 F200
G1 X15.8496 Y4.6228 F200
G1 X15.8242 Y4.6482 F200
G1 X15.8496 Y4.6482 F200
G1 X15.8242 Y4.6736 F200
G1 X15.8496 Y4.6736 F200
G1 X15.8242 Y4.6990 F200
G1 X15.8496 Y4.6990 F200
G1 X15.8242 Y4.7244 F200
G1 X15.8496 Y4.7244 F200
G1 X15.8242 Y4.7498 F200
G1 X15.8496 Y4.7498 F200
G1 X15.8242 Y4.7752 F200
G1 X15.8496 Y4.7752 F200
G1 X15.8242 Y4.8006 F200
G1 X15.8496 Y4.8006 F200
G1 X15.8242 Y4.8260 F200
G1 X15.8496 Y4.8260 F200
G1 X15.8242 Y4.8514 F200
G1 X15.8496 Y4.8514 F200
G1 X15.8242 Y4.8768 F200
G1 X15.8496 Y4.8768 F200
G1 X15.8242 Y4.9022 F200
G1 X15.8496 Y4.9022 F200
G1 X15.8242 Y4.9276 F200
G1 X15.8496 Y4.9276 F200
G1 X15.8242 Y4.9530 F200
G1 X15.8496 Y4.9530 F200
G1 X15.8242 Y4.9784 F200
G1 X15.8496 Y4.9784 F200
G1 X15.8242 Y5.0038 F200
G1 X15.8496 Y5.0038 F200
G1 X15.8242 Y5.0292 F200
G1 X15.8496 Y5.0292 F200
G1 X15.8242 Y5.0546 F200
G1 X15.8496 Y5.0546 F200
G1 X15.8242 Y5.0800 F200
G1 X15.8496 Y5.0800 F200
G1 X15.8242 Y5.1054 F200
G1 X15.8496 Y5.1054 F200
G1 X15.8242 Y5.1308 F200
G1 X15.8496 Y5.1308 F200
G1 X15.8242 Y5.1562 F200
G1 X15.8496 Y5.1562 F200
G1 X15.8242 Y5.1816 F200
G1 X15.8496 Y5.1816 F200
G1 X15.8242 Y5.2070 F200
G1 X15.8496 Y5.2070 F200
G1 X15.7988 Y5.2324 F200
G1 X15.8242 Y5.2324 F200
G1 X15.8496 Y5.2324 F200
G1 X15.7988 Y5.2578 F200
G1 X15.8242 Y5.2578 F200
G1 X15.8496 Y5.2578 F200
G1 X15.7988 Y5.2832 F200
G1 X15.8242 Y5.2832 F200
G1 X15.7734 Y5.3086 F200
G1 X15.7988 Y5.3086 F200
G1 X15.8242 Y5.3086 F200
G1 X15.7480 Y5.3340 F200
G1 X15.7734 Y5.3340 F200
G1 X15.7988 Y5.3340 F200
G1 X15.8242 Y5.3340 F200
G1 X15.7226 Y5.3594 F200
G1 X15.7480 Y5.3594 F200
G1 X15.7734 Y5.3594 F200
G1 X15.7988 Y5.3594 F200
G1 X15.6718 Y5.3848 F200
G1 X15.6972 Y5.3848 F200
G1 X15.7226 Y5.3848 F200
G1 X15.7480 Y5.3848 F200
G1 X15.7734 Y5.3848 F200
G1 X15.6464 Y5.4102 F200
G1 X15.6718 Y5.4102 F200
G1 X15.6972 Y5.4102 F200
G1 X15.7226 Y5.4102 F200
G1 X15.7480 Y5.4102 F200
G1 X15.6210 Y5.4356 F200
G1 X15.6464 Y5.4356 F200
G1 X15.6718 Y5.4356 F200
G1 X15.6972 Y5.4356 F200
G1 X15.5956 Y5.4610 F200
G1 X15.6210 Y5.4610 F200
G1 X15.6464 Y5.4610 F200
G1 X15.6718 Y5.4610 F200
G1 X13.1064 Y5.4864 F200
G1 X13.1318 Y5.4864 F200
G1 X15.5956 Y5.4864 F200
G1 X15.6210 Y5.4864 F200
G1 X15.6464 Y5.4864 F200
G1 X13.0556 Y5.5118 F200
G1 X13.0810 Y5.5118 F200
G1 X13.1064 Y5.5118 F200
G1 X13.1318 Y5.5118 F200
G1 X15.5956 Y5.5118 F200
G1 X15.6210 Y5.5118 F200
G1 X13.0302 Y5.5372 F200
G1 X13.0556 Y5.5372 F200
G1 X13.0810 Y5.5372 F200
G1 X13.1064 Y5.5372 F200
G1 X13.1318 Y5.5372 F200
G1 X13.0302 Y5.5626 F200
G1 X13.0556 Y5.5626 F200
G1 X13.0810 Y5.5626 F200
G1 X13.0302 Y5.5880 F200
G1 X13.0556 Y5.5880 F200
G1 X13.0302 Y5.6134 F200
G1 X13.0556 Y5.6134 F200
G1 X13.0302 Y5.6388 F200
G1 X13.0556 Y5.6388 F200
G1 X13.0810 Y5.6388 F200
G1 X13.0302 Y5.6642 F200
G1 X13.0556 Y5.6642 F200
G1 X13.0810 Y5.6642 F200
G1 X15.5702 Y5.6642 F200
G1 X15.5956 Y5.6642 F200
G1 X13.0556 Y5.6896 F200
G1 X13.0810 Y5.6896 F200
G1 X15.5702 Y5.6896 F200
G1 X15.5956 Y5.6896 F200
G1 X13.0556 Y5.7150 F200
G1 X13.0810 Y5.7150 F200
G1 X15.5702 Y5.7150 F200
G1 X15.5956 Y5.7150 F200
G1 X13.0556 Y5.7404 F200
G1 X13.0810 Y5.7404 F200
G1 X13.0556 Y5.7658 F200
G1 X13.0810 Y5.7658 F200
G1 X13.0556 Y5.7912 F200
G1 X13.0810 Y5.7912 F200
G1 X13.0556 Y5.8166 F200
G1 X13.0810 Y5.8166 F200
G1 X13.0556 Y5.8420 F200
G1 X13.0810 Y5.8420 F200
G1 X13.0556 Y5.8674 F200
G1 X13.0810 Y5.8674 F200
G1 X13.0556 Y5.8928 F200
G1 X13.0810 Y5.8928 F200
G1 X13.0556 Y5.9182 F200
G1 X13.0810 Y5.9182 F200
G1 X13.0556 Y5.9436 F200
G1 X13.0810 Y5.9436 F200
G1 X13.0556 Y5.9690 F200
G1 X13.0810 Y5.9690 F200
G1 X13.0556 Y5.9944 F200
G1 X13.0810 Y5.9944 F200
G1 X13.0556 Y6.0198 F200
G1 X13.0810 Y6.0198 F200
G1 X13.0556 Y6.0452 F200
G1 X13.0810 Y6.0452 F200
G1 X13.0556 Y6.0706 F200
G1 X13.0810 Y6.0706 F200
G1 X13.0556 Y6.0960 F200
G1 X13.0810 Y6.0960 F200
G1 X13.0556 Y6.1214 F200
G1 X13.0810 Y6.1214 F200
G1 X13.0556 Y6.1468 F200
G1 X13.0810 Y6.1468 F200
G1 X13.0556 Y6.1722 F200
G1 X13.0810 Y6.1722 F200
G1 X13.0556 Y6.1976 F200
G1 X13.0810 Y6.1976 F200
G1 X13.0556 Y6.2230 F200
G1 X13.0810 Y6.2230 F200
G1 X13.0556 Y6.2484 F200
G1 X13.0810 Y6.2484 F200
G1 X13.0556 Y6.2738 F200
G1 X13.0810 Y6.2738 F200
G1 X13.0556 Y6.2992 F200
G1 X13.0810 Y6.2992 F200
G1 X13.0556 Y6.3246 F200
G1 X13.0810 Y6.3246 F200
G1 X13.0556 Y6.3500 F200
G1 X13.0810 Y6.3500 F200
G1 X13.0556 Y6.3754 F200
G1 X13.0810 Y6.3754 F200
G1 X13.0556 Y6.4008 F200
G1 X13.0810 Y6.4008 F200
G1 X13.0556 Y6.4262 F200
G1 X13.0810 Y6.4262 F200
G1 X13.0556 Y6.4516 F200
G1 X13.0810 Y6.4516 F200
G1 X13.0556 Y6.4770 F200
G1 X13.0810 Y6.4770 F200
G1 X13.0556 Y6.5024 F200
G1 X13.0810 Y6.5024 F200
G1 X13.0556 Y6.5278 F200
G1 X13.0810 Y6.5278 F200
G1 X13.0556 Y6.5532 F200
G1 X13.0810 Y6.5532 F200
G1 X13.0556 Y6.5786 F200
G1 X13.0810 Y6.5786 F200
G1 X13.0556 Y6.6040 F200
G1 X13.0810 Y6.6040 F200
G1 X13.0556 Y6.6294 F200
G1 X13.0810 Y6.6294 F200
G1 X13.0556 Y6.6548 F200
G1 X13.0810 Y6.6548 F200
G1 X13.0556 Y6.6802 F200
G1 X13.0810 Y6.6802 F200
G1 X13.0556 Y6.7056 F200
G1 X13.0810 Y6.7056 F200
G1 X13.0556 Y6.7310 F200
G1 X13.0810 Y6.7310 F200
G1 X13.0556 Y6.7564 F200
G1 X13.0810 Y6.7564 F200
G1 X13.0556 Y6.7818 F200
G1 X13.0810 Y6.7818 F200
G1 X13.0556 Y6.8072 F200
G1 X13.0810 Y6.8072 F200
G1 X13.0556 Y6.8326 F200
G1 X13.0810 Y6.8326 F200
G1 X13.0556 Y6.8580 F200
G1 X13.0810 Y6.8580 F200
G1 X13.0556 Y6.8834 F200
G1 X13.0810 Y6.8834 F200
G1 X13.0556 Y6.9088 F200
G1 X13.0810 Y6.9088 F200
G1 X13.0556 Y6.9342 F200
G1 X13.0810 Y6.9342 F200
G1 X13.0556 Y6.9596 F200
G1 X13.0810 Y6.9596 F200
G1 X13.0556 Y6.9850 F200
G1 X13.0810 Y6.9850 F200
G1 X13.0556 Y7.0104 F200
G1 X13.0810 Y7.0104 F200
G1 X13.0556 Y7.0358 F200
G1 X13.0810 Y7.0358 F200
G1 X13.0556 Y7.0612 F200
G1 X13.0810 Y7.0612 F200
G1 X13.0556 Y7.0866 F200
G1 X13.0810 Y7.0866 F200
G1 X13.0556 Y7.1120 F200
G1 X13.0810 Y7.1120 F200
G1 X13.0556 Y7.1374 F200
G1 X13.0810 Y7.1374 F200
G1 X13.0556 Y7.1628 F200
G1 X13.0810 Y7.1628 F200
G1 X13.0556 Y7.1882 F200
G1 X13.0810 Y7.1882 F200
G1 X13.0556 Y7.2136 F200
G1 X13.0810 Y7.2136 F200
G1 X13.0556 Y7.2390 F200
G1 X13.0810 Y7.2390 F200
G1 X13.0556 Y7.2644 F200
G1 X13.0810 Y7.2644 F200
G1 X13.0556 Y7.2898 F200
G1 X13.0810 Y7.2898 F200
G1 X13.0556 Y7.3152 F200
G1 X13.0810 Y7.3152 F200
G1 X13.0556 Y7.3406 F200
G1 X13.0810 Y7.3406 F200
G1 X13.0556 Y7.3660 F200
G1 X13.0810 Y7.3660 F200
G1 X13.0556 Y7.3914 F200
G1 X13.0810 Y7.3914 F200
G1 X13.0556 Y7.4168 F200
G1 X13.0810 Y7.4168 F200
G1 X13.0556 Y7.4422 F200
G1 X13.0810 Y7.4422 F200
G1 X13.0556 Y7.4676 F200
G1 X13.0810 Y7.4676 F200
G1 X13.0556 Y7.4930 F200
G1 X13.0810 Y7.4930 F200
G1 X13.0302 Y7.5184 F200
G1 X13.0556 Y7.5184 F200
G1 X13.0810 Y7.5184 F200
G1 X13.0302 Y7.5438 F200
G1 X13.0556 Y7.5438 F200
G1 X13.0810 Y7.5438 F200
G1 X13.0048 Y7.5692 F200
G1 X13.0302 Y7.5692 F200
G1 X13.0556 Y7.5692 F200
G1 X12.9794 Y7.5946 F200
G1 X13.0048 Y7.5946 F200
G1 X13.0302 Y7.5946 F200
G1 X13.0556 Y7.5946 F200
G1 X12.9540 Y7.6200 F200
G1 X12.9794 Y7.6200 F200
G1 X13.0048 Y7.6200 F200
G1 X13.0302 Y7.6200 F200
G1 X12.9286 Y7.6454 F200
G1 X12.9540 Y7.6454 F200
G1 X12.9794 Y7.6454 F200
G1 X13.0048 Y7.6454 F200
G1 X12.9032 Y7.6708 F200
G1 X12.9286 Y7.6708 F200
G1 X12.9540 Y7.6708 F200
G1 X12.9794 Y7.6708 F200
G1 X12.8778 Y7.6962 F200
G1 X12.9032 Y7.6962 F200
G1 X12.9286 Y7.6962 F200
G1 X12.9540 Y7.6962 F200
G1 X12.8524 Y7.7216 F200
G1 X12.8778 Y7.7216 F200
G1 X12.9032 Y7.7216 F200
G1 X12.9286 Y7.7216 F200
G1 X12.8270 Y7.7470 F200
G1 X12.8524 Y7.7470 F200
G1 X12.8778 Y7.7470 F200
G1 X12.9032 Y7.7470 F200
G1 X12.8016 Y7.7724 F200
G1 X12.8270 Y7.7724 F200
G1 X12.8524 Y7.7724 F200
G1 X12.8778 Y7.7724 F200
G1 X12.7762 Y7.7978 F200
G1 X12.8016 Y7.7978 F200
G1 X12.8270 Y7.7978 F200
G1 X12.8524 Y7.7978 F200
G1 X12.7508 Y7.8232 F200
G1 X12.7762 Y7.8232 F200
G1 X12.8016 Y7.8232 F200
G1 X12.8270 Y7.8232 F200
G1 X12.7254 Y7.8486 F200
G1 X12.7508 Y7.8486 F200
G1 X12.7762 Y7.8486 F200
G1 X12.8016 Y7.8486 F200
G1 X12.7000 Y7.8740 F200
G1 X12.7254 Y7.8740 F200
G1 X12.7508 Y7.8740 F200
G1 X12.7762 Y7.8740 F200
G1 X12.6746 Y7.8994 F200
G1 X12.7000 Y7.8994 F200
G1 X12.7254 Y7.8994 F200
G1 X12.7508 Y7.8994 F200
G1 X12.6492 Y7.9248 F200
G1 X12.6746 Y7.9248 F200
G1 X12.7000 Y7.9248 F200
G1 X12.7254 Y7.9248 F200
G1 X12.6238 Y7.9502 F200
G1 X12.6492 Y7.9502 F200
G1 X12.6746 Y7.9502 F200
G1 X12.7000 Y7.9502 F200
G1 X12.5984 Y7.9756 F200
G1 X12.6238 Y7.9756 F200
G1 X12.6492 Y7.9756 F200
G1 X12.6746 Y7.9756 F200
G1 X12.5730 Y8.0010 F200
G1 X12.5984 Y8.0010 F200
G1 X12.6238 Y8.0010 F200
G1 X12.6492 Y8.0010 F200
G1 X12.5476 Y8.0264 F200
G1 X12.5730 Y8.0264 F200
G1 X12.5984 Y8.0264 F200
G1 X12.6238 Y8.0264 F200
G1 X12.5222 Y8.0518 F200
G1 X12.5476 Y8.0518 F200
G1 X12.5730 Y8.0518 F200
G1 X12.5984 Y8.0518 F200
G1 X12.4968 Y8.0772 F200
G1 X12.5222 Y8.0772 F200
G1 X12.5476 Y8.0772 F200
G1 X12.5730 Y8.0772 F200
G1 X12.4714 Y8.1026 F200
G1 X12.4968 Y8.1026 F200
G1 X12.5222 Y8.1026 F200
G1 X12.5476 Y8.1026 F200
G1 X12.4460 Y8.1280 F200
G1 X12.4714 Y8.1280 F200
G1 X12.4968 Y8.1280 F200
G1 X12.5222 Y8.1280 F200
G1 X12.4206 Y8.1534 F200
G1 X12.4460 Y8.1534 F200
G1 X12.4714 Y8.1534 F200
G1 X12.4968 Y8.1534 F200
G1 X12.3952 Y8.1788 F200
G1 X12.4206 Y8.1788 F200
G1 X12.4460 Y8.1788 F200
G1 X12.4714 Y8.1788 F200
G1 X12.3698 Y8.2042 F200
G1 X12.3952 Y8.2042 F200
G1 X12.4206 Y8.2042 F200
G1 X12.4460 Y8.2042 F200
G1 X12.3444 Y8.2296 F200
G1 X12.3698 Y8.2296 F200
G1 X12.3952 Y8.2296 F200
G1 X12.4206 Y8.2296 F200
G1 X12.3190 Y8.2550 F200
G1 X12.3444 Y8.2550 F200
G1 X12.3698 Y8.2550 F200
G1 X12.3952 Y8.2550 F200
G1 X12.2936 Y8.2804 F200
G1 X12.3190 Y8.2804 F200
G1 X12.3444 Y8.2804 F200
G1 X12.3698 Y8.2804 F200
G1 X12.2682 Y8.3058 F200
G1 X12.2936 Y8.3058 F200
G1 X12.3190 Y8.3058 F200
G1 X12.3444 Y8.3058 F200
G1 X12.2428 Y8.3312 F200
G1 X12.2682 Y8.3312 F200
G1 X12.2936 Y8.3312 F200
G1 X12.3190 Y8.3312 F200
G1 X12.2174 Y8.3566 F200
G1 X12.2428 Y8.3566 F200
G1 X12.2682 Y8.3566 F200
G1 X12.2936 Y8.3566 F200
G1 X12.1920 Y8.3820 F200
G1 X12.2174 Y8.3820 F200
G1 X12.2428 Y8.3820 F200
G1 X12.2682 Y8.3820 F200
G1 X12.1666 Y8.4074 F200
G1 X12.1920 Y8.4074 F200
G1 X12.2174 Y8.4074 F200
G1 X12.2428 Y8.4074 F200
G1 X12.1412 Y8.4328 F200
G1 X12.1666 Y8.4328 F200
G1 X12.1920 Y8.4328 F200
G1 X12.2174 Y8.4328 F200
G1 X12.1158 Y8.4582 F200
G1 X12.1412 Y8.4582 F200
G1 X12.1666 Y8.4582 F200
G1 X12.1920 Y8.4582 F200
G1 X12.0904 Y8.4836 F200
G1 X12.1158 Y8.4836 F200
G1 X12.1412 Y8.4836 F200
G1 X12.1666 Y8.4836 F200
G1 X12.0650 Y8.5090 F200
G1 X12.0904 Y8.5090 F200
G1 X12.1158 Y8.5090 F200
G1 X12.1412 Y8.5090 F200
G1 X12.0396 Y8.5344 F200
G1 X12.0650 Y8.5344 F200
G1 X12.0904 Y8.5344 F200
G1 X12.1158 Y8.5344 F200
G1 X12.0142 Y8.5598 F200
G1 X12.0396 Y8.5598 F200
G1 X12.0650 Y8.5598 F200
G1 X12.0904 Y8.5598 F200
G1 X11.9888 Y8.5852 F200
G1 X12.0142 Y8.5852 F200
G1 X12.0396 Y8.5852 F200
G1 X12.0650 Y8.5852 F200
G1 X11.9634 Y8.6106 F200
G1 X11.9888 Y8.6106 F200
G1 X12.0142 Y8.6106 F200
G1 X12.0396 Y8.6106 F200
G1 X11.9380 Y8.6360 F200
G1 X11.9634 Y8.6360 F200
G1 X11.9888 Y8.6360 F200
G1 X12.0142 Y8.6360 F200
G1 X11.9126 Y8.6614 F200
G1 X11.9380 Y8.6614 F200
G1 X11.9634 Y8.6614 F200
G1 X11.9888 Y8.6614 F200
G1 X11.8872 Y8.6868 F200
G1 X11.9126 Y8.6868 F200
G1 X11.9380 Y8.6868 F200
G1 X11.9634 Y8.6868 F200
G1 X11.8618 Y8.7122 F200
G1 X11.8872 Y8.7122 F200
G1 X11.9126 Y8.7122 F200
G1 X11.9380 Y8.7122 F200
G1 X11.8364 Y8.7376 F200
G1 X11.8618 Y8.7376 F200
G1 X11.8872 Y8.7376 F200
G1 X11.9126 Y8.7376 F200
G1 X11.8110 Y8.7630 F200
G1 X11.8364 Y8.7630 F200
G1 X11.8618 Y8.7630 F200
G1 X11.8872 Y8.7630 F200
G1 X11.7856 Y8.7884 F200
G1 X11.8110 Y8.7884 F200
G1 X11.8364 Y8.7884 F200
G1 X11.8618 Y8.7884 F200
G1 X11.7602 Y8.8138 F200
G1 X11.7856 Y8.8138 F200
G1 X11.8110 Y8.8138 F200
G1 X11.8364 Y8.8138 F200
G1 X11.7348 Y8.8392 F200
G1 X11.7602 Y8.8392 F200
G1 X11.7856 Y8.8392 F200
G1 X11.8110 Y8.8392 F200
G1 X11.7094 Y8.8646 F200
G1 X11.7348 Y8.8646 F200
G1 X11.7602 Y8.8646 F200
G1 X11.7856 Y8.8646 F200
G1 X11.6840 Y8.8900 F200
G1 X11.7094 Y8.8900 F200
G1 X11.7348 Y8.8900 F200
G1 X11.7602 Y8.8900 F200
G1 X11.6586 Y8.9154 F200
G1 X11.6840 Y8.9154 F200
G1 X11.7094 Y8.9154 F200
G1 X11.7348 Y8.9154 F200
G1 X11.6332 Y8.9408 F200
G1 X11.6586 Y8.9408 F200
G1 X11.6840 Y8.9408 F200
G1 X11.7094 Y8.9408 F200
G1 X11.6078 Y8.9662 F200
G1 X11.6332 Y8.9662 F200
G1 X11.6586 Y8.9662 F200
G1 X11.6840 Y8.9662 F200
G1 X11.5824 Y8.9916 F200
G1 X11.6078 Y8.9916 F200
G1 X11.6332 Y8.9916 F200
G1 X11.6586 Y8.9916 F200
G1 X11.5570 Y9.0170 F200
G1 X11.5824 Y9.0170 F200
G1 X11.6078 Y9.0170 F200
G1 X11.6332 Y9.0170 F200
G1 X11.5316 Y9.0424 F200
G1 X11.5570 Y9.0424 F200
G1 X11.5824 Y9.0424 F200
G1 X11.6078 Y9.0424 F200
G1 X11.5062 Y9.0678 F200
G1 X11.5316 Y9.0678 F200
G1 X11.5570 Y9.0678 F200
G1 X11.5824 Y9.0678 F200
G1 X11.4808 Y9.0932 F200
G1 X11.5062 Y9.0932 F200
G1 X11.5316 Y9.0932 F200
G1 X11.5570 Y9.0932 F200
G1 X11.4554 Y9.1186 F200
G1 X11.4808 Y9.1186 F200
G1 X11.5062 Y9.1186 F200
G1 X11.5316 Y9.1186 F200
G1 X11.4300 Y9.1440 F200
G1 X11.4554 Y9.1440 F200
G1 X11.4808 Y9.1440 F200
G1 X11.5062 Y9.1440 F200
G1 X11.4046 Y9.1694 F200
G1 X11.4300 Y9.1694 F200
G1 X11.4554 Y9.1694 F200
G1 X11.4808 Y9.1694 F200
G1 X11.3792 Y9.1948 F200
G1 X11.4046 Y9.1948 F200
G1 X11.4300 Y9.1948 F200
G1 X11.4554 Y9.1948 F200
G1 X11.3538 Y9.2202 F200
G1 X11.3792 Y9.2202 F200
G1 X11.4046 Y9.2202 F200
G1 X11.4300 Y9.2202 F200
G1 X11.3284 Y9.2456 F200
G1 X11.3538 Y9.2456 F200
G1 X11.3792 Y9.2456 F200
G1 X11.4046 Y9.2456 F200
G1 X11.3030 Y9.2710 F200
G1 X11.3284 Y9.2710 F200
G1 X11.3538 Y9.2710 F200
G1 X11.3792 Y9.2710 F200
G1 X11.2776 Y9.2964 F200
G1 X11.3030 Y9.2964 F200
G1 X11.3284 Y9.2964 F200
G1 X11.3538 Y9.2964 F200
G1 X11.2522 Y9.3218 F200
G1 X11.2776 Y9.3218 F200
G1 X11.3030 Y9.3218 F200
G1 X11.3284 Y9.3218 F200
G1 X11.2268 Y9.3472 F200
G1 X11.2522 Y9.3472 F200
G1 X11.2776 Y9.3472 F200
G1 X11.3030 Y9.3472 F200
G1 X11.2014 Y9.3726 F200
G1 X11.2268 Y9.3726 F200
G1 X11.2522 Y9.3726 F200
G1 X11.2776 Y9.3726 F200
G1 X11.1760 Y9.3980 F200
G1 X11.2014 Y9.3980 F200
G1 X11.2268 Y9.3980 F200
G1 X11.2522 Y9.3980 F200
G1 X11.1506 Y9.4234 F200
G1 X11.1760 Y9.4234 F200
G1 X11.2014 Y9.4234 F200
G1 X11.2268 Y9.4234 F200
G1 X11.1252 Y9.4488 F200
G1 X11.1506 Y9.4488 F200
G1 X11.1760 Y9.4488 F200
G1 X11.2014 Y9.4488 F200
G1 X11.0998 Y9.4742 F200
G1 X11.1252 Y9.4742 F200
G1 X11.1506 Y9.4742 F200
G1 X11.1760 Y9.4742 F200
G1 X11.0744 Y9.4996 F200
G1 X11.0998 Y9.4996 F200
G1 X11.1252 Y9.4996 F200
G1 X11.1506 Y9.4996 F200
G1 X11.0490 Y9.5250 F200
G1 X11.0744 Y9.5250 F200
G1 X11.0998 Y9.5250 F200
G1 X11.1252 Y9.5250 F200
G1 X11.0236 Y9.5504 F200
G1 X11.0490 Y9.5504 F200
G1 X11.0744 Y9.5504 F200
G1 X11.0998 Y9.5504 F200
G1 X10.9982 Y9.5758 F200
G1 X11.0236 Y9.5758 F200
G1 X11.0490 Y9.5758 F200
G1 X11.0744 Y9.5758 F200
G1 X10.9728 Y9.6012 F200
G1 X10.9982 Y9.6012 F200
G1 X11.0236 Y9.6012 F200
G1 X11.0490 Y9.6012 F200
G1 X10.9474 Y9.6266 F200
G1 X10.9728 Y9.6266 F200
G1 X10.9982 Y9.6266 F200
G1 X11.0236 Y9.6266 F200
G1 X10.9220 Y9.6520 F200
G1 X10.9474 Y9.6520 F200
G1 X10.9728 Y9.6520 F200
G1 X10.9982 Y9.6520 F200
G1 X10.8966 Y9.6774 F200
G1 X10.9220 Y9.6774 F200
G1 X10.9474 Y9.6774 F200
G1 X10.9728 Y9.6774 F200
G1 X10.8712 Y9.7028 F200
G1 X10.8966 Y9.7028 F200
G1 X10.9220 Y9.7028 F200
G1 X10.9474 Y9.7028 F200
G1 X10.8458 Y9.7282 F200
G1 X10.8712 Y9.7282 F200
G1 X10.8966 Y9.7282 F200
G1 X10.9220 Y9.7282 F200
G1 X10.8204 Y9.7536 F200
G1 X10.8458 Y9.7536 F200
G1 X10.8712 Y9.7536 F200
G1 X10.8966 Y9.7536 F200
G1 X13.2080 Y9.7536 F200
G1 X13.2334 Y9.7536 F200
G1 X18.3134 Y9.7536 F200
G1 X18.3388 Y9.7536 F200
G1 X10.7950 Y9.7790 F200
G1 X10.8204 Y9.7790 F200
G1 X10.8458 Y9.7790 F200
G1 X10.8712 Y9.7790 F200
G1 X13.1572 Y9.7790 F200
G1 X13.1826 Y9.7790 F200
G1 X13.2080 Y9.7790 F200
G1 X13.2334 Y9.7790 F200
G1 X18.2626 Y9.7790 F200
G1 X18.2880 Y9.7790 F200
G1 X18.3134 Y9.7790 F200
G1 X18.3388 Y9.7790 F200
G1 X10.7696 Y9.8044 F200
G1 X10.7950 Y9.8044 F200
G1 X10.8204 Y9.8044 F200
G1 X10.8458 Y9.8044 F200
G1 X13.1318 Y9.8044 F200
G1 X13.1572 Y9.8044 F200
G1 X13.1826 Y9.8044 F200
G1 X13.2080 Y9.8044 F200
G1 X13.2334 Y9.8044 F200
G1 X18.2372 Y9.8044 F200
G1 X18.2626 Y9.8044 F200
G1 X18.2880 Y9.8044 F200
G1 X18.3134 Y9.8044 F200
G1 X18.3388 Y9.8044 F200
G1 X10.7442 Y9.8298 F200
G1 X10.7696 Y9.8298 F200
G1 X10.7950 Y9.8298 F200
G1 X10.8204 Y9.8298 F200
G1 X13.1318 Y9.8298 F200
G1 X13.1572 Y9.8298 F200
G1 X13.1826 Y9.8298 F200
G1 X18.2372 Y9.8298 F200
G1 X18.2626 Y9.8298 F200
G1 X18.2880 Y9.8298 F200
G1 X10.7188 Y9.8552 F200
G1 X10.7442 Y9.8552 F200
G1 X10.7696 Y9.8552 F200
G1 X10.7950 Y9.8552 F200
G1 X13.1064 Y9.8552 F200
G1 X13.1318 Y9.8552 F200
G1 X13.1572 Y9.8552 F200
G1 X18.2118 Y9.8552 F200
G1 X18.2372 Y9.8552 F200
G1 X18.2626 Y9.8552 F200
G1 X0.6350 Y9.8806 F200
G1 X0.6604 Y9.8806 F200
G1 X3.1242 Y9.8806 F200
G1 X3.1496 Y9.8806 F200
G1 X5.6388 Y9.8806 F200
G1 X5.6642 Y9.8806 F200
G1 X7.6708 Y9.8806 F200
G1 X7.6962 Y9.8806 F200
G1 X10.6934 Y9.8806 F200
G1 X10.7188 Y9.8806 F200
G1 X10.7442 Y9.8806 F200
G1 X10.7696 Y9.8806 F200
G1 X13.1064 Y9.8806 F200
G1 X13.1318 Y9.8806 F200
G1 X13.1572 Y9.8806 F200
G1 X18.2118 Y9.8806 F200
G1 X18.2372 Y9.8806 F200
G1 X18.2626 Y9.8806 F200
G1 X0.5334 Y9.9060 F200
G1 X0.5588 Y9.9060 F200
G1 X0.6350 Y9.9060 F200
G1 X0.6604 Y9.9060 F200
G1 X3.0226 Y9.9060 F200
G1 X3.0480 Y9.9060 F200
G1 X3.1242 Y9.9060 F200
G1 X3.1496 Y9.9060 F200
G1 X5.5372 Y9.9060 F200
G1 X5.5626 Y9.9060 F200
G1 X5.6388 Y9.9060 F200
G1 X5.6642 Y9.9060 F200
G1 X7.6200 Y9.9060 F200
G1 X7.6454 Y9.9060 F200
G1 X7.6708 Y9.9060 F200
G1 X7.6962 Y9.9060 F200
G1 X10.6680 Y9.9060 F200
G1 X10.6934 Y9.9060 F200
G1 X10.7188 Y9.9060 F200
G1 X10.7442 Y9.9060 F200
G1 X13.1064 Y9.9060 F200
G1 X13.1318 Y9.9060 F200
G1 X18.2118 Y9.9060 F200
G1 X18.2372 Y9.9060 F200
G1 X0.4572 Y9.9314 F200
G1 X0.4826 Y9.9314 F200
G1 X0.5334 Y9.9314 F200
G1 X0.5588 Y9.9314 F200
G1 X0.6350 Y9.9314 F200
G1 X0.6604 Y9.9314 F200
G1 X2.9464 Y9.9314 F200
G1 X2.9718 Y9.9314 F200
G1 X3.0226 Y9.9314 F200
G1 X3.0480 Y9.9314 F200
G1 X3.1242 Y9.9314 F200
G1 X3.1496 Y9.9314 F200
G1 X5.4610 Y9.9314 F200
G1 X5.4864 Y9.9314 F200
G1 X5.5372 Y9.9314 F200
G1 X5.5626 Y9.9314 F200
G1 X5.6388 Y9.9314 F200
G1 X5.6642 Y9.9314 F200
G1 X7.5946 Y9.9314 F200
G1 X7.6200 Y9.9314 F200
G1 X7.6454 Y9.9314 F200
G1 X7.6708 Y9.9314 F200
G1 X7.6962 Y9.9314 F200
G1 X10.6426 Y9.9314 F200
G1 X10.6680 Y9.9314 F200
G1 X10.6934 Y9.9314 F200
G1 X10.7188 Y9.9314 F200
G1 X13.1064 Y9.9314 F200
G1 X13.1318 Y9.9314 F200
G1 X18.2118 Y9.9314 F200
G1 X18.2372 Y9.9314 F200
G1 X0.4064 Y9.9568 F200
G1 X0.4318 Y9.9568 F200
G1 X0.4572 Y9.9568 F200
G1 X0.4826 Y9.9568 F200
G1 X0.5334 Y9.9568 F200
G1 X0.5588 Y9.9568 F200
G1 X2.8956 Y9.9568 F200
G1 X2.9210 Y9.9568 F200
G1 X2.9464 Y9.9568 F200
G1 X2.9718 Y9.9568 F200
G1 X3.0226 Y9.9568 F200
G1 X3.0480 Y9.9568 F200
G1 X5.4102 Y9.9568 F200
G1 X5.4356 Y9.9568 F200
G1 X5.4610 Y9.9568 F200
G1 X5.4864 Y9.9568 F200
G1 X5.5372 Y9.9568 F200
G1 X5.5626 Y9.9568 F200
G1 X7.5692 Y9.9568 F200
G1 X7.5946 Y9.9568 F200
G1 X7.6200 Y9.9568 F200
G1 X7.6454 Y9.9568 F200
G1 X10.6172 Y9.9568 F200
G1 X10.6426 Y9.9568 F200
G1 X10.6680 Y9.9568 F200
G1 X10.6934 Y9.9568 F200
G1 X13.1064 Y9.9568 F200
G1 X13.1318 Y9.9568 F200
G1 X18.2118 Y9.9568 F200
G1 X18.2372 Y9.9568 F200
G1 X0.3556 Y9.9822 F200
G1 X0.3810 Y9.9822 F200
G1 X0.4064 Y9.9822 F200
G1 X0.4318 Y9.9822 F200
G1 X0.4572 Y9.9822 F200
G1 X0.4826 Y9.9822 F200
G1 X2.8448 Y9.9822 F200
G1 X2.8702 Y9.9822 F200
G1 X2.8956 Y9.9822 F200
G1 X2.9210 Y9.9822 F200
G1 X2.9464 Y9.9822 F200
G1 X2.9718 Y9.9822 F200
G1 X5.3594 Y9.9822 F200
G1 X5.3848 Y9.9822 F200
G1 X5.4102 Y9.9822 F200
G1 X5.4356 Y9.9822 F200
G1 X5.4610 Y9.9822 F200
G1 X5.4864 Y9.9822 F200
G1 X7.5438 Y9.9822 F200
G1 X7.5692 Y9.9822 F200
G1 X7.5946 Y9.9822 F200
G1 X7.6200 Y9.9822 F200
G1 X10.5918 Y9.9822 F200
G1 X10.6172 Y9.9822 F200
G1 X10.6426 Y9.9822 F200
G1 X10.6680 Y9.9822 F200
G1 X13.1064 Y9.9822 F200
G1 X13.1318 Y9.9822 F200
G1 X18.2118 Y9.9822 F200
G1 X18.2372 Y9.9822 F200
G1 X0.3302 Y10.0076 F200
G1 X0.3556 Y10.0076 F200
G1 X0.3810 Y10.0076 F200
G1 X0.4064 Y10.0076 F200
G1 X0.4318 Y10.0076 F200
G1 X2.8194 Y10.0076 F200
G1 X2.8448 Y10.0076 F200
G1 X2.8702 Y10.0076 F200
G1 X2.8956 Y10.0076 F200
G1 X2.9210 Y10.0076 F200
G1 X5.3340 Y10.0076 F200
G1 X5.3594 Y10.0076 F200
G1 X5.3848 Y10.0076 F200
G1 X5.4102 Y10.0076 F200
G1 X5.4356 Y10.0076 F200
G1 X7.5184 Y10.0076 F200
G1 X7.5438 Y10.0076 F200
G1 X7.5692 Y10.0076 F200
G1 X7.5946 Y10.0076 F200
G1 X10.5664 Y10.0076 F200
G1 X10.5918 Y10.0076 F200
G1 X10.6172 Y10.0076 F200
G1 X10.6426 Y10.0076 F200
G1 X13.1064 Y10.0076 F200
G1 X13.1318 Y10.0076 F200
G1 X18.2118 Y10.0076 F200
G1 X18.2372 Y10.0076 F200
G1 X0.2794 Y10.0330 F200
G1 X0.3048 Y10.0330 F200
G1 X0.3302 Y10.0330 F200
G1 X0.3556 Y10.0330 F200
G1 X0.3810 Y10.0330 F200
G1 X2.7686 Y10.0330 F200
G1 X2.7940 Y10.0330 F200
G1 X2.8194 Y10.0330 F200
G1 X2.8448 Y10.0330 F200
G1 X2.8702 Y10.0330 F200
G1 X5.2832 Y10.0330 F200
G1 X5.3086 Y10.0330 F200
G1 X5.3340 Y10.0330 F200
G1 X5.3594 Y10.0330 F200
G1 X5.3848 Y10.0330 F200
G1 X7.5184 Y10.0330 F200
G1 X7.5438 Y10.0330 F200
G1 X7.5692 Y10.0330 F200
G1 X10.5410 Y10.0330 F200
G1 X10.5664 Y10.0330 F200
G1 X10.5918 Y10.0330 F200
G1 X10.6172 Y10.0330 F200
G1 X13.1064 Y10.0330 F200
G1 X13.1318 Y10.0330 F200
G1 X18.2118 Y10.0330 F200
G1 X18.2372 Y10.0330 F200
G1 X0.2540 Y10.0584 F200
G1 X0.2794 Y10.0584 F200
G1 X0.3048 Y10.0584 F200
G1 X0.3302 Y10.0584 F200
G1 X0.3556 Y10.0584 F200
G1 X2.7432 Y10.0584 F200
G1 X2.7686 Y10.0584 F200
G1 X2.7940 Y10.0584 F200
G1 X2.8194 Y10.0584 F200
G1 X2.8448 Y10.0584 F200
G1 X5.2578 Y10.0584 F200
G1 X5.2832 Y10.0584 F200
G1 X5.3086 Y10.0584 F200
G1 X5.3340 Y10.0584 F200
G1 X5.3594 Y10.0584 F200
G1 X7.4930 Y10.0584 F200
G1 X7.5184 Y10.0584 F200
G1 X7.5438 Y10.0584 F200
G1 X10.5156 Y10.0584 F200
G1 X10.5410 Y10.0584 F200
G1 X10.5664 Y10.0584 F200
G1 X10.5918 Y10.0584 F200
G1 X13.1064 Y10.0584 F200
G1 X13.1318 Y10.0584 F200
G1 X18.2118 Y10.0584 F200
G1 X18.2372 Y10.0584 F200
G1 X0.2286 Y10.0838 F200
G1 X0.2540 Y10.0838 F200
G1 X0.2794 Y10.0838 F200
G1 X0.3048 Y10.0838 F200
G1 X2.7178 Y10.0838 F200
G1 X2.7432 Y10.0838 F200
G1 X2.7686 Y10.0838 F200
G1 X2.7940 Y10.0838 F200
G1 X5.2324 Y10.0838 F200
G1 X5.2578 Y10.0838 F200
G1 X5.2832 Y10.0838 F200
G1 X5.3086 Y10.0838 F200
G1 X7.4930 Y10.0838 F200
G1 X7.5184 Y10.0838 F200
G1 X7.5438 Y10.0838 F200
G1 X10.4902 Y10.0838 F200
G1 X10.5156 Y10.0838 F200
G1 X10.5410 Y10.0838 F200
G1 X10.5664 Y10.0838 F200
G1 X13.1064 Y10.0838 F200
G1 X13.1318 Y10.0838 F200
G1 X18.2118 Y10.0838 F200
G1 X18.2372 Y10.0838 F200
G1 X0.2032 Y10.1092 F200
G1 X0.2286 Y10.1092 F200
G1 X0.2540 Y10.1092 F200
G1 X0.2794 Y10.1092 F200
G1 X2.6924 Y10.1092 F200
G1 X2.7178 Y10.1092 F200
G1 X2.7432 Y10.1092 F200
G1 X2.7686 Y10.1092 F200
G1 X5.2070 Y10.1092 F200
G1 X5.2324 Y10.1092 F200
G1 X5.2578 Y10.1092 F200
G1 X5.2832 Y10.1092 F200
G1 X7.4930 Y10.1092 F200
G1 X7.5184 Y10.1092 F200
G1 X10.4648 Y10.1092 F200
G1 X10.4902 Y10.1092 F200
G1 X10.5156 Y10.1092 F200
G1 X10.5410 Y10.1092 F200
G1 X13.1064 Y10.1092 F200
G1 X13.1318 Y10.1092 F200
G1 X18.2118 Y10.1092 F200
G1 X18.2372 Y10.1092 F200
G1 X0.1778 Y10.1346 F200
G1 X0.2032 Y10.1346 F200
G1 X0.2286 Y10.1346 F200
G1 X0.2540 Y10.1346 F200
G1 X2.6670 Y10.1346 F200
G1 X2.6924 Y10.1346 F200
G1 X2.7178 Y10.1346 F200
G1 X2.7432 Y10.1346 F200
G1 X5.1816 Y10.1346 F200
G1 X5.2070 Y10.1346 F200
G1 X5.2324 Y10.1346 F200
G1 X5.2578 Y10.1346 F200
G1 X7.4930 Y10.1346 F200
G1 X7.5184 Y10.1346 F200
G1 X10.4394 Y10.1346 F200
G1 X10.4648 Y10.1346 F200
G1 X10.4902 Y10.1346 F200
G1 X10.5156 Y10.1346 F200
G1 X13.1064 Y10.1346 F200
G1 X13.1318 Y10.1346 F200
G1 X18.2118 Y10.1346 F200
G1 X18.2372 Y10.1346 F200
G1 X0.1524 Y10.1600 F200
G1 X0.1778 Y10.1600 F200
G1 X0.2032 Y10.1600 F200
G1 X0.2286 Y10.1600 F200
G1 X2.6416 Y10.1600 F200
G1 X2.6670 Y10.1600 F200
G1 X2.6924 Y10.1600 F200
G1 X2.7178 Y10.1600 F200
G1 X5.1562 Y10.1600 F200
G1 X5.1816 Y10.1600 F200
G1 X5.2070 Y10.1600 F200
G1 X5.2324 Y10.1600 F200
G1 X7.4930 Y10.1600 F200
G1 X7.5184 Y10.1600 F200
G1 X10.4140 Y10.1600 F200
G1 X10.4394 Y10.1600 F200
G1 X10.4648 Y10.1600 F200
G1 X10.4902 Y10.1600 F200
G1 X13.1064 Y10.1600 F200
G1 X13.1318 Y10.1600 F200
G1 X18.2118 Y10.1600 F200
G1 X18.2372 Y10.1600 F200
G1 X0.1270 Y10.1854 F200
G1 X0.1524 Y10.1854 F200
G1 X0.1778 Y10.1854 F200
G1 X0.2032 Y10.1854 F200
G1 X2.6162 Y10.1854 F200
G1 X2.6416 Y10.1854 F200
G1 X2.6670 Y10.1854 F200
G1 X2.6924 Y10.1854 F200
G1 X5.1308 Y10.1854 F200
G1 X5.1562 Y10.1854 F200
G1 X5.1816 Y10.1854 F200
G1 X5.2070 Y10.1854 F200
G1 X7.4930 Y10.1854 F200
G1 X7.5184 Y10.1854 F200
G1 X10.3886 Y10.1854 F200
G1 X10.4140 Y10.1854 F200
G1 X10.4394 Y10.1854 F200
G1 X10.4648 Y10.1854 F200
G1 X13.1064 Y10.1854 F200
G1 X13.1318 Y10.1854 F200
G1 X18.2118 Y10.1854 F200
G1 X18.2372 Y10.1854 F200
G1 X0.1270 Y10.2108 F200
G1 X0.1524 Y10.2108 F200
G1 X0.1778 Y10.2108 F200
G1 X2.6162 Y10.2108 F200
G1 X2.6416 Y10.2108 F200
G1 X2.6670 Y10.2108 F200
G1 X5.1308 Y10.2108 F200
G1 X5.1562 Y10.2108 F200
G1 X5.1816 Y10.2108 F200
G1 X7.4930 Y10.2108 F200
G1 X7.5184 Y10.2108 F200
G1 X10.3632 Y10.2108 F200
G1 X10.3886 Y10.2108 F200
G1 X10.4140 Y10.2108 F200
G1 X10.4394 Y10.2108 F200
G1 X13.1064 Y10.2108 F200
G1 X13.1318 Y10.2108 F200
G1 X18.2118 Y10.2108 F200
G1 X18.2372 Y10.2108 F200
G1 X0.1016 Y10.2362 F200
G1 X0.1270 Y10.2362 F200
G1 X0.1524 Y10.2362 F200
G1 X2.5908 Y10.2362 F200
G1 X2.6162 Y10.2362 F200
G1 X2.6416 Y10.2362 F200
G1 X5.1054 Y10.2362 F200
G1 X5.1308 Y10.2362 F200
G1 X5.1562 Y10.2362 F200
G1 X7.4930 Y10.2362 F200
G1 X7.5184 Y10.2362 F200
G1 X10.3378 Y10.2362 F200
G1 X10.3632 Y10.2362 F200
G1 X10.3886 Y10.2362 F200
G1 X10.4140 Y10.2362 F200
G1 X13.1064 Y10.2362 F200
G1 X13.1318 Y10.2362 F200
G1 X13.1572 Y10.2362 F200
G1 X18.2118 Y10.2362 F200
G1 X18.2372 Y10.2362 F200
G1 X18.2626 Y10.2362 F200
G1 X0.0762 Y10.2616 F200
G1 X0.1016 Y10.2616 F200
G1 X0.1270 Y10.2616 F200
G1 X0.1524 Y10.2616 F200
G1 X2.5654 Y10.2616 F200
G1 X2.5908 Y10.2616 F200
G1 X2.6162 Y10.2616 F200
G1 X2.6416 Y10.2616 F200
G1 X5.0800 Y10.2616 F200
G1 X5.1054 Y10.2616 F200
G1 X5.1308 Y10.2616 F200
G1 X5.1562 Y10.2616 F200
G1 X7.4930 Y10.2616 F200
G1 X7.5184 Y10.2616 F200
G1 X10.3124 Y10.2616 F200
G1 X10.3378 Y10.2616 F200
G1 X10.3632 Y10.2616 F200
G1 X10.3886 Y10.2616 F200
G1 X13.1064 Y10.2616 F200
G1 X13.1318 Y10.2616 F200
G1 X13.1572 Y10.2616 F200
G1 X18.2118 Y10.2616 F200
G1 X18.2372 Y10.2616 F200
G1 X18.2626 Y10.2616 F200
G1 X0.0762 Y10.2870 F200
G1 X0.1016 Y10.2870 F200
G1 X0.1270 Y10.2870 F200
G1 X2.5654 Y10.2870 F200
G1 X2.5908 Y10.2870 F200
G1 X2.6162 Y10.2870 F200
G1 X5.0800 Y10.2870 F200
G1 X5.1054 Y10.2870 F200
G1 X5.1308 Y10.2870 F200
G1 X7.4930 Y10.2870 F200
G1 X7.5184 Y10.2870 F200
G1 X10.2870 Y10.2870 F200
G1 X10.3124 Y10.2870 F200
G1 X10.3378 Y10.2870 F200
G1 X10.3632 Y10.2870 F200
G1 X13.1318 Y10.2870 F200
G1 X13.1572 Y10.2870 F200
G1 X13.1826 Y10.2870 F200
G1 X18.2372 Y10.2870 F200
G1 X18.2626 Y10.2870 F200
G1 X18.2880 Y10.2870 F200
G1 X0.0508 Y10.3124 F200
G1 X0.0762 Y10.3124 F200
G1 X0.1016 Y10.3124 F200
G1 X2.5400 Y10.3124 F200
G1 X2.5654 Y10.3124 F200
G1 X2.5908 Y10.3124 F200
G1 X5.0546 Y10.3124 F200
G1 X5.0800 Y10.3124 F200
G1 X5.1054 Y10.3124 F200
G1 X7.4930 Y10.3124 F200
G1 X7.5184 Y10.3124 F200
G1 X10.2616 Y10.3124 F200
G1 X10.2870 Y10.3124 F200
G1 X10.3124 Y10.3124 F200
G1 X10.3378 Y10.3124 F200
G1 X13.1318 Y10.3124 F200
G1 X13.1572 Y10.3124 F200
G1 X13.1826 Y10.3124 F200
G1 X13.2080 Y10.3124 F200
G1 X13.2334 Y10.3124 F200
G1 X18.2372 Y10.3124 F200
G1 X18.2626 Y10.3124 F200
G1 X18.2880 Y10.3124 F200
G1 X18.3134 Y10.3124 F200
G1 X18.3388 Y10.3124 F200
G1 X0.0508 Y10.3378 F200
G1 X0.0762 Y10.3378 F200
G1 X0.1016 Y10.3378 F200
G1 X2.5400 Y10.3378 F200
G1 X2.5654 Y10.3378 F200
G1 X2.5908 Y10.3378 F200
G1 X5.0546 Y10.3378 F200
G1 X5.0800 Y10.3378 F200
G1 X5.1054 Y10.3378 F200
G1 X7.4930 Y10.3378 F200
G1 X7.5184 Y10.3378 F200
G1 X10.2362 Y10.3378 F200
G1 X10.2616 Y10.3378 F200
G1 X10.2870 Y10.3378 F200
G1 X10.3124 Y10.3378 F200
G1 X13.1572 Y10.3378 F200
G1 X13.1826 Y10.3378 F200
G1 X13.2080 Y10.3378 F200
G1 X13.2334 Y10.3378 F200
G1 X18.2626 Y10.3378 F200
G1 X18.2880 Y10.3378 F200
G1 X18.3134 Y10.3378 F200
G1 X18.3388 Y10.3378 F200
G1 X0.0254 Y10.3632 F200
G1 X0.0508 Y10.3632 F200
G1 X0.0762 Y10.3632 F200
G1 X2.5146 Y10.3632 F200
G1 X2.5400 Y10.3632 F200
G1 X2.5654 Y10.3632 F200
G1 X5.0292 Y10.3632 F200
G1 X5.0546 Y10.3632 F200
G1 X5.0800 Y10.3632 F200
G1 X7.4930 Y10.3632 F200
G1 X7.5184 Y10.3632 F200
G1 X10.2108 Y10.3632 F200
G1 X10.2362 Y10.3632 F200
G1 X10.2616 Y10.3632 F200
G1 X10.2870 Y10.3632 F200
G1 X13.2080 Y10.3632 F200
G1 X13.2334 Y10.3632 F200
G1 X18.3134 Y10.3632 F200
G1 X18.3388 Y10.3632 F200
G1 X0.0254 Y10.3886 F200
G1 X0.0508 Y10.3886 F200
G1 X0.0762 Y10.3886 F200
G1 X2.5146 Y10.3886 F200
G1 X2.5400 Y10.3886 F200
G1 X2.5654 Y10.3886 F200
G1 X5.0292 Y10.3886 F200
G1 X5.0546 Y10.3886 F200
G1 X5.0800 Y10.3886 F200
G1 X7.4930 Y10.3886 F200
G1 X7.5184 Y10.3886 F200
G1 X10.1854 Y10.3886 F200
G1 X10.2108 Y10.3886 F200
G1 X10.2362 Y10.3886 F200
G1 X10.2616 Y10.3886 F200
G1 X0.0254 Y10.4140 F200
G1 X0.0508 Y10.4140 F200
G1 X2.5146 Y10.4140 F200
G1 X2.5400 Y10.4140 F200
G1 X5.0292 Y10.4140 F200
G1 X5.0546 Y10.4140 F200
G1 X7.4930 Y10.4140 F200
G1 X7.5184 Y10.4140 F200
G1 X10.1600 Y10.4140 F200
G1 X10.1854 Y10.4140 F200
G1 X10.2108 Y10.4140 F200
G1 X10.2362 Y10.4140 F200
G1 X0.0000 Y10.4394 F200
G1 X0.0254 Y10.4394 F200
G1 X0.0508 Y10.4394 F200
G1 X2.4892 Y10.4394 F200
G1 X2.5146 Y10.4394 F200
G1 X2.5400 Y10.4394 F200
G1 X5.0038 Y10.4394 F200
G1 X5.0292 Y10.4394 F200
G1 X5.0546 Y10.4394 F200
G1 X7.4930 Y10.4394 F200
G1 X7.5184 Y10.4394 F200
G1 X10.1346 Y10.4394 F200
G1 X10.1600 Y10.4394 F200
G1 X10.1854 Y10.4394 F200
G1 X10.2108 Y10.4394 F200
G1 X0.0000 Y10.4648 F200
G1 X0.0254 Y10.4648 F200
G1 X0.0508 Y10.4648 F200
G1 X2.4892 Y10.4648 F200
G1 X2.5146 Y10.4648 F200
G1 X2.5400 Y10.4648 F200
G1 X5.0038 Y10.4648 F200
G1 X5.0292 Y10.4648 F200
G1 X5.0546 Y10.4648 F200
G1 X7.4930 Y10.4648 F200
G1 X7.5184 Y10.4648 F200
G1 X10.1092 Y10.4648 F200
G1 X10.1346 Y10.4648 F200
G1 X10.1600 Y10.4648 F200
G1 X10.1854 Y10.4648 F200
G1 X0.0000 Y10.4902 F200
G1 X0.0254 Y10.4902 F200
G1 X2.4892 Y10.4902 F200
G1 X2.5146 Y10.4902 F200
G1 X5.0038 Y10.4902 F200
G1 X5.0292 Y10.4902 F200
G1 X7.4930 Y10.4902 F200
G1 X7.5184 Y10.4902 F200
G1 X10.0838 Y10.4902 F200
G1 X10.1092 Y10.4902 F200
G1 X10.1346 Y10.4902 F200
G1 X10.1600 Y10.4902 F200
G1 X0.0000 Y10.5156 F200
G1 X0.0254 Y10.5156 F200
G1 X2.4892 Y10.5156 F200
G1 X2.5146 Y10.5156 F200
G1 X5.0038 Y10.5156 F200
G1 X5.0292 Y10.5156 F200
G1 X7.4930 Y10.5156 F200
G1 X7.5184 Y10.5156 F200
G1 X10.0584 Y10.5156 F200
G1 X10.0838 Y10.5156 F200
G1 X10.1092 Y10.5156 F200
G1 X10.1346 Y10.5156 F200
G1 X0.0000 Y10.5410 F200
G1 X0.0254 Y10.5410 F200
G1 X2.4638 Y10.5410 F200
G1 X2.4892 Y10.5410 F200
G1 X2.5146 Y10.5410 F200
G1 X4.9784 Y10.5410 F200
G1 X5.0038 Y10.5410 F200
G1 X5.0292 Y10.5410 F200
G1 X7.4930 Y10.5410 F200
G1 X7.5184 Y10.5410 F200
G1 X10.0330 Y10.5410 F200
G1 X10.0584 Y10.5410 F200
G1 X10.0838 Y10.5410 F200
G1 X10.1092 Y10.5410 F200
G1 X0.0000 Y10.5664 F200
G1 X0.0254 Y10.5664 F200
G1 X2.4638 Y10.5664 F200
G1 X2.4892 Y10.5664 F200
G1 X2.5146 Y10.5664 F200
G1 X4.9784 Y10.5664 F200
G1 X5.0038 Y10.5664 F200
G1 X5.0292 Y10.5664 F200
G1 X7.4930 Y10.5664 F200
G1 X7.5184 Y10.5664 F200
G1 X10.0330 Y10.5664 F200
G1 X10.0584 Y10.5664 F200
G1 X10.0838 Y10.5664 F200
G1 X2.4638 Y10.5918 F200
G1 X2.4892 Y10.5918 F200
G1 X4.9784 Y10.5918 F200
G1 X5.0038 Y10.5918 F200
G1 X7.4930 Y10.5918 F200
G1 X7.5184 Y10.5918 F200
G1 X10.0330 Y10.5918 F200
G1 X10.0584 Y10.5918 F200
G1 X2.4638 Y10.6172 F200
G1 X2.4892 Y10.6172 F200
G1 X4.9784 Y10.6172 F200
G1 X5.0038 Y10.6172 F200
G1 X7.4930 Y10.6172 F200
G1 X7.5184 Y10.6172 F200
G1 X2.4638 Y10.6426 F200
G1 X2.4892 Y10.6426 F200
G1 X4.9784 Y10.6426 F200
G1 X5.0038 Y10.6426 F200
G1 X7.4930 Y10.6426 F200
G1 X7.5184 Y10.6426 F200
G1 X2.4638 Y10.6680 F200
G1 X2.4892 Y10.6680 F200
G1 X4.9784 Y10.6680 F200
G1 X5.0038 Y10.6680 F200
G1 X7.4930 Y10.6680 F200
G1 X7.5184 Y10.6680 F200
G1 X2.4638 Y10.6934 F200
G1 X2.4892 Y10.6934 F200
G1 X4.9784 Y10.6934 F200
G1 X5.0038 Y10.6934 F200
G1 X7.4930 Y10.6934 F200
G1 X7.5184 Y10.6934 F200
G1 X2.4638 Y10.7188 F200
G1 X2.4892 Y10.7188 F200
G1 X4.9784 Y10.7188 F200
G1 X5.0038 Y10.7188 F200
G1 X7.4930 Y10.7188 F200
G1 X7.5184 Y10.7188 F200
G1 X2.4638 Y10.7442 F200
G1 X2.4892 Y10.7442 F200
G1 X4.9784 Y10.7442 F200
G1 X5.0038 Y10.7442 F200
G1 X7.4930 Y10.7442 F200
G1 X7.5184 Y10.7442 F200
G1 X10.0076 Y10.7442 F200
G1 X10.0330 Y10.7442 F200
G1 X2.4638 Y10.7696 F200
G1 X2.4892 Y10.7696 F200
G1 X4.9784 Y10.7696 F200
G1 X5.0038 Y10.7696 F200
G1 X7.4930 Y10.7696 F200
G1 X7.5184 Y10.7696 F200
G1 X10.0076 Y10.7696 F200
G1 X10.0330 Y10.7696 F200
G1 X0.0000 Y10.7950 F200
G1 X0.0254 Y10.7950 F200
G1 X2.4638 Y10.7950 F200
G1 X2.4892 Y10.7950 F200
G1 X2.5146 Y10.7950 F200
G1 X4.9784 Y10.7950 F200
G1 X5.0038 Y10.7950 F200
G1 X5.0292 Y10.7950 F200
G1 X7.4930 Y10.7950 F200
G1 X7.5184 Y10.7950 F200
G1 X10.0076 Y10.7950 F200
G1 X10.0330 Y10.7950 F200
G1 X0.0000 Y10.8204 F200
G1 X0.0254 Y10.8204 F200
G1 X2.4638 Y10.8204 F200
G1 X2.4892 Y10.8204 F200
G1 X2.5146 Y10.8204 F200
G1 X4.9784 Y10.8204 F200
G1 X5.0038 Y10.8204 F200
G1 X5.0292 Y10.8204 F200
G1 X7.4930 Y10.8204 F200
G1 X7.5184 Y10.8204 F200
G1 X0.0000 Y10.8458 F200
G1 X0.0254 Y10.8458 F200
G1 X2.4892 Y10.8458 F200
G1 X2.5146 Y10.8458 F200
G1 X5.0038 Y10.8458 F200
G1 X5.0292 Y10.8458 F200
G1 X7.4930 Y10.8458 F200
G1 X7.5184 Y10.8458 F200
G1 X0.0000 Y10.8712 F200
G1 X0.0254 Y10.8712 F200
G1 X2.4892 Y10.8712 F200
G1 X2.5146 Y10.8712 F200
G1 X5.0038 Y10.8712 F200
G1 X5.0292 Y10.8712 F200
G1 X7.4930 Y10.8712 F200
G1 X7.5184 Y10.8712 F200
G1 X0.0000 Y10.8966 F200
G1 X0.0254 Y10.8966 F200
G1 X0.0508 Y10.8966 F200
G1 X2.4892 Y10.8966 F200
G1 X2.5146 Y10.8966 F200
G1 X2.5400 Y10.8966 F200
G1 X5.0038 Y10.8966 F200
G1 X5.0292 Y10.8966 F200
G1 X5.0546 Y10.8966 F200
G1 X7.4930 Y10.8966 F200
G1 X7.5184 Y10.8966 F200
G1 X0.0000 Y10.9220 F200
G1 X0.0254 Y10.9220 F200
G1 X0.0508 Y10.9220 F200
G1 X2.4892 Y10.9220 F200
G1 X2.5146 Y10.9220 F200
G1 X2.5400 Y10.9220 F200
G1 X5.0038 Y10.9220 F200
G1 X5.0292 Y10.9220 F200
G1 X5.0546 Y10.9220 F200
G1 X7.4930 Y10.9220 F200
G1 X7.5184 Y10.9220 F200
G1 X0.0254 Y10.9474 F200
G1 X0.0508 Y10.9474 F200
G1 X2.5146 Y10.9474 F200
G1 X2.5400 Y10.9474 F200
G1 X5.0292 Y10.9474 F200
G1 X5.0546 Y10.9474 F200
G1 X7.4930 Y10.9474 F200
G1 X7.5184 Y10.9474 F200
G1 X0.0254 Y10.9728 F200
G1 X0.0508 Y10.9728 F200
G1 X0.0762 Y10.9728 F200
G1 X2.5146 Y10.9728 F200
G1 X2.5400 Y10.9728 F200
G1 X2.5654 Y10.9728 F200
G1 X5.0292 Y10.9728 F200
G1 X5.0546 Y10.9728 F200
G1 X5.0800 Y10.9728 F200
G1 X7.4930 Y10.9728 F200
G1 X7.5184 Y10.9728 F200
G1 X0.0254 Y10.9982 F200
G1 X0.0508 Y10.9982 F200
G1 X0.0762 Y10.9982 F200
G1 X2.5146 Y10.9982 F200
G1 X2.5400 Y10.9982 F200
G1 X2.5654 Y10.9982 F200
G1 X5.0292 Y10.9982 F200
G1 X5.0546 Y10.9982 F200
G1 X5.0800 Y10.9982 F200
G1 X7.4930 Y10.9982 F200
G1 X7.5184 Y10.9982 F200
G1 X0.0508 Y11.0236 F200
G1 X0.0762 Y11.0236 F200
G1 X0.1016 Y11.0236 F200
G1 X2.5400 Y11.0236 F200
G1 X2.5654 Y11.0236 F200
G1 X2.5908 Y11.0236 F200
G1 X5.0546 Y11.0236 F200
G1 X5.0800 Y11.0236 F200
G1 X5.1054 Y11.0236 F200
G1 X7.4930 Y11.0236 F200
G1 X7.5184 Y11.0236 F200
G1 X13.2080 Y11.0236 F200
G1 X13.2334 Y11.0236 F200
G1 X18.3134 Y11.0236 F200
G1 X18.3388 Y11.0236 F200
G1 X0.0508 Y11.0490 F200
G1 X0.0762 Y11.0490 F200
G1 X0.1016 Y11.0490 F200
G1 X2.5400 Y11.0490 F200
G1 X2.5654 Y11.0490 F200
G1 X2.5908 Y11.0490 F200
G1 X5.0546 Y11.0490 F200
G1 X5.0800 Y11.0490 F200
G1 X5.1054 Y11.0490 F200
G1 X7.4930 Y11.0490 F200
G1 X7.5184 Y11.0490 F200
G1 X13.1572 Y11.0490 F200
G1 X13.1826 Y11.0490 F200
G1 X13.2080 Y11.0490 F200
G1 X13.2334 Y11.0490 F200
G1 X18.2626 Y11.0490 F200
G1 X18.2880 Y11.0490 F200
G1 X18.3134 Y11.0490 F200
G1 X18.3388 Y11.0490 F200
G1 X0.0762 Y11.0744 F200
G1 X0.1016 Y11.0744 F200
G1 X0.1270 Y11.0744 F200
G1 X2.5654 Y11.0744 F200
G1 X2.5908 Y11.0744 F200
G1 X2.6162 Y11.0744 F200
G1 X5.0800 Y11.0744 F200
G1 X5.1054 Y11.0744 F200
G1 X5.1308 Y11.0744 F200
G1 X7.4930 Y11.0744 F200
G1 X7.5184 Y11.0744 F200
G1 X13.1318 Y11.0744 F200
G1 X13.1572 Y11.0744 F200
G1 X13.1826 Y11.0744 F200
G1 X13.2080 Y11.0744 F200
G1 X13.2334 Y11.0744 F200
G1 X18.2372 Y11.0744 F200
G1 X18.2626 Y11.0744 F200
G1 X18.2880 Y11.0744 F200
G1 X18.3134 Y11.0744 F200
G1 X18.3388 Y11.0744 F200
G1 X0.0762 Y11.0998 F200
G1 X0.1016 Y11.0998 F200
G1 X0.1270 Y11.0998 F200
G1 X0.1524 Y11.0998 F200
G1 X2.5654 Y11.0998 F200
G1 X2.5908 Y11.0998 F200
G1 X2.6162 Y11.0998 F200
G1 X2.6416 Y11.0998 F200
G1 X5.0800 Y11.0998 F200
G1 X5.1054 Y11.0998 F200
G1 X5.1308 Y11.0998 F200
G1 X5.1562 Y11.0998 F200
G1 X7.4930 Y11.0998 F200
G1 X7.5184 Y11.0998 F200
G1 X13.1318 Y11.0998 F200
G1 X13.1572 Y11.0998 F200
G1 X13.1826 Y11.0998 F200
G1 X18.2372 Y11.0998 F200
G1 X18.2626 Y11.0998 F200
G1 X18.2880 Y11.0998 F200
G1 X0.1016 Y11.1252 F200
G1 X0.1270 Y11.1252 F200
G1 X0.1524 Y11.1252 F200
G1 X2.5908 Y11.1252 F200
G1 X2.6162 Y11.1252 F200
G1 X2.6416 Y11.1252 F200
G1 X5.1054 Y11.1252 F200
G1 X5.1308 Y11.1252 F200
G1 X5.1562 Y11.1252 F200
G1 X7.4930 Y11.1252 F200
G1 X7.5184 Y11.1252 F200
G1 X13.1064 Y11.1252 F200
G1 X13.1318 Y11.1252 F200
G1 X13.1572 Y11.1252 F200
G1 X18.2118 Y11.1252 F200
G1 X18.2372 Y11.1252 F200
G1 X18.2626 Y11.1252 F200
G1 X0.1270 Y11.1506 F200
G1 X0.1524 Y11.1506 F200
G1 X0.1778 Y11.1506 F200
G1 X2.6162 Y11.1506 F200
G1 X2.6416 Y11.1506 F200
G1 X2.6670 Y11.1506 F200
G1 X5.1308 Y11.1506 F200
G1 X5.1562 Y11.1506 F200
G1 X5.1816 Y11.1506 F200
G1 X7.4930 Y11.1506 F200
G1 X7.5184 Y11.1506 F200
G1 X13.1064 Y11.1506 F200
G1 X13.1318 Y11.1506 F200
G1 X13.1572 Y11.1506 F200
G1 X18.2118 Y11.1506 F200
G1 X18.2372 Y11.1506 F200
G1 X18.2626 Y11.1506 F200
G1 X0.1270 Y11.1760 F200
G1 X0.1524 Y11.1760 F200
G1 X0.1778 Y11.1760 F200
G1 X0.2032 Y11.1760 F200
G1 X2.6162 Y11.1760 F200
G1 X2.6416 Y11.1760 F200
G1 X2.6670 Y11.1760 F200
G1 X2.6924 Y11.1760 F200
G1 X5.1308 Y11.1760 F200
G1 X5.1562 Y11.1760 F200
G1 X5.1816 Y11.1760 F200
G1 X5.2070 Y11.1760 F200
G1 X7.4930 Y11.1760 F200
G1 X7.5184 Y11.1760 F200
G1 X13.1064 Y11.1760 F200
G1 X13.1318 Y11.1760 F200
G1 X18.2118 Y11.1760 F200
G1 X18.2372 Y11.1760 F200
G1 X0.1524 Y11.2014 F200
G1 X0.1778 Y11.2014 F200
G1 X0.2032 Y11.2014 F200
G1 X0.2286 Y11.2014 F200
G1 X2.6416 Y11.2014 F200
G1 X2.6670 Y11.2014 F200
G1 X2.6924 Y11.2014 F200
G1 X2.7178 Y11.2014 F200
G1 X5.1562 Y11.2014 F200
G1 X5.1816 Y11.2014 F200
G1 X5.2070 Y11.2014 F200
G1 X5.2324 Y11.2014 F200
G1 X7.4930 Y11.2014 F200
G1 X7.5184 Y11.2014 F200
G1 X13.1064 Y11.2014 F200
G1 X13.1318 Y11.2014 F200
G1 X18.2118 Y11.2014 F200
G1 X18.2372 Y11.2014 F200
G1 X0.1778 Y11.2268 F200
G1 X0.2032 Y11.2268 F200
G1 X0.2286 Y11.2268 F200
G1 X0.2540 Y11.2268 F200
G1 X2.6670 Y11.2268 F200
G1 X2.6924 Y11.2268 F200
G1 X2.7178 Y11.2268 F200
G1 X2.7432 Y11.2268 F200
G1 X5.1816 Y11.2268 F200
G1 X5.2070 Y11.2268 F200
G1 X5.2324 Y11.2268 F200
G1 X5.2578 Y11.2268 F200
G1 X7.4930 Y11.2268 F200
G1 X7.5184 Y11.2268 F200
G1 X13.1064 Y11.2268 F200
G1 X13.1318 Y11.2268 F200
G1 X18.2118 Y11.2268 F200
G1 X18.2372 Y11.2268 F200
G1 X0.2032 Y11.2522 F200
G1 X0.2286 Y11.2522 F200
G1 X0.2540 Y11.2522 F200
G1 X0.2794 Y11.2522 F200
G1 X2.6924 Y11.2522 F200
G1 X2.7178 Y11.2522 F200
G1 X2.7432 Y11.2522 F200
G1 X2.7686 Y11.2522 F200
G1 X5.2070 Y11.2522 F200
G1 X5.2324 Y11.2522 F200
G1 X5.2578 Y11.2522 F200
G1 X5.2832 Y11.2522 F200
G1 X7.4930 Y11.2522 F200
G1 X7.5184 Y11.2522 F200
G1 X13.1064 Y11.2522 F200
G1 X13.1318 Y11.2522 F200
G1 X18.2118 Y11.2522 F200
G1 X18.2372 Y11.2522 F200
G1 X0.2286 Y11.2776 F200
G1 X0.2540 Y11.2776 F200
G1 X0.2794 Y11.2776 F200
G1 X0.3048 Y11.2776 F200
G1 X2.7178 Y11.2776 F200
G1 X2.7432 Y11.2776 F200
G1 X2.7686 Y11.2776 F200
G1 X2.7940 Y11.2776 F200
G1 X5.2324 Y11.2776 F200
G1 X5.2578 Y11.2776 F200
G1 X5.2832 Y11.2776 F200
G1 X5.3086 Y11.2776 F200
G1 X7.4930 Y11.2776 F200
G1 X7.5184 Y11.2776 F200
G1 X7.5438 Y11.2776 F200
G1 X13.1064 Y11.2776 F200
G1 X13.1318 Y11.2776 F200
G1 X18.2118 Y11.2776 F200
G1 X18.2372 Y11.2776 F200
G1 X0.2540 Y11.3030 F200
G1 X0.2794 Y11.3030 F200
G1 X0.3048 Y11.3030 F200
G1 X0.3302 Y11.3030 F200
G1 X0.3556 Y11.3030 F200
G1 X2.7432 Y11.3030 F200
G1 X2.7686 Y11.3030 F200
G1 X2.7940 Y11.3030 F200
G1 X2.8194 Y11.3030 F200
G1 X2.8448 Y11.3030 F200
G1 X5.2578 Y11.3030 F200
G1 X5.2832 Y11.3030 F200
G1 X5.3086 Y11.3030 F200
G1 X5.3340 Y11.3030 F200
G1 X5.3594 Y11.3030 F200
G1 X7.4930 Y11.3030 F200
G1 X7.5184 Y11.3030 F200
G1 X7.5438 Y11.3030 F200
G1 X13.1064 Y11.3030 F200
G1 X13.1318 Y11.3030 F200
G1 X18.2118 Y11.3030 F200
G1 X18.2372 Y11.3030 F200
G1 X0.2794 Y11.3284 F200
G1 X0.3048 Y11.3284 F200
G1 X0.3302 Y11.3284 F200
G1 X0.3556 Y11.3284 F200
G1 X0.3810 Y11.3284 F200
G1 X2.7686 Y11.3284 F200
G1 X2.7940 Y11.3284 F200
G1 X2.8194 Y11.3284 F200
G1 X2.8448 Y11.3284 F200
G1 X2.8702 Y11.3284 F200
G1 X5.2832 Y11.3284 F200
G1 X5.3086 Y11.3284 F200
G1 X5.3340 Y11.3284 F200
G1 X5.3594 Y11.3284 F200
G1 X5.3848 Y11.3284 F200
G1 X7.5184 Y11.3284 F200
G1 X7.5438 Y11.3284 F200
G1 X7.5692 Y11.3284 F200
G1 X13.1064 Y11.3284 F200
G1 X13.1318 Y11.3284 F200
G1 X18.2118 Y11.3284 F200
G1 X18.2372 Y11.3284 F200
G1 X0.3302 Y11.3538 F200
G1 X0.3556 Y11.3538 F200
G1 X0.3810 Y11.3538 F200
G1 X0.4064 Y11.3538 F200
G1 X0.4318 Y11.3538 F200
G1 X2.8194 Y11.3538 F200
G1 X2.8448 Y11.3538 F200
G1 X2.8702 Y11.3538 F200
G1 X2.8956 Y11.3538 F200
G1 X2.9210 Y11.3538 F200
G1 X5.3340 Y11.3538 F200
G1 X5.3594 Y11.3538 F200
G1 X5.3848 Y11.3538 F200
G1 X5.4102 Y11.3538 F200
G1 X5.4356 Y11.3538 F200
G1 X7.5184 Y11.3538 F200
G1 X7.5438 Y11.3538 F200
G1 X7.5692 Y11.3538 F200
G1 X7.5946 Y11.3538 F200
G1 X13.1064 Y11.3538 F200
G1 X13.1318 Y11.3538 F200
G1 X18.2118 Y11.3538 F200
G1 X18.2372 Y11.3538 F200
G1 X0.3556 Y11.3792 F200
G1 X0.3810 Y11.3792 F200
G1 X0.4064 Y11.3792 F200
G1 X0.4318 Y11.3792 F200
G1 X0.4572 Y11.3792 F200
G1 X0.4826 Y11.3792 F200
G1 X2.8448 Y11.3792 F200
G1 X2.8702 Y11.3792 F200
G1 X2.8956 Y11.3792 F200
G1 X2.9210 Y11.3792 F200
